<?xml version="1.0" encoding="UTF-8"?>
<map version="1.8" tiledversion="1.8.4" orientation="orthogonal" renderorder="right-down" width="50" height="40" tilewidth="16" tileheight="16" infinite="0" nextlayerid="27" nextobjectid="41">
 <properties>
  <property name="Outdoors" value="T"/>
  <property name="Warp" value="10 40 Mountain 91 1 11 40 Mountain 91 1 12 40 Mountain 91 1"/>
 </properties>
 <tileset firstgid="1" name="spring_outdoorsTileSheet2" tilewidth="16" tileheight="16" tilecount="1120" columns="16">
  <image source="spring_outdoorsTileSheet2.png" width="256" height="1120"/>
  <tile id="536">
   <animation>
    <frame tileid="536" duration="1000"/>
    <frame tileid="540" duration="1000"/>
   </animation>
  </tile>
  <tile id="537">
   <animation>
    <frame tileid="537" duration="1000"/>
    <frame tileid="541" duration="1000"/>
   </animation>
  </tile>
  <tile id="538">
   <animation>
    <frame tileid="538" duration="1000"/>
    <frame tileid="542" duration="1000"/>
   </animation>
  </tile>
  <tile id="544">
   <animation>
    <frame tileid="544" duration="1000"/>
    <frame tileid="576" duration="1000"/>
   </animation>
  </tile>
  <tile id="545">
   <animation>
    <frame tileid="545" duration="1000"/>
    <frame tileid="577" duration="1000"/>
   </animation>
  </tile>
  <tile id="546">
   <animation>
    <frame tileid="546" duration="1000"/>
    <frame tileid="578" duration="1000"/>
   </animation>
  </tile>
  <tile id="547">
   <animation>
    <frame tileid="547" duration="1000"/>
    <frame tileid="579" duration="1000"/>
   </animation>
  </tile>
  <tile id="550">
   <animation>
    <frame tileid="550" duration="1000"/>
    <frame tileid="582" duration="1000"/>
   </animation>
  </tile>
  <tile id="551">
   <animation>
    <frame tileid="551" duration="1000"/>
    <frame tileid="583" duration="1000"/>
   </animation>
  </tile>
  <tile id="552">
   <animation>
    <frame tileid="552" duration="1000"/>
    <frame tileid="556" duration="1000"/>
   </animation>
  </tile>
  <tile id="553">
   <animation>
    <frame tileid="553" duration="1000"/>
    <frame tileid="557" duration="1000"/>
   </animation>
  </tile>
  <tile id="554">
   <animation>
    <frame tileid="554" duration="1000"/>
    <frame tileid="558" duration="1000"/>
   </animation>
  </tile>
  <tile id="563">
   <animation>
    <frame tileid="563" duration="1000"/>
    <frame tileid="595" duration="1000"/>
   </animation>
  </tile>
  <tile id="564">
   <animation>
    <frame tileid="564" duration="1000"/>
    <frame tileid="596" duration="1000"/>
   </animation>
  </tile>
  <tile id="565">
   <animation>
    <frame tileid="565" duration="1000"/>
    <frame tileid="597" duration="1000"/>
   </animation>
  </tile>
  <tile id="566">
   <animation>
    <frame tileid="566" duration="1000"/>
    <frame tileid="598" duration="1000"/>
   </animation>
  </tile>
  <tile id="609">
   <animation>
    <frame tileid="609" duration="1000"/>
    <frame tileid="611" duration="1000"/>
   </animation>
  </tile>
  <tile id="614">
   <animation>
    <frame tileid="614" duration="1000"/>
    <frame tileid="612" duration="1000"/>
   </animation>
  </tile>
  <tile id="624">
   <animation>
    <frame tileid="624" duration="1000"/>
    <frame tileid="626" duration="1000"/>
   </animation>
  </tile>
  <tile id="625">
   <animation>
    <frame tileid="625" duration="1000"/>
    <frame tileid="627" duration="1000"/>
   </animation>
  </tile>
  <tile id="630">
   <animation>
    <frame tileid="630" duration="1000"/>
    <frame tileid="628" duration="1000"/>
   </animation>
  </tile>
  <tile id="631">
   <animation>
    <frame tileid="631" duration="1000"/>
    <frame tileid="629" duration="1000"/>
   </animation>
  </tile>
  <tile id="728">
   <animation>
    <frame tileid="728" duration="1000"/>
    <frame tileid="732" duration="1000"/>
   </animation>
  </tile>
  <tile id="729">
   <animation>
    <frame tileid="729" duration="1000"/>
    <frame tileid="733" duration="1000"/>
   </animation>
  </tile>
  <tile id="730">
   <animation>
    <frame tileid="730" duration="1000"/>
    <frame tileid="734" duration="1000"/>
   </animation>
  </tile>
  <tile id="744">
   <animation>
    <frame tileid="744" duration="1000"/>
    <frame tileid="748" duration="1000"/>
   </animation>
  </tile>
  <tile id="745">
   <animation>
    <frame tileid="745" duration="1000"/>
    <frame tileid="749" duration="1000"/>
   </animation>
  </tile>
  <tile id="746">
   <animation>
    <frame tileid="746" duration="1000"/>
    <frame tileid="750" duration="1000"/>
   </animation>
  </tile>
  <tile id="760">
   <animation>
    <frame tileid="760" duration="1000"/>
    <frame tileid="764" duration="1000"/>
   </animation>
  </tile>
  <tile id="762">
   <animation>
    <frame tileid="762" duration="1000"/>
    <frame tileid="766" duration="1000"/>
   </animation>
  </tile>
  <tile id="776">
   <animation>
    <frame tileid="776" duration="1000"/>
    <frame tileid="780" duration="1000"/>
   </animation>
  </tile>
  <tile id="778">
   <animation>
    <frame tileid="778" duration="1000"/>
    <frame tileid="782" duration="1000"/>
   </animation>
  </tile>
  <tile id="792">
   <animation>
    <frame tileid="792" duration="1000"/>
    <frame tileid="796" duration="1000"/>
   </animation>
  </tile>
  <tile id="794">
   <animation>
    <frame tileid="794" duration="1000"/>
    <frame tileid="798" duration="1000"/>
   </animation>
  </tile>
  <tile id="808">
   <animation>
    <frame tileid="808" duration="1000"/>
    <frame tileid="812" duration="1000"/>
   </animation>
  </tile>
  <tile id="809">
   <animation>
    <frame tileid="809" duration="1000"/>
    <frame tileid="813" duration="1000"/>
   </animation>
  </tile>
  <tile id="810">
   <animation>
    <frame tileid="810" duration="1000"/>
    <frame tileid="814" duration="1000"/>
   </animation>
  </tile>
  <tile id="824">
   <animation>
    <frame tileid="824" duration="1000"/>
    <frame tileid="828" duration="1000"/>
   </animation>
  </tile>
  <tile id="825">
   <animation>
    <frame tileid="825" duration="1000"/>
    <frame tileid="829" duration="1000"/>
   </animation>
  </tile>
  <tile id="840">
   <animation>
    <frame tileid="840" duration="1000"/>
    <frame tileid="844" duration="1000"/>
   </animation>
  </tile>
  <tile id="841">
   <animation>
    <frame tileid="841" duration="1000"/>
    <frame tileid="845" duration="1000"/>
   </animation>
  </tile>
  <tile id="856">
   <animation>
    <frame tileid="856" duration="1000"/>
    <frame tileid="860" duration="1000"/>
   </animation>
  </tile>
  <tile id="857">
   <animation>
    <frame tileid="857" duration="1000"/>
    <frame tileid="861" duration="1000"/>
   </animation>
  </tile>
  <tile id="909">
   <animation>
    <frame tileid="909" duration="1000"/>
    <frame tileid="941" duration="1000"/>
   </animation>
  </tile>
  <tile id="924">
   <animation>
    <frame tileid="924" duration="1000"/>
    <frame tileid="956" duration="1000"/>
   </animation>
  </tile>
  <tile id="925">
   <animation>
    <frame tileid="925" duration="1000"/>
    <frame tileid="957" duration="1000"/>
   </animation>
  </tile>
  <tile id="926">
   <animation>
    <frame tileid="926" duration="1000"/>
    <frame tileid="927" duration="1000"/>
   </animation>
  </tile>
  <tile id="942">
   <animation>
    <frame tileid="942" duration="1000"/>
    <frame tileid="943" duration="1000"/>
   </animation>
  </tile>
  <tile id="972">
   <animation>
    <frame tileid="972" duration="1000"/>
    <frame tileid="1004" duration="1000"/>
   </animation>
  </tile>
  <tile id="974">
   <animation>
    <frame tileid="974" duration="1000"/>
    <frame tileid="975" duration="1000"/>
   </animation>
  </tile>
  <tile id="988">
   <animation>
    <frame tileid="988" duration="1000"/>
    <frame tileid="1020" duration="1000"/>
   </animation>
  </tile>
  <tile id="989">
   <animation>
    <frame tileid="989" duration="1000"/>
    <frame tileid="1021" duration="1000"/>
   </animation>
  </tile>
  <tile id="990">
   <animation>
    <frame tileid="990" duration="1000"/>
    <frame tileid="991" duration="1000"/>
   </animation>
  </tile>
  <tile id="1068">
   <animation>
    <frame tileid="1068" duration="1000"/>
    <frame tileid="1069" duration="1000"/>
   </animation>
  </tile>
  <tile id="1070">
   <animation>
    <frame tileid="1071" duration="1000"/>
    <frame tileid="1070" duration="1000"/>
   </animation>
  </tile>
 </tileset>
 <tileset firstgid="1121" name="outdoors" tilewidth="16" tileheight="16" tilecount="1975" columns="25">
  <image source="spring_outdoorsTileSheet.png" width="400" height="1264"/>
  <tile id="150">
   <properties>
    <property name="Spawnable" value="t"/>
    <property name="Type" value="Grass"/>
   </properties>
  </tile>
  <tile id="151">
   <properties>
    <property name="Type" value="Grass"/>
   </properties>
   <animation>
    <frame tileid="151" duration="1000"/>
    <frame tileid="152" duration="1000"/>
   </animation>
  </tile>
  <tile id="152">
   <animation>
    <frame tileid="152" duration="1000"/>
    <frame tileid="151" duration="1000"/>
   </animation>
  </tile>
  <tile id="156">
   <properties>
    <property name="Spawnable" value="t"/>
    <property name="Type" value="Grass"/>
   </properties>
  </tile>
  <tile id="175">
   <properties>
    <property name="Spawnable" value="t"/>
    <property name="Type" value="Grass"/>
   </properties>
  </tile>
  <tile id="176">
   <properties>
    <property name="Diggable" value="t"/>
    <property name="Type" value="Dirt"/>
   </properties>
  </tile>
  <tile id="177">
   <properties>
    <property name="Type" value="Dirt"/>
   </properties>
  </tile>
  <tile id="178">
   <properties>
    <property name="Type" value="Dirt"/>
   </properties>
  </tile>
  <tile id="179">
   <properties>
    <property name="Type" value="Grass"/>
   </properties>
  </tile>
  <tile id="180">
   <properties>
    <property name="Spawnable" value="t"/>
    <property name="Type" value="Grass"/>
   </properties>
  </tile>
  <tile id="181">
   <properties>
    <property name="Type" value="Dirt"/>
   </properties>
  </tile>
  <tile id="182">
   <properties>
    <property name="Type" value="Dirt"/>
   </properties>
  </tile>
  <tile id="200">
   <properties>
    <property name="Spawnable" value="t"/>
    <property name="Type" value="Grass"/>
   </properties>
  </tile>
  <tile id="202">
   <properties>
    <property name="Type" value="Dirt"/>
   </properties>
  </tile>
  <tile id="203">
   <properties>
    <property name="Type" value="Grass"/>
   </properties>
  </tile>
  <tile id="204">
   <properties>
    <property name="Type" value="Grass"/>
   </properties>
  </tile>
  <tile id="205">
   <properties>
    <property name="Type" value="Grass"/>
   </properties>
  </tile>
  <tile id="206">
   <properties>
    <property name="Diggable" value="t"/>
    <property name="Type" value="Dirt"/>
   </properties>
  </tile>
  <tile id="207">
   <properties>
    <property name="Diggable" value="t"/>
    <property name="Type" value="Dirt"/>
   </properties>
  </tile>
  <tile id="209">
   <properties>
    <property name="Water" value="t"/>
   </properties>
   <animation>
    <frame tileid="209" duration="1000"/>
    <frame tileid="1208" duration="1000"/>
   </animation>
  </tile>
  <tile id="225">
   <properties>
    <property name="Type" value="Dirt"/>
   </properties>
  </tile>
  <tile id="226">
   <properties>
    <property name="Diggable" value="t"/>
    <property name="Type" value="Dirt"/>
   </properties>
  </tile>
  <tile id="227">
   <properties>
    <property name="Diggable" value="t"/>
    <property name="Type" value="Dirt"/>
   </properties>
  </tile>
  <tile id="228">
   <properties>
    <property name="Type" value="Dirt"/>
   </properties>
  </tile>
  <tile id="229">
   <properties>
    <property name="Type" value="Grass"/>
   </properties>
  </tile>
  <tile id="230">
   <properties>
    <property name="Type" value="Grass"/>
   </properties>
  </tile>
  <tile id="231">
   <properties>
    <property name="Diggable" value="t"/>
    <property name="Type" value="Dirt"/>
   </properties>
  </tile>
  <tile id="234">
   <properties>
    <property name="Water" value="t"/>
   </properties>
  </tile>
  <tile id="250">
   <properties>
    <property name="Type" value="Grass"/>
   </properties>
  </tile>
  <tile id="251">
   <properties>
    <property name="Type" value="Dirt"/>
   </properties>
  </tile>
  <tile id="252">
   <properties>
    <property name="Diggable" value="t"/>
    <property name="Type" value="Dirt"/>
   </properties>
  </tile>
  <tile id="253">
   <properties>
    <property name="Type" value="Grass"/>
   </properties>
  </tile>
  <tile id="254">
   <properties>
    <property name="Type" value="Grass"/>
   </properties>
  </tile>
  <tile id="255">
   <properties>
    <property name="Type" value="Grass"/>
   </properties>
  </tile>
  <tile id="256">
   <properties>
    <property name="Type" value="Grass"/>
   </properties>
  </tile>
  <tile id="265">
   <properties>
    <property name="Type" value="Dirt"/>
   </properties>
  </tile>
  <tile id="276">
   <properties>
    <property name="Type" value="Grass"/>
   </properties>
  </tile>
  <tile id="277">
   <properties>
    <property name="Spawnable" value="t"/>
    <property name="Type" value="Grass"/>
   </properties>
  </tile>
  <tile id="278">
   <properties>
    <property name="Type" value="Grass"/>
   </properties>
  </tile>
  <tile id="279">
   <properties>
    <property name="Type" value="Grass"/>
   </properties>
  </tile>
  <tile id="285">
   <properties>
    <property name="Water" value="t"/>
   </properties>
  </tile>
  <tile id="301">
   <properties>
    <property name="Type" value="Grass"/>
   </properties>
  </tile>
  <tile id="302">
   <properties>
    <property name="Spawnable" value="t"/>
    <property name="Type" value="Grass"/>
   </properties>
  </tile>
  <tile id="303">
   <properties>
    <property name="Type" value="Grass"/>
   </properties>
  </tile>
  <tile id="304">
   <properties>
    <property name="Type" value="Grass"/>
   </properties>
  </tile>
  <tile id="305">
   <properties>
    <property name="Type" value="Grass"/>
   </properties>
  </tile>
  <tile id="308">
   <properties>
    <property name="Water" value="t"/>
   </properties>
  </tile>
  <tile id="309">
   <properties>
    <property name="Water" value="t"/>
   </properties>
  </tile>
  <tile id="310">
   <properties>
    <property name="Water" value="t"/>
   </properties>
  </tile>
  <tile id="312">
   <properties>
    <property name="Type" value="Wood"/>
   </properties>
  </tile>
  <tile id="313">
   <properties>
    <property name="Type" value="Wood"/>
   </properties>
  </tile>
  <tile id="314">
   <properties>
    <property name="Type" value="Wood"/>
   </properties>
  </tile>
  <tile id="325">
   <properties>
    <property name="Type" value="Grass"/>
   </properties>
  </tile>
  <tile id="326">
   <properties>
    <property name="Type" value="Grass"/>
   </properties>
  </tile>
  <tile id="327">
   <properties>
    <property name="Type" value="Grass"/>
   </properties>
  </tile>
  <tile id="328">
   <properties>
    <property name="Type" value="Grass"/>
   </properties>
  </tile>
  <tile id="329">
   <properties>
    <property name="Type" value="Grass"/>
   </properties>
  </tile>
  <tile id="333">
   <properties>
    <property name="Water" value="t"/>
   </properties>
  </tile>
  <tile id="334">
   <properties>
    <property name="Water" value="t"/>
   </properties>
  </tile>
  <tile id="335">
   <properties>
    <property name="Water" value="t"/>
   </properties>
  </tile>
  <tile id="336">
   <properties>
    <property name="Water" value="t"/>
   </properties>
  </tile>
  <tile id="337">
   <properties>
    <property name="Type" value="Wood"/>
   </properties>
  </tile>
  <tile id="338">
   <properties>
    <property name="Type" value="Wood"/>
   </properties>
  </tile>
  <tile id="339">
   <properties>
    <property name="Type" value="Wood"/>
   </properties>
  </tile>
  <tile id="350">
   <properties>
    <property name="Type" value="Grass"/>
   </properties>
  </tile>
  <tile id="351">
   <properties>
    <property name="Spawnable" value="t"/>
    <property name="Type" value="Grass"/>
   </properties>
  </tile>
  <tile id="352">
   <properties>
    <property name="Type" value="Grass"/>
   </properties>
  </tile>
  <tile id="353">
   <properties>
    <property name="Type" value="Grass"/>
   </properties>
  </tile>
  <tile id="354">
   <properties>
    <property name="Type" value="Grass"/>
   </properties>
  </tile>
  <tile id="355">
   <properties>
    <property name="Type" value="Grass"/>
   </properties>
  </tile>
  <tile id="356">
   <properties>
    <property name="Type" value="Grass"/>
   </properties>
  </tile>
  <tile id="375">
   <properties>
    <property name="Type" value="Grass"/>
   </properties>
  </tile>
  <tile id="376">
   <properties>
    <property name="Type" value="Grass"/>
   </properties>
  </tile>
  <tile id="377">
   <properties>
    <property name="Type" value="Grass"/>
   </properties>
  </tile>
  <tile id="378">
   <properties>
    <property name="Type" value="Grass"/>
   </properties>
  </tile>
  <tile id="379">
   <properties>
    <property name="Type" value="Grass"/>
   </properties>
  </tile>
  <tile id="380">
   <properties>
    <property name="Spawnable" value="t"/>
    <property name="Type" value="Grass"/>
   </properties>
  </tile>
  <tile id="381">
   <properties>
    <property name="Type" value="Grass"/>
   </properties>
  </tile>
  <tile id="400">
   <properties>
    <property name="Type" value="Grass"/>
   </properties>
  </tile>
  <tile id="401">
   <properties>
    <property name="Type" value="Grass"/>
   </properties>
  </tile>
  <tile id="402">
   <properties>
    <property name="Spawnable" value="t"/>
    <property name="Type" value="Grass"/>
   </properties>
  </tile>
  <tile id="403">
   <properties>
    <property name="Spawnable" value="t"/>
    <property name="Type" value="Grass"/>
   </properties>
  </tile>
  <tile id="404">
   <properties>
    <property name="Type" value="Grass"/>
   </properties>
  </tile>
  <tile id="405">
   <properties>
    <property name="Type" value="Grass"/>
   </properties>
  </tile>
  <tile id="406">
   <properties>
    <property name="Type" value="Grass"/>
   </properties>
  </tile>
  <tile id="430">
   <properties>
    <property name="Type" value="Wood"/>
   </properties>
  </tile>
  <tile id="432">
   <properties>
    <property name="Type" value="Wood"/>
   </properties>
  </tile>
  <tile id="455">
   <properties>
    <property name="Type" value="Wood"/>
   </properties>
  </tile>
  <tile id="457">
   <properties>
    <property name="Type" value="Wood"/>
   </properties>
  </tile>
  <tile id="458">
   <properties>
    <property name="Type" value="Wood"/>
   </properties>
  </tile>
  <tile id="459">
   <properties>
    <property name="Type" value="Wood"/>
   </properties>
  </tile>
  <tile id="462">
   <properties>
    <property name="Type" value="Wood"/>
   </properties>
  </tile>
  <tile id="463">
   <properties>
    <property name="Diggable" value="T"/>
   </properties>
  </tile>
  <tile id="487">
   <properties>
    <property name="Type" value="Wood"/>
   </properties>
  </tile>
  <tile id="488">
   <properties>
    <property name="Diggable" value="T"/>
   </properties>
  </tile>
  <tile id="512">
   <properties>
    <property name="Type" value="Dirt"/>
   </properties>
  </tile>
  <tile id="513">
   <properties>
    <property name="Diggable" value="T"/>
   </properties>
  </tile>
  <tile id="528">
   <properties>
    <property name="Type" value="Wood"/>
   </properties>
  </tile>
  <tile id="529">
   <properties>
    <property name="Type" value="Wood"/>
   </properties>
  </tile>
  <tile id="534">
   <properties>
    <property name="Type" value="Dirt"/>
   </properties>
  </tile>
  <tile id="536">
   <properties>
    <property name="Type" value="Dirt"/>
   </properties>
  </tile>
  <tile id="537">
   <properties>
    <property name="Type" value="Dirt"/>
   </properties>
  </tile>
  <tile id="538">
   <properties>
    <property name="Type" value="Dirt"/>
   </properties>
  </tile>
  <tile id="553">
   <properties>
    <property name="Type" value="Wood"/>
   </properties>
  </tile>
  <tile id="554">
   <properties>
    <property name="Type" value="Wood"/>
   </properties>
  </tile>
  <tile id="558">
   <properties>
    <property name="Diggable" value="t"/>
    <property name="Type" value="Dirt"/>
   </properties>
  </tile>
  <tile id="560">
   <properties>
    <property name="Diggable" value="t"/>
    <property name="Type" value="Dirt"/>
   </properties>
  </tile>
  <tile id="561">
   <properties>
    <property name="Type" value="Dirt"/>
   </properties>
  </tile>
  <tile id="562">
   <properties>
    <property name="Type" value="Dirt"/>
   </properties>
  </tile>
  <tile id="563">
   <properties>
    <property name="Type" value="Dirt"/>
   </properties>
  </tile>
  <tile id="564">
   <properties>
    <property name="Diggable" value="t"/>
    <property name="Type" value="Dirt"/>
   </properties>
  </tile>
  <tile id="565">
   <properties>
    <property name="Type" value="Dirt"/>
   </properties>
  </tile>
  <tile id="566">
   <properties>
    <property name="Type" value="Dirt"/>
   </properties>
  </tile>
  <tile id="567">
   <properties>
    <property name="Spawnable" value="t"/>
    <property name="Type" value="Grass"/>
   </properties>
  </tile>
  <tile id="568">
   <properties>
    <property name="Type" value="Grass"/>
   </properties>
  </tile>
  <tile id="569">
   <properties>
    <property name="Spawnable" value="t"/>
    <property name="Type" value="Grass"/>
   </properties>
  </tile>
  <tile id="570">
   <properties>
    <property name="Type" value="Grass"/>
   </properties>
  </tile>
  <tile id="578">
   <properties>
    <property name="Type" value="Wood"/>
   </properties>
  </tile>
  <tile id="579">
   <properties>
    <property name="Type" value="Wood"/>
   </properties>
  </tile>
  <tile id="583">
   <properties>
    <property name="Diggable" value="t"/>
    <property name="Type" value="Dirt"/>
   </properties>
  </tile>
  <tile id="585">
   <properties>
    <property name="Diggable" value="t"/>
    <property name="Type" value="Dirt"/>
   </properties>
  </tile>
  <tile id="586">
   <properties>
    <property name="Type" value="Dirt"/>
   </properties>
  </tile>
  <tile id="587">
   <properties>
    <property name="Diggable" value="t"/>
    <property name="Type" value="Dirt"/>
   </properties>
  </tile>
  <tile id="588">
   <properties>
    <property name="Type" value="Dirt"/>
   </properties>
  </tile>
  <tile id="589">
   <properties>
    <property name="Diggable" value="t"/>
    <property name="Type" value="Dirt"/>
   </properties>
  </tile>
  <tile id="590">
   <properties>
    <property name="Type" value="Dirt"/>
   </properties>
  </tile>
  <tile id="591">
   <properties>
    <property name="Type" value="Dirt"/>
   </properties>
  </tile>
  <tile id="592">
   <properties>
    <property name="Type" value="Grass"/>
   </properties>
  </tile>
  <tile id="593">
   <properties>
    <property name="Type" value="Grass"/>
   </properties>
  </tile>
  <tile id="594">
   <properties>
    <property name="Type" value="Grass"/>
   </properties>
  </tile>
  <tile id="595">
   <properties>
    <property name="Type" value="Grass"/>
   </properties>
  </tile>
  <tile id="596">
   <properties>
    <property name="Type" value="Dirt"/>
   </properties>
  </tile>
  <tile id="597">
   <properties>
    <property name="Type" value="Dirt"/>
   </properties>
  </tile>
  <tile id="598">
   <properties>
    <property name="Type" value="Stone"/>
   </properties>
  </tile>
  <tile id="599">
   <properties>
    <property name="Type" value="Stone"/>
   </properties>
  </tile>
  <tile id="603">
   <animation>
    <frame tileid="603" duration="1000"/>
    <frame tileid="1287" duration="1000"/>
   </animation>
  </tile>
  <tile id="604">
   <animation>
    <frame tileid="604" duration="1000"/>
    <frame tileid="1288" duration="1000"/>
   </animation>
  </tile>
  <tile id="605">
   <properties>
    <property name="Type" value="Wood"/>
   </properties>
  </tile>
  <tile id="606">
   <properties>
    <property name="Diggable" value="t"/>
    <property name="Type" value="Dirt"/>
   </properties>
  </tile>
  <tile id="607">
   <properties>
    <property name="Diggable" value="t"/>
    <property name="Type" value="Dirt"/>
   </properties>
  </tile>
  <tile id="608">
   <properties>
    <property name="Diggable" value="t"/>
    <property name="Type" value="Dirt"/>
   </properties>
  </tile>
  <tile id="609">
   <animation>
    <frame tileid="609" duration="1000"/>
    <frame tileid="1285" duration="1000"/>
   </animation>
  </tile>
  <tile id="610">
   <properties>
    <property name="Diggable" value="t"/>
    <property name="Type" value="Dirt"/>
   </properties>
  </tile>
  <tile id="611">
   <properties>
    <property name="Type" value="Dirt"/>
   </properties>
  </tile>
  <tile id="612">
   <properties>
    <property name="Type" value="Dirt"/>
   </properties>
  </tile>
  <tile id="613">
   <properties>
    <property name="Type" value="Dirt"/>
   </properties>
  </tile>
  <tile id="614">
   <properties>
    <property name="Diggable" value="t"/>
    <property name="Type" value="Dirt"/>
   </properties>
  </tile>
  <tile id="615">
   <properties>
    <property name="Type" value="Dirt"/>
   </properties>
  </tile>
  <tile id="616">
   <properties>
    <property name="Type" value="Dirt"/>
   </properties>
  </tile>
  <tile id="617">
   <properties>
    <property name="Type" value="Dirt"/>
   </properties>
  </tile>
  <tile id="619">
   <properties>
    <property name="Type" value="Grass"/>
   </properties>
  </tile>
  <tile id="620">
   <properties>
    <property name="Type" value="Dirt"/>
   </properties>
  </tile>
  <tile id="621">
   <properties>
    <property name="Type" value="Dirt"/>
   </properties>
  </tile>
  <tile id="622">
   <properties>
    <property name="Type" value="Dirt"/>
   </properties>
  </tile>
  <tile id="623">
   <properties>
    <property name="Type" value="Stone"/>
   </properties>
  </tile>
  <tile id="628">
   <properties>
    <property name="Water" value="t"/>
   </properties>
  </tile>
  <tile id="629">
   <properties>
    <property name="Water" value="t"/>
   </properties>
  </tile>
  <tile id="630">
   <properties>
    <property name="Diggable" value="t"/>
    <property name="Type" value="Dirt"/>
   </properties>
  </tile>
  <tile id="631">
   <properties>
    <property name="Type" value="Dirt"/>
   </properties>
  </tile>
  <tile id="632">
   <properties>
    <property name="Diggable" value="t"/>
    <property name="Type" value="Dirt"/>
   </properties>
  </tile>
  <tile id="633">
   <properties>
    <property name="Type" value="Grass"/>
   </properties>
  </tile>
  <tile id="634">
   <properties>
    <property name="Spawnable" value="t"/>
    <property name="Type" value="Grass"/>
   </properties>
  </tile>
  <tile id="635">
   <properties>
    <property name="Type" value="Dirt"/>
   </properties>
  </tile>
  <tile id="636">
   <properties>
    <property name="Type" value="Dirt"/>
   </properties>
  </tile>
  <tile id="653">
   <properties>
    <property name="Water" value="t"/>
   </properties>
  </tile>
  <tile id="654">
   <properties>
    <property name="Type" value="Grass"/>
   </properties>
  </tile>
  <tile id="655">
   <properties>
    <property name="Type" value="Dirt"/>
   </properties>
  </tile>
  <tile id="656">
   <properties>
    <property name="Type" value="Dirt"/>
   </properties>
  </tile>
  <tile id="657">
   <properties>
    <property name="Type" value="Grass"/>
   </properties>
  </tile>
  <tile id="658">
   <properties>
    <property name="Type" value="Grass"/>
   </properties>
  </tile>
  <tile id="659">
   <properties>
    <property name="Type" value="Grass"/>
   </properties>
  </tile>
  <tile id="679">
   <properties>
    <property name="Type" value="Dirt"/>
   </properties>
  </tile>
  <tile id="680">
   <properties>
    <property name="Diggable" value="t"/>
    <property name="Type" value="Dirt"/>
   </properties>
  </tile>
  <tile id="681">
   <properties>
    <property name="Diggable" value="t"/>
    <property name="Type" value="Dirt"/>
   </properties>
  </tile>
  <tile id="682">
   <properties>
    <property name="Type" value="Dirt"/>
   </properties>
  </tile>
  <tile id="683">
   <properties>
    <property name="Type" value="Grass"/>
   </properties>
  </tile>
  <tile id="684">
   <properties>
    <property name="Type" value="Grass"/>
   </properties>
  </tile>
  <tile id="685">
   <properties>
    <property name="Diggable" value="t"/>
    <property name="Type" value="Dirt"/>
   </properties>
  </tile>
  <tile id="704">
   <properties>
    <property name="Type" value="Grass"/>
   </properties>
  </tile>
  <tile id="705">
   <properties>
    <property name="Type" value="Dirt"/>
   </properties>
  </tile>
  <tile id="706">
   <properties>
    <property name="Diggable" value="t"/>
    <property name="Type" value="Dirt"/>
   </properties>
  </tile>
  <tile id="707">
   <properties>
    <property name="Type" value="Grass"/>
   </properties>
  </tile>
  <tile id="708">
   <animation>
    <frame tileid="708" duration="1000"/>
    <frame tileid="1234" duration="1000"/>
   </animation>
  </tile>
  <tile id="709">
   <animation>
    <frame tileid="709" duration="1000"/>
    <frame tileid="1235" duration="1000"/>
   </animation>
  </tile>
  <tile id="710">
   <animation>
    <frame tileid="710" duration="1000"/>
    <frame tileid="1236" duration="1000"/>
   </animation>
  </tile>
  <tile id="733">
   <animation>
    <frame tileid="733" duration="1000"/>
    <frame tileid="1259" duration="1000"/>
   </animation>
  </tile>
  <tile id="734">
   <properties>
    <property name="Water" value="t"/>
   </properties>
  </tile>
  <tile id="735">
   <animation>
    <frame tileid="735" duration="1000"/>
    <frame tileid="1261" duration="1000"/>
   </animation>
  </tile>
  <tile id="756">
   <animation>
    <frame tileid="756" duration="1000"/>
    <frame tileid="1282" duration="1000"/>
   </animation>
  </tile>
  <tile id="757">
   <animation>
    <frame tileid="757" duration="1000"/>
    <frame tileid="1283" duration="1000"/>
   </animation>
  </tile>
  <tile id="758">
   <animation>
    <frame tileid="758" duration="1000"/>
    <frame tileid="1284" duration="1000"/>
   </animation>
  </tile>
  <tile id="759">
   <properties>
    <property name="Water" value="t"/>
   </properties>
  </tile>
  <tile id="760">
   <animation>
    <frame tileid="760" duration="1000"/>
    <frame tileid="1286" duration="1000"/>
   </animation>
  </tile>
  <tile id="779">
   <properties>
    <property name="Passable" value="T"/>
    <property name="Type" value="Wood"/>
   </properties>
  </tile>
  <tile id="780">
   <properties>
    <property name="Passable" value="T"/>
    <property name="Type" value="Wood"/>
   </properties>
  </tile>
  <tile id="781">
   <properties>
    <property name="Passable" value="T"/>
    <property name="Type" value="Wood"/>
   </properties>
  </tile>
  <tile id="782">
   <properties>
    <property name="Passable" value="T"/>
    <property name="Type" value="Wood"/>
   </properties>
  </tile>
  <tile id="783">
   <animation>
    <frame tileid="783" duration="1000"/>
    <frame tileid="1309" duration="1000"/>
   </animation>
  </tile>
  <tile id="785">
   <animation>
    <frame tileid="785" duration="1000"/>
    <frame tileid="1311" duration="1000"/>
   </animation>
  </tile>
  <tile id="809">
   <properties>
    <property name="Passable" value="T"/>
    <property name="Type" value="Wood"/>
   </properties>
  </tile>
  <tile id="812">
   <properties>
    <property name="Type" value="Stone"/>
   </properties>
  </tile>
  <tile id="813">
   <properties>
    <property name="Type" value="Stone"/>
   </properties>
  </tile>
  <tile id="834">
   <properties>
    <property name="Passable" value="T"/>
    <property name="Type" value="Wood"/>
   </properties>
  </tile>
  <tile id="859">
   <properties>
    <property name="Passable" value="T"/>
    <property name="Type" value="Wood"/>
   </properties>
  </tile>
  <tile id="884">
   <properties>
    <property name="Passable" value="T"/>
    <property name="Type" value="Wood"/>
   </properties>
  </tile>
  <tile id="1186">
   <properties>
    <property name="Water" value="T"/>
   </properties>
  </tile>
  <tile id="1187">
   <properties>
    <property name="Water" value="T"/>
   </properties>
  </tile>
  <tile id="1188">
   <properties>
    <property name="Water" value="T"/>
   </properties>
  </tile>
  <tile id="1211">
   <properties>
    <property name="Water" value="T"/>
   </properties>
  </tile>
  <tile id="1212">
   <properties>
    <property name="Water" value="T"/>
   </properties>
  </tile>
  <tile id="1213">
   <properties>
    <property name="Water" value="T"/>
   </properties>
  </tile>
  <tile id="1227">
   <properties>
    <property name="Water" value="T"/>
   </properties>
  </tile>
  <tile id="1228">
   <properties>
    <property name="Water" value="T"/>
   </properties>
  </tile>
  <tile id="1229">
   <properties>
    <property name="Water" value="T"/>
   </properties>
  </tile>
  <tile id="1230">
   <properties>
    <property name="Water" value="T"/>
   </properties>
  </tile>
  <tile id="1231">
   <properties>
    <property name="Water" value="T"/>
   </properties>
  </tile>
  <tile id="1237">
   <properties>
    <property name="Water" value="T"/>
   </properties>
  </tile>
  <tile id="1238">
   <properties>
    <property name="Water" value="T"/>
   </properties>
  </tile>
  <tile id="1239">
   <properties>
    <property name="Water" value="T"/>
   </properties>
  </tile>
  <tile id="1240">
   <properties>
    <property name="Water" value="T"/>
   </properties>
  </tile>
  <tile id="1241">
   <properties>
    <property name="Water" value="T"/>
   </properties>
  </tile>
  <tile id="1242">
   <properties>
    <property name="Water" value="T"/>
   </properties>
  </tile>
  <tile id="1243">
   <properties>
    <property name="Water" value="T"/>
   </properties>
  </tile>
  <tile id="1244">
   <properties>
    <property name="Water" value="T"/>
   </properties>
  </tile>
  <tile id="1245">
   <properties>
    <property name="Water" value="T"/>
   </properties>
  </tile>
  <tile id="1246">
   <properties>
    <property name="Passable" value="F"/>
    <property name="Water" value="T"/>
   </properties>
  </tile>
  <tile id="1247">
   <properties>
    <property name="Water" value="T"/>
   </properties>
  </tile>
  <tile id="1248">
   <properties>
    <property name="Water" value="T"/>
   </properties>
  </tile>
  <tile id="1249">
   <properties>
    <property name="Passable" value="F"/>
    <property name="Water" value="T"/>
   </properties>
  </tile>
  <tile id="1252">
   <properties>
    <property name="Water" value="T"/>
   </properties>
  </tile>
  <tile id="1253">
   <properties>
    <property name="Water" value="T"/>
   </properties>
  </tile>
  <tile id="1254">
   <properties>
    <property name="Water" value="T"/>
   </properties>
  </tile>
  <tile id="1255">
   <properties>
    <property name="Water" value="T"/>
   </properties>
  </tile>
  <tile id="1256">
   <properties>
    <property name="Water" value="T"/>
   </properties>
  </tile>
  <tile id="1263">
   <properties>
    <property name="Water" value="T"/>
   </properties>
  </tile>
  <tile id="1264">
   <properties>
    <property name="Water" value="T"/>
   </properties>
  </tile>
  <tile id="1265">
   <properties>
    <property name="Water" value="T"/>
   </properties>
  </tile>
  <tile id="1266">
   <properties>
    <property name="Passable" value="F"/>
    <property name="Water" value="T"/>
   </properties>
  </tile>
  <tile id="1267">
   <properties>
    <property name="Passable" value="F"/>
    <property name="Water" value="T"/>
   </properties>
  </tile>
  <tile id="1268">
   <properties>
    <property name="Water" value="T"/>
   </properties>
  </tile>
  <tile id="1269">
   <properties>
    <property name="Water" value="T"/>
   </properties>
  </tile>
  <tile id="1270">
   <properties>
    <property name="Water" value="T"/>
   </properties>
  </tile>
  <tile id="1271">
   <properties>
    <property name="Passable" value="F"/>
    <property name="Water" value="T"/>
   </properties>
  </tile>
  <tile id="1272">
   <properties>
    <property name="Water" value="T"/>
   </properties>
  </tile>
  <tile id="1273">
   <properties>
    <property name="Water" value="T"/>
   </properties>
  </tile>
  <tile id="1274">
   <properties>
    <property name="Water" value="T"/>
   </properties>
  </tile>
  <tile id="1277">
   <properties>
    <property name="Water" value="T"/>
   </properties>
  </tile>
  <tile id="1278">
   <properties>
    <property name="Water" value="T"/>
   </properties>
  </tile>
  <tile id="1279">
   <properties>
    <property name="Water" value="T"/>
   </properties>
  </tile>
  <tile id="1280">
   <properties>
    <property name="Water" value="T"/>
   </properties>
  </tile>
  <tile id="1281">
   <properties>
    <property name="Water" value="T"/>
   </properties>
  </tile>
  <tile id="1293">
   <animation>
    <frame tileid="1293" duration="400"/>
    <frame tileid="1294" duration="400"/>
    <frame tileid="1295" duration="400"/>
    <frame tileid="1296" duration="400"/>
   </animation>
  </tile>
  <tile id="1297">
   <properties>
    <property name="Water" value="T"/>
   </properties>
  </tile>
  <tile id="1298">
   <properties>
    <property name="Water" value="T"/>
   </properties>
  </tile>
  <tile id="1299">
   <properties>
    <property name="Passable" value="F"/>
    <property name="Water" value="T"/>
   </properties>
  </tile>
  <tile id="1302">
   <properties>
    <property name="Water" value="T"/>
   </properties>
  </tile>
  <tile id="1303">
   <properties>
    <property name="Water" value="T"/>
   </properties>
  </tile>
  <tile id="1304">
   <properties>
    <property name="Water" value="T"/>
   </properties>
  </tile>
  <tile id="1305">
   <properties>
    <property name="Water" value="T"/>
   </properties>
  </tile>
  <tile id="1306">
   <properties>
    <property name="Water" value="T"/>
   </properties>
  </tile>
  <tile id="1318">
   <animation>
    <frame tileid="1318" duration="400"/>
    <frame tileid="1319" duration="400"/>
    <frame tileid="1320" duration="400"/>
    <frame tileid="1321" duration="400"/>
   </animation>
  </tile>
  <tile id="1323">
   <properties>
    <property name="Water" value="T"/>
   </properties>
  </tile>
  <tile id="1775">
   <properties>
    <property name="Type" value="Wood"/>
   </properties>
  </tile>
  <tile id="1776">
   <properties>
    <property name="Type" value="Wood"/>
   </properties>
  </tile>
  <tile id="1777">
   <properties>
    <property name="Type" value="Wood"/>
   </properties>
  </tile>
  <tile id="1790">
   <properties>
    <property name="Type" value="Wood"/>
   </properties>
  </tile>
  <tile id="1791">
   <properties>
    <property name="Type" value="Wood"/>
   </properties>
  </tile>
  <tile id="1800">
   <properties>
    <property name="Type" value="Wood"/>
   </properties>
  </tile>
  <tile id="1801">
   <properties>
    <property name="Type" value="Wood"/>
   </properties>
  </tile>
  <tile id="1802">
   <properties>
    <property name="Type" value="Wood"/>
   </properties>
  </tile>
  <tile id="1815">
   <properties>
    <property name="Type" value="Wood"/>
   </properties>
  </tile>
  <tile id="1816">
   <properties>
    <property name="Type" value="Wood"/>
   </properties>
  </tile>
  <tile id="1843">
   <properties>
    <property name="Water" value="T"/>
   </properties>
  </tile>
  <tile id="1844">
   <properties>
    <property name="Water" value="T"/>
   </properties>
  </tile>
  <tile id="1868">
   <properties>
    <property name="Water" value="T"/>
   </properties>
  </tile>
  <tile id="1869">
   <properties>
    <property name="Water" value="T"/>
   </properties>
  </tile>
  <tile id="1964">
   <properties>
    <property name="Type" value="Stone"/>
   </properties>
  </tile>
  <tile id="1965">
   <properties>
    <property name="Type" value="Stone"/>
   </properties>
  </tile>
  <tile id="1966">
   <properties>
    <property name="Type" value="Stone"/>
   </properties>
  </tile>
  <wangsets>
   <wangset name="Canopy" type="corner" tile="-1">
    <wangcolor name="" color="#ff0000" tile="-1" probability="1"/>
    <wangcolor name="" color="#00ff00" tile="-1" probability="1"/>
    <wangtile tileid="940" wangid="0,1,0,2,0,1,0,1"/>
    <wangtile tileid="941" wangid="0,2,0,2,0,2,0,1"/>
    <wangtile tileid="942" wangid="0,1,0,2,0,2,0,2"/>
    <wangtile tileid="943" wangid="0,1,0,2,0,2,0,1"/>
    <wangtile tileid="944" wangid="0,1,0,2,0,2,0,1"/>
    <wangtile tileid="945" wangid="0,1,0,1,0,2,0,1"/>
    <wangtile tileid="946" wangid="0,1,0,1,0,1,0,1"/>
    <wangtile tileid="965" wangid="0,2,0,2,0,1,0,1"/>
    <wangtile tileid="966" wangid="0,2,0,0,0,2,0,2"/>
    <wangtile tileid="967" wangid="0,2,0,0,0,0,0,2"/>
    <wangtile tileid="968" wangid="0,2,0,0,0,0,0,2"/>
    <wangtile tileid="969" wangid="0,2,0,2,0,0,0,2"/>
    <wangtile tileid="970" wangid="0,1,0,2,0,2,0,2"/>
    <wangtile tileid="971" wangid="0,1,0,1,0,1,0,1"/>
    <wangtile tileid="990" wangid="0,2,0,2,0,1,0,1"/>
    <wangtile tileid="991" wangid="0,0,0,0,0,2,0,2"/>
    <wangtile tileid="992" wangid="0,0,0,0,0,0,0,2"/>
    <wangtile tileid="993" wangid="0,2,0,0,0,0,0,0"/>
    <wangtile tileid="994" wangid="0,2,0,2,0,0,0,0"/>
    <wangtile tileid="995" wangid="0,2,0,1,0,2,0,2"/>
    <wangtile tileid="996" wangid="0,1,0,1,0,1,0,1"/>
    <wangtile tileid="1015" wangid="0,2,0,2,0,2,0,1"/>
    <wangtile tileid="1016" wangid="0,0,0,0,0,2,0,2"/>
    <wangtile tileid="1017" wangid="0,0,0,0,0,2,0,0"/>
    <wangtile tileid="1018" wangid="0,0,0,2,0,0,0,0"/>
    <wangtile tileid="1019" wangid="0,2,0,2,0,0,0,0"/>
    <wangtile tileid="1020" wangid="0,1,0,1,0,2,0,2"/>
    <wangtile tileid="1040" wangid="0,2,0,2,0,1,0,2"/>
    <wangtile tileid="1041" wangid="0,0,0,2,0,2,0,2"/>
    <wangtile tileid="1042" wangid="0,0,0,2,0,2,0,0"/>
    <wangtile tileid="1043" wangid="0,0,0,2,0,2,0,0"/>
    <wangtile tileid="1044" wangid="0,2,0,2,0,2,0,0"/>
    <wangtile tileid="1045" wangid="0,1,0,1,0,2,0,2"/>
    <wangtile tileid="1065" wangid="0,2,0,1,0,1,0,1"/>
    <wangtile tileid="1066" wangid="0,2,0,1,0,1,0,2"/>
    <wangtile tileid="1067" wangid="0,2,0,1,0,1,0,2"/>
    <wangtile tileid="1068" wangid="0,2,0,2,0,1,0,2"/>
    <wangtile tileid="1069" wangid="0,2,0,1,0,2,0,2"/>
    <wangtile tileid="1070" wangid="0,1,0,1,0,1,0,2"/>
   </wangset>
  </wangsets>
 </tileset>
 <tileset firstgid="3096" name="Paths" tilewidth="16" tileheight="16" tilecount="36" columns="4">
  <image source="paths.png" width="64" height="144"/>
  <tile id="0">
   <properties>
    <property name="PathType" value="NE"/>
   </properties>
  </tile>
  <tile id="1">
   <properties>
    <property name="PathType" value="SE"/>
   </properties>
  </tile>
  <tile id="2">
   <properties>
    <property name="PathType" value="WS"/>
   </properties>
  </tile>
  <tile id="3">
   <properties>
    <property name="PathType" value="WN"/>
   </properties>
  </tile>
  <tile id="4">
   <properties>
    <property name="PathType" value="Crossroad"/>
   </properties>
  </tile>
  <tile id="7">
   <properties>
    <property name="PathType" value="End"/>
   </properties>
  </tile>
 </tileset>
 <layer id="1" name="Back" width="50" height="40">
  <data encoding="csv">
1296,1296,1296,1296,1296,1296,1296,1296,1296,1496,1497,1498,1296,1296,1296,1296,1296,1296,1296,1296,2743,2744,2743,2743,2743,2743,2743,2743,1296,1296,1296,1296,1296,1472,1472,1473,1296,1296,1296,1346,1352,1349,1296,1296,1296,1271,1296,1296,1296,1639,
1296,1296,1296,1296,1296,1296,1296,1296,1296,1296,1296,1296,1296,1296,1296,1296,1296,1296,1296,1296,2743,2743,2743,2743,2743,2743,2743,2743,1296,0,0,1296,1296,1296,1296,1296,1296,1296,1296,742,1347,1349,1296,1296,1296,1296,1296,1296,1296,1296,
1296,1296,1296,1296,1296,1296,1296,1296,1296,1296,1296,1296,1296,1296,1296,1296,1296,1296,1296,1296,1296,2743,2743,2743,2743,2743,2743,2743,1296,0,0,1296,1296,1296,1296,1296,1296,1296,1296,1347,1347,741,1296,1296,1296,1296,1296,1296,1296,1296,
1296,1296,1296,1296,1296,1296,1296,1296,1296,1296,1296,1296,1296,1296,1296,1296,1296,1296,1296,1296,1296,2743,2743,2743,2743,2743,2743,2743,1296,1296,0,1296,1296,1296,1296,1296,1296,1296,1296,1347,1347,1347,1296,1296,1296,1296,1296,1296,1296,1296,
1296,1296,1296,1296,1296,1296,1296,1296,1296,1296,1296,1296,1296,1296,1296,1296,1296,1775,1776,1778,1296,2743,2743,2743,2743,2743,2743,2743,1296,1296,1296,1296,1296,1296,1296,1296,1296,1296,1296,1347,1347,1347,1296,1296,1296,1296,1296,1296,1296,1296,
1296,1296,1296,1296,1296,1296,1296,1296,1296,1296,1296,1296,1296,1296,1375,1296,1296,1825,1827,771,1296,1375,2743,2743,2743,2743,2743,2743,2743,2743,1296,1296,1296,1296,1296,1296,1296,1296,1296,1347,1347,1347,1296,1296,1296,1296,1296,1296,1296,1296,
1296,1296,1296,1296,1296,1296,1296,1296,1296,1296,1296,1296,1296,1376,1296,1296,1296,1296,1800,787,1296,1296,2743,2743,2743,2743,2743,2743,2743,2743,1296,1296,1296,1296,1296,1296,1296,1296,1296,1346,1347,1347,1296,1296,1296,1296,1296,1296,1296,1296,
1296,1296,1296,1296,1296,1296,1296,1296,1296,1296,1296,1775,1776,1778,1296,1296,1775,1776,1777,803,1296,1296,1296,2719,2743,2743,2743,2743,2743,2743,1296,1296,1296,1296,1296,1296,1296,1296,1321,1323,1299,1374,1296,1296,1296,1296,1296,1296,1296,1296,
1296,1296,1296,1296,1775,1754,1755,1780,1778,1296,1296,1800,1806,1752,1776,1778,1825,1826,1827,1752,1778,1375,1296,2743,2719,2743,2743,2743,2743,2743,1296,0,0,1296,1296,1296,1296,1296,1346,1327,741,1375,1296,1296,1296,1296,1296,1296,1296,1296,
1296,1296,1296,1296,1800,1753,1827,1806,1803,1296,1296,1825,1826,1827,1756,1752,1778,1296,1825,1826,1828,1296,1296,2743,0,2743,2743,2743,2743,2743,1296,0,0,1296,1296,1296,1296,1296,742,1303,1347,1296,1296,1296,1296,1296,1296,1296,1296,1296,
1296,1296,1296,1296,1825,1828,772,1753,1828,1296,1296,1296,1296,1825,1826,1827,1752,1778,1296,1296,1296,1296,1296,2743,0,2743,2743,2743,2743,2743,1296,2743,0,1296,1296,1296,1296,1376,1347,1347,1347,1296,1348,1296,1296,1296,1296,1296,1296,1296,
1296,1296,1296,1296,1296,1296,788,1803,1296,1376,1296,1296,1296,1296,1296,1800,1801,1803,1296,1296,1296,1296,1296,2743,2743,2743,2743,2743,2743,2743,1296,1296,1296,1296,1296,1296,1296,1296,1347,1347,1347,1347,1348,1296,1296,1296,1296,1296,1296,1296,
1296,1296,1296,1296,1375,1296,804,1752,1776,1778,1296,1296,1296,1800,1801,1800,1801,1803,1296,1296,1296,1296,1296,2793,2793,2743,2743,2743,2743,2743,2743,1296,1296,1296,1296,1296,1296,1296,1347,1347,741,1347,1296,1348,1296,1296,1296,1296,1296,1296,
1296,1296,1296,1296,1296,1296,1825,1826,1826,1828,1296,1296,1296,1800,1801,1800,1801,1803,1296,1296,1296,1296,1296,2743,2743,2743,2743,2743,2743,2743,2743,1296,1296,1296,1296,1296,1296,1296,1346,1347,757,1296,1296,1296,1296,1296,1296,1296,1296,1296,
1296,1296,1296,1296,1296,1296,1296,1775,1776,1778,1296,1296,1296,1800,1801,1800,1801,1803,1296,1296,1296,1296,1296,2743,2743,2743,2743,2743,2743,2743,2743,1296,1296,1296,1296,1296,1296,1296,1346,1347,773,1296,1296,1296,1296,1296,1296,1296,1296,1296,
1296,1296,1296,1296,1296,1296,1375,1800,1679,1803,1296,1296,1296,1800,1296,1800,1801,1803,1296,1296,1296,1296,1296,2743,2743,2743,2743,2743,2743,2743,2743,1296,1296,1296,1296,1296,1296,1321,1323,1347,1349,1296,1296,1446,1447,1447,1447,1447,1447,1448,
1296,1296,1296,1375,1296,1296,1296,1800,1801,1801,1375,1296,1296,1296,1296,1800,1757,1803,1296,1296,1446,1447,1448,1375,2743,2743,2743,2743,2743,2743,2743,1296,1296,1296,1375,1296,1296,1346,1328,1299,1374,1296,1446,1449,1472,1472,1472,1472,1472,1473,
1296,1296,1296,1296,1296,1296,1376,1800,1801,1801,1803,1296,1775,1780,1776,1777,1753,1828,1446,1447,1449,1421,1473,1296,1272,2743,2743,2743,2743,2743,2743,1296,1296,1296,1296,1296,1296,742,1347,1349,1296,1296,1471,1472,1472,1472,1475,1476,1477,1499,
1296,1296,1296,1296,1296,1296,1296,1800,1801,1801,1803,1296,1800,1756,1753,1826,1828,1446,1449,1475,1476,1477,1402,2743,1296,2743,2743,2743,2743,2743,2743,1296,1296,1296,1296,1296,1296,758,1347,1349,1296,1296,1471,1472,1472,1472,1500,1501,1502,1472,
1296,1296,1296,1296,1296,1296,1296,1800,1801,1801,1803,1296,1800,1753,1828,1296,1446,1449,1472,1500,1501,1502,1427,2743,1296,2743,2743,2743,2743,2743,2743,2743,2743,1296,1375,1271,1296,774,1347,1349,1375,1296,1496,1524,1472,1472,1525,1526,1527,1472,
1296,1296,1296,1296,1296,1296,1296,1800,1801,1803,1296,1296,1800,1803,1296,1376,1471,1472,1472,1525,1526,1527,1452,2743,1296,2743,2743,2743,2743,2743,2743,2743,2743,0,0,1296,1296,1371,1372,1374,1296,1296,1296,1471,1472,1472,1472,1472,1472,1472,
1296,1296,1375,1296,1296,1296,1296,1825,1827,1752,1754,1780,1777,1752,1778,1296,1471,1472,1472,1425,1472,1426,1473,2743,2743,2743,2743,2743,2743,2743,2743,2743,2743,0,0,1296,1296,1321,1322,1324,1296,1376,1296,1496,1524,1475,1476,1477,1472,1472,
1296,1296,1296,1296,1296,1296,1296,1296,1825,1826,1826,1826,1827,1757,1803,1296,1471,1421,1472,1472,1472,1474,1498,2743,2743,2743,2743,2743,2743,2743,2743,2743,2743,0,0,1296,1296,742,1347,1349,1296,1296,1296,1522,1471,1500,1501,1502,1472,1472,
1296,1296,1296,1296,1296,1446,1447,1447,1422,1423,1424,1448,1825,1827,1752,1778,1496,1397,1398,1399,1497,1498,1296,1375,2743,2743,2743,2743,2743,2743,2743,2743,2743,2743,2743,1296,1296,758,1347,741,1296,1446,1447,1448,1471,1500,1277,1502,1472,1474,
1296,1296,1296,1296,1296,1471,1425,1475,1476,1477,1474,1498,1296,1825,1827,1752,1778,1296,1296,1296,1296,1296,1296,1296,2743,2743,2743,2743,2743,2743,2743,2743,2743,2743,2743,1296,1296,774,1347,757,1446,1449,1421,1473,1471,1525,1526,1527,1472,1473,
1296,1296,1376,1296,1296,1496,1524,1500,1501,1502,1402,1446,1447,1448,772,1756,1803,1296,1775,1776,1754,1755,1780,1754,2743,2743,2743,2743,2743,2743,2743,2743,2743,2743,2743,1296,1322,1323,1347,773,1471,1450,1474,1498,1496,1497,1497,1524,1472,1473,
1296,1296,1296,1296,1375,1296,1471,1525,1526,1527,1427,1471,1421,1473,788,1801,1752,1776,1777,1802,1802,1802,1802,1806,2896,2897,2898,2899,2900,2911,2907,2898,2909,2910,2911,2912,1352,1303,1299,1374,1496,1497,1498,1296,1296,1296,1296,1471,1472,1472,
1296,1296,1296,1296,1296,1296,1496,1524,1472,1472,1452,1496,1497,1498,804,1801,1806,1801,1801,1802,1802,1802,1802,1802,2921,2922,2923,2924,2925,2936,2932,2933,2934,2935,2936,2937,1372,1372,1374,1296,1296,1296,1296,1296,1375,1296,1296,1296,1296,1296,
1296,1296,1296,1375,1296,1296,1296,1471,1450,1474,1498,1296,1296,1296,1825,1827,1757,1753,1826,1804,1805,1779,1826,1804,1296,1296,1296,1296,2743,2743,2743,2743,2743,0,0,1296,1296,1296,1296,1296,1296,1296,1296,1446,1422,1423,1424,1448,1296,1296,
1296,1296,1296,1296,1296,1296,1296,1471,1426,1473,1296,1375,1775,1776,1778,1825,1826,1828,1296,1296,1376,1296,1296,1296,1376,1296,1296,1296,2743,2743,2743,2743,2743,0,0,1296,1296,1296,1296,1296,1296,1296,1296,1471,1472,1426,1472,1499,1447,1447,
1296,1375,1296,1296,1296,1296,1296,1496,1497,1498,1296,1296,1800,1806,1803,1296,1296,1296,1296,1296,1296,1296,1296,1296,1296,1272,2743,2743,2743,2743,2743,2743,2743,2743,2743,1296,1296,1296,1446,1447,1447,1447,1447,1449,1472,1472,1472,1426,1472,1472,
1296,1296,1296,1296,1296,1296,1296,1296,1296,1296,1296,1296,1800,1801,1803,1296,1296,1296,1296,1296,1296,1296,1375,1296,1296,1296,2743,2743,2743,2743,2743,2743,2743,2743,2743,0,0,1296,1471,1472,1472,1426,1472,1472,1472,1472,1472,1472,1472,1472,
1296,1296,1296,1296,1296,1296,1296,1296,1296,1296,1375,1775,1777,1753,1828,1296,1296,1376,1296,1296,1296,1296,1296,1296,1296,1271,2743,2743,2743,2743,2743,2743,2743,2743,2743,0,0,1296,1471,1472,1472,1472,1472,1472,1472,1472,1472,1472,1472,1472,
2367,2367,2367,1296,1296,1296,1296,1296,1296,1296,1296,1800,1756,1803,1296,1296,1296,1296,1296,1296,1296,1296,1296,1272,1296,1296,2743,2743,2743,2743,2743,2743,2743,2743,2743,0,0,1296,1471,1472,1472,1472,1472,1472,1472,1472,1472,1472,1472,1472,
2367,2367,2367,2367,1296,1296,1296,1296,1296,1296,1296,1825,1826,1828,1296,1296,1296,1296,1296,1296,1296,1296,1296,1296,1296,1296,2743,2743,2743,2743,2743,2743,2743,1446,1447,1447,1447,1447,1449,1472,1472,1472,1472,1472,1472,1472,1472,1472,1472,1472,
2367,2367,2367,2367,2367,2367,2367,1296,1296,1296,1296,1775,1778,1296,1446,1447,1448,1296,1296,1296,1296,1296,1296,1296,1296,2743,2743,2743,2743,2743,2743,1446,1447,1449,1472,1472,1472,1472,1472,1472,1472,1472,1472,1472,1472,1472,1472,1472,1472,1472,
2367,2367,2367,2367,2367,2367,2367,1296,1296,1296,1296,1825,1828,1296,1471,1472,1473,2743,2718,2719,2720,2743,2743,2743,2743,2743,2743,2743,2743,2743,2743,1471,1472,1472,1472,1472,1472,1472,1472,1472,1472,1472,1472,1472,1472,1472,1472,1472,1472,1472,
1296,1296,1296,1296,2364,2362,2367,1296,1448,1296,1446,1447,1447,1448,1496,1497,1498,2743,2743,2744,2745,2743,1446,1447,1447,1447,1447,1447,1447,1447,1447,1449,1296,1472,1472,1472,1472,1472,1472,1472,1472,1474,1497,1472,1472,1472,1472,1472,1472,1472,
1472,1473,1296,1296,2389,2387,1471,1472,1473,1296,1496,1497,1497,1498,1272,1296,1296,2743,2693,2694,2743,2743,1471,1472,1472,1472,1472,1472,1472,1472,1296,1472,1472,1472,1472,1425,1421,1472,1421,1472,1472,1473,1296,1296,1421,1472,1472,1296,1296,1472,
1497,1498,1296,2361,2362,2367,1496,1497,1498,1296,1296,1296,1296,1296,1296,1296,1296,2743,2693,2769,2744,2743,1471,1421,1472,1472,1472,1472,1474,1397,1398,1399,1497,1497,1497,1497,1497,1497,1497,1497,1497,1497,1497,1497,1497,1497,1497,1497,1524,1472
</data>
 </layer>
 <objectgroup id="2" name="Back">
  <object id="35" name="TileData" x="624" y="0" width="16" height="16">
   <properties>
    <property name="TouchAction" value="Warp EastScarp_DeepMountains 7 60"/>
   </properties>
  </object>
  <object id="38" name="TileData" x="640" y="0" width="16" height="16">
   <properties>
    <property name="TouchAction" value="Warp EastScarp_DeepMountains 7 60"/>
   </properties>
  </object>
  <object id="39" name="TileData" x="656" y="0" width="16" height="16">
   <properties>
    <property name="TouchAction" value="Warp EastScarp_DeepMountains 7 60"/>
   </properties>
  </object>
 </objectgroup>
 <layer id="16" name="Back2" width="50" height="40">
  <properties>
   <property name="Draw" value="Back"/>
  </properties>
  <data encoding="csv">
0,0,0,0,0,0,0,0,0,0,0,0,0,0,0,0,0,0,0,0,0,2744,2718,2719,0,0,2745,0,0,0,0,0,0,0,0,0,0,0,0,0,0,0,0,0,0,0,0,0,0,0,
0,0,0,0,0,0,0,0,0,0,0,1588,0,0,0,0,0,0,0,0,0,2718,0,2718,2719,0,0,0,0,0,0,0,0,0,0,0,0,0,0,0,0,0,0,0,0,0,0,0,0,0,
0,0,0,0,0,0,0,0,0,0,0,1613,0,0,0,0,0,0,0,0,0,2743,0,0,2744,2719,0,0,0,0,0,0,0,0,0,0,0,0,0,0,0,0,0,0,0,0,0,0,0,0,
0,0,0,0,0,0,0,0,0,0,0,1638,0,0,0,0,0,0,0,0,0,2768,0,2744,2719,0,2719,0,0,0,0,0,0,0,0,0,0,1588,0,0,0,0,0,0,0,0,0,0,0,0,
0,0,0,0,0,0,0,0,0,0,0,1663,0,0,0,0,0,0,0,0,0,0,2744,0,0,2719,0,0,0,0,0,0,0,1588,0,0,0,1613,0,0,0,0,0,1588,0,0,0,0,0,0,
0,0,0,0,0,0,0,0,0,0,0,0,0,0,0,0,0,0,0,0,0,0,0,0,0,0,2719,0,0,0,0,0,0,1613,0,0,0,1638,0,0,0,0,0,1613,0,0,0,0,0,0,
0,0,0,0,0,0,0,0,0,0,0,0,0,0,0,0,0,0,0,0,0,0,0,0,0,0,0,2719,0,0,0,0,0,1638,0,0,0,1663,0,0,0,0,0,1638,0,0,0,0,0,0,
0,0,0,0,0,0,0,0,0,0,0,0,0,0,0,0,0,0,0,0,0,0,0,0,0,0,2744,0,0,0,0,0,0,1663,0,0,0,0,0,0,0,0,0,1663,0,0,0,0,0,0,
0,0,0,0,0,0,0,0,0,0,0,0,0,0,0,0,0,0,0,0,0,0,0,0,0,2744,0,0,0,0,0,0,1588,0,0,0,0,0,0,0,0,0,0,0,0,0,0,0,0,0,
0,0,1588,0,0,0,0,0,0,0,0,0,0,0,0,0,0,0,0,0,0,0,0,2793,2718,2719,0,0,2744,0,0,0,1613,0,0,0,0,0,0,0,0,0,0,0,0,0,0,0,0,0,
0,0,1613,0,0,0,0,0,0,0,0,0,0,0,0,0,0,0,0,0,0,0,0,2793,2793,2718,2719,2744,0,0,0,0,1638,0,0,0,0,0,0,0,0,0,0,0,0,0,0,0,0,0,
0,0,1638,0,0,0,0,0,0,0,0,0,0,0,0,0,0,0,0,0,0,0,0,0,2719,2720,2693,2694,0,0,0,0,1663,0,0,0,0,0,0,0,0,0,0,0,0,0,0,0,0,0,
1588,0,1663,0,0,0,0,0,0,0,0,0,0,0,0,0,0,0,0,0,0,0,0,0,2793,2719,2744,2719,0,0,0,0,0,0,0,0,0,0,0,0,0,0,0,0,0,0,0,0,0,0,
1613,0,0,0,0,0,0,0,0,0,0,1588,0,0,0,0,0,0,0,0,0,0,0,0,2719,2744,0,0,2719,0,0,0,0,0,0,0,0,0,0,0,0,0,0,0,0,0,0,0,0,0,
0,0,0,0,0,0,0,0,0,0,0,1613,0,0,0,0,0,0,0,0,0,0,0,0,2718,2719,0,0,0,2719,0,0,0,0,0,0,0,0,0,0,0,0,0,0,0,0,0,0,0,0,
0,0,0,0,0,0,0,0,0,0,0,1638,0,0,0,0,0,0,0,0,0,0,0,0,0,2693,2694,0,0,0,0,0,0,0,0,0,0,0,0,0,0,0,0,0,0,0,0,0,0,0,
0,0,0,0,0,0,0,0,0,0,0,1663,0,0,0,0,0,0,0,0,0,0,0,0,0,2718,2769,0,0,0,0,0,0,0,0,0,0,0,0,0,0,0,0,0,0,0,0,0,0,0,
0,0,0,0,0,0,0,0,0,0,0,0,0,0,0,0,0,0,0,0,0,0,0,0,0,2743,2770,2719,0,0,2744,0,0,0,0,0,0,0,0,0,0,0,0,0,0,0,0,0,0,0,
0,0,0,0,0,0,0,0,0,0,0,0,0,0,0,0,0,0,0,0,0,0,0,0,0,2693,2694,0,2719,2744,0,0,0,0,0,0,0,0,0,0,0,0,0,0,0,0,0,0,0,0,
0,0,0,0,0,0,0,0,0,0,0,0,0,0,0,0,0,0,0,0,0,1428,0,0,0,2693,2694,0,2693,2694,0,0,0,0,0,0,0,0,0,0,0,0,0,0,0,0,0,0,0,0,
0,0,0,0,0,0,0,0,0,0,0,0,0,0,0,0,0,0,0,0,0,0,0,0,0,2693,2694,0,2744,0,2719,0,0,0,0,0,0,0,0,0,0,0,0,0,0,0,0,0,0,0,
0,0,0,0,0,0,0,0,0,0,0,0,0,0,0,0,0,0,0,0,0,0,0,0,0,2718,2719,0,2719,0,0,0,0,0,0,0,0,0,0,0,0,0,0,0,0,0,0,0,0,0,
0,0,0,0,0,0,0,0,0,0,0,0,0,0,0,0,0,0,1378,0,0,0,0,0,0,2743,2744,0,2718,2719,0,0,0,0,0,0,0,0,0,0,0,0,0,0,0,0,0,0,0,0,
0,0,0,0,0,0,0,0,0,0,0,0,0,0,0,0,0,0,0,0,0,0,0,0,0,2744,2719,0,0,2718,2719,0,0,0,0,0,0,0,0,0,0,0,0,0,0,0,0,0,0,0,
0,0,0,0,0,0,0,0,0,0,0,0,0,0,0,0,0,0,0,0,0,0,0,0,2744,0,2718,2719,0,0,2718,2719,0,0,0,0,0,0,0,0,0,0,0,0,0,0,0,0,0,0,
0,0,0,0,0,0,0,0,0,0,0,0,0,0,0,0,0,0,0,0,0,0,0,0,1515,0,0,0,0,0,0,0,0,0,1537,0,0,0,0,0,0,1353,0,0,0,0,0,0,0,0,
0,0,0,0,0,0,0,0,0,0,0,0,0,0,0,0,0,0,0,0,0,0,0,0,0,0,0,0,0,0,0,0,0,0,0,0,0,0,0,0,0,0,0,0,0,0,0,0,0,0,
0,0,0,0,0,0,0,0,0,1378,0,0,0,0,0,0,0,0,0,0,0,0,0,0,0,0,0,0,0,0,0,0,0,0,0,0,0,0,0,0,0,0,0,0,0,0,0,0,0,0,
0,0,0,0,0,0,0,0,0,0,0,0,0,0,0,0,0,0,0,0,0,0,0,0,0,0,0,0,2719,0,0,2693,2694,0,0,0,0,0,0,0,0,0,0,0,0,0,0,0,0,0,
0,0,0,0,0,0,0,0,0,0,0,0,0,0,0,0,0,0,0,0,0,0,0,0,0,0,0,0,2744,2719,0,2718,2719,0,0,0,0,0,0,0,0,0,0,0,0,0,0,0,0,0,
0,0,0,0,0,0,0,0,0,0,0,0,0,0,0,0,0,0,0,0,0,0,0,0,0,0,0,2718,2719,2718,2719,0,2693,2694,0,0,0,0,0,0,0,0,0,0,0,0,0,0,0,0,
0,0,0,1588,0,0,0,0,0,0,0,0,0,0,0,0,0,0,0,0,0,0,0,0,0,0,2984,0,2744,2719,2744,2719,2718,2719,2984,0,0,0,0,0,0,0,0,0,0,0,0,0,0,0,
0,0,0,1613,0,0,0,0,0,0,0,0,0,0,0,0,0,0,0,0,0,0,0,0,0,0,2984,2744,0,0,2719,2718,2719,2693,2694,0,0,0,0,0,0,0,0,0,0,0,0,0,0,0,
2365,2365,2366,0,0,0,0,0,0,0,0,0,0,0,0,0,0,0,0,0,0,0,0,0,0,0,2744,0,0,0,2718,2719,0,2718,2719,0,0,0,0,0,0,0,0,0,0,0,0,0,0,0,
2390,2390,2391,1563,0,0,0,0,0,0,0,0,0,0,0,0,0,0,0,0,0,0,0,0,0,0,0,0,0,0,0,0,0,0,0,0,0,0,0,0,0,0,0,0,0,1363,0,0,0,0,
0,0,2388,853,854,2365,2366,0,0,0,0,0,0,0,0,0,0,0,0,0,0,0,0,0,0,0,0,0,0,0,0,0,0,0,0,0,0,0,0,0,0,0,0,0,0,0,0,0,0,0,
0,0,0,869,870,2390,2391,0,0,0,0,0,0,0,0,0,0,0,0,0,0,0,0,0,0,0,0,0,0,0,0,0,0,0,0,0,0,0,0,0,0,0,0,0,0,0,0,0,0,0,
0,0,0,0,0,0,0,0,0,0,0,0,0,0,0,0,0,0,0,0,0,0,0,0,0,0,0,0,0,0,0,0,0,0,0,0,0,0,0,0,0,0,0,0,0,0,0,0,0,0,
0,0,0,0,0,0,0,0,0,0,0,0,0,0,0,0,0,0,0,0,2794,0,0,0,1378,0,1426,0,0,0,1421,0,0,0,0,0,0,1378,0,0,0,0,0,0,0,1282,0,0,0,0,
0,0,0,0,0,0,0,0,0,0,0,0,0,0,0,0,0,0,0,0,0,0,0,0,0,0,0,0,0,1428,0,0,0,0,0,0,0,0,0,0,0,0,0,0,0,1378,0,0,0,0
</data>
 </layer>
 <objectgroup id="17" name="Back2"/>
 <layer id="21" name="Back3" width="50" height="40">
  <data encoding="csv">
0,0,0,0,0,0,0,0,0,0,0,0,0,0,0,0,0,0,0,0,0,0,0,0,0,0,0,0,0,0,0,0,0,0,0,0,0,0,0,0,0,0,0,0,0,0,0,0,0,0,
0,0,0,0,0,0,0,0,0,0,0,0,0,0,0,0,0,0,0,0,0,0,0,0,0,0,0,0,0,0,0,0,0,0,0,0,0,0,0,0,0,0,0,0,0,0,0,0,0,0,
0,0,0,0,0,0,0,0,0,0,0,0,0,0,0,0,0,0,0,0,0,0,0,0,0,0,0,0,0,0,0,0,0,0,0,0,0,0,0,0,0,0,0,0,0,0,0,0,0,0,
0,0,0,0,0,0,0,0,0,0,0,0,0,0,0,0,0,0,0,0,0,0,0,0,0,0,0,0,0,0,0,0,0,0,0,0,0,0,0,0,0,0,0,0,0,0,0,0,0,0,
0,0,0,0,0,0,0,0,0,0,0,0,0,0,0,0,0,0,0,0,0,0,0,0,0,0,0,0,0,0,0,0,0,0,0,0,0,0,0,0,0,0,0,0,0,0,0,0,0,0,
0,0,0,0,0,0,0,0,0,0,0,0,0,0,0,0,0,0,0,0,0,0,0,0,0,0,0,0,0,0,0,0,0,0,0,0,0,0,0,0,0,0,0,0,0,0,0,0,0,0,
0,0,0,0,0,0,0,0,0,0,0,0,0,0,0,0,0,0,0,0,0,0,0,0,0,0,0,0,0,0,0,0,0,0,0,0,0,0,0,0,0,0,0,0,0,0,0,0,0,0,
0,0,0,0,0,0,0,0,0,0,0,0,0,0,0,0,0,0,0,0,0,0,0,0,0,0,0,0,0,0,0,0,0,0,0,0,0,0,0,0,0,0,0,0,0,0,0,0,0,0,
0,0,0,0,0,0,0,0,0,0,0,0,0,0,0,0,0,0,0,0,0,0,0,0,0,0,0,0,0,0,0,0,0,0,0,0,0,0,0,0,0,0,0,0,0,0,0,0,0,0,
0,0,0,0,0,0,0,0,0,0,0,0,0,0,0,0,0,0,0,0,0,0,0,0,0,0,0,0,0,0,0,0,0,0,0,0,0,0,0,0,0,0,0,0,0,0,0,0,0,0,
0,0,0,0,0,0,0,0,0,0,0,0,0,0,0,0,0,0,0,0,0,0,0,0,0,0,0,0,0,0,0,0,0,0,0,0,0,0,0,0,0,0,0,0,0,0,0,0,0,0,
0,0,0,0,0,0,0,0,0,0,0,0,0,0,0,0,0,0,0,0,0,0,0,0,0,0,0,0,0,0,0,0,0,0,0,0,0,0,0,0,0,0,0,0,0,0,0,0,0,0,
0,0,0,0,0,0,0,0,0,0,0,0,0,0,0,0,0,0,0,0,0,0,0,0,0,0,0,0,0,0,0,0,0,0,0,0,0,0,0,0,0,0,0,0,0,0,0,0,0,0,
0,0,0,0,0,0,0,0,0,0,0,0,0,0,0,0,0,0,0,0,0,0,0,0,0,0,0,0,0,0,0,0,0,0,0,0,0,0,0,0,0,0,0,0,0,0,0,0,0,0,
0,0,0,0,0,0,0,0,0,0,0,0,0,0,0,0,0,0,0,0,0,0,0,0,0,0,0,0,0,0,0,0,0,0,0,0,0,0,0,0,0,0,0,0,0,0,0,0,0,0,
0,0,0,0,0,0,0,0,0,0,0,0,0,0,0,0,0,0,0,0,0,0,0,0,0,0,0,0,0,0,0,0,0,0,0,0,0,0,0,0,0,0,0,0,0,0,0,0,0,0,
0,0,0,0,0,0,0,0,0,0,0,0,0,0,0,0,0,0,0,0,0,0,0,0,0,0,0,0,0,0,0,0,0,0,0,0,0,0,0,0,0,0,0,0,0,0,0,0,0,0,
0,0,0,0,0,0,0,0,0,0,0,0,0,0,0,0,0,0,0,0,0,0,0,0,0,0,0,0,0,0,0,0,0,0,0,0,0,0,0,0,0,0,0,0,0,0,0,0,0,0,
0,0,0,0,0,0,0,0,0,0,0,0,0,0,0,0,0,0,0,0,0,0,0,0,0,0,0,0,0,0,0,0,0,0,0,0,0,0,0,0,0,0,0,0,0,0,0,0,0,0,
0,0,0,0,0,0,0,0,0,0,0,0,0,0,0,0,0,0,0,0,0,0,0,0,0,0,0,0,0,0,0,0,0,0,0,0,0,0,0,0,0,0,0,0,0,0,0,0,0,0,
0,0,0,0,0,0,0,0,0,0,0,0,0,0,0,0,0,0,0,0,0,0,0,0,0,0,0,0,0,0,0,0,0,0,0,0,0,0,0,0,0,0,0,0,0,0,0,0,0,0,
0,0,0,0,0,0,0,0,0,0,0,0,0,0,0,0,0,0,0,0,0,0,0,0,0,0,0,0,0,0,0,0,0,0,0,0,0,0,0,0,0,0,0,0,0,0,0,0,0,0,
0,0,0,0,0,0,0,0,0,0,0,0,0,0,0,0,0,0,0,0,0,0,0,0,0,0,0,0,0,0,0,0,0,0,0,0,0,0,0,0,0,0,0,0,0,0,0,0,0,0,
0,0,0,0,0,0,0,0,0,0,0,0,0,0,0,0,0,0,0,0,0,0,0,0,0,0,0,0,0,0,0,0,0,0,0,0,0,0,0,0,0,0,0,0,0,0,0,0,0,0,
0,0,0,0,0,0,0,0,0,0,0,0,0,0,0,0,0,0,0,0,0,0,0,0,0,0,0,0,0,0,0,0,0,0,0,0,0,0,0,0,0,0,0,0,0,0,0,0,0,0,
0,0,0,0,0,0,0,0,0,0,0,0,0,0,0,0,0,0,0,0,0,0,0,0,0,0,0,0,0,0,0,0,0,0,0,0,0,0,0,0,0,0,0,0,0,0,0,0,0,0,
0,0,0,0,0,0,0,0,0,0,0,0,0,0,0,0,0,0,0,0,0,0,0,0,0,0,0,0,0,0,0,0,0,0,0,0,0,0,0,0,0,0,0,0,0,0,0,0,0,0,
0,0,0,0,0,0,0,0,0,0,0,0,0,0,0,0,0,0,0,0,0,0,0,0,0,0,0,0,0,0,0,0,0,0,0,0,0,0,0,0,0,0,0,0,0,0,0,0,0,0,
0,0,0,0,0,0,0,0,0,0,0,0,0,0,0,0,0,0,0,0,0,0,0,0,0,0,0,0,0,0,0,0,0,0,0,0,0,0,0,0,0,0,0,0,0,0,0,0,0,0,
0,0,0,0,0,0,0,0,0,0,0,0,0,0,0,0,0,0,0,0,0,0,0,0,0,0,0,0,0,0,0,0,0,0,0,0,0,0,0,0,0,0,0,0,0,0,0,0,0,0,
0,0,0,0,0,0,0,0,0,0,0,0,0,0,0,0,0,0,0,0,0,0,0,0,0,0,0,0,0,0,0,0,0,0,0,0,0,0,0,0,0,0,0,0,0,0,0,0,0,0,
0,0,0,0,0,0,0,0,0,0,0,0,0,0,0,0,0,0,0,0,0,0,0,0,0,0,0,0,0,0,0,0,0,0,0,0,0,0,0,0,0,0,0,0,0,0,0,0,0,0,
0,0,0,0,0,0,0,0,0,0,0,0,0,0,0,0,0,0,0,0,0,0,0,0,0,0,0,0,0,0,0,0,0,0,0,0,0,0,0,0,0,0,0,0,0,0,0,0,0,0,
0,0,0,0,0,0,0,0,0,0,0,0,0,0,0,0,0,0,0,0,0,0,0,0,0,0,0,0,0,0,0,0,0,0,0,0,0,0,0,0,0,0,0,0,0,0,0,0,0,0,
0,0,0,0,0,0,0,0,0,0,0,0,0,0,0,0,0,0,0,0,0,0,0,0,0,0,0,0,0,0,0,0,0,0,0,0,0,0,0,0,0,0,0,0,0,0,0,0,0,0,
0,0,0,0,0,0,0,0,0,0,0,0,0,0,0,0,0,0,0,0,0,0,0,0,0,0,0,0,0,0,0,0,0,0,0,0,0,0,0,0,0,0,0,0,0,0,0,0,0,0,
0,0,0,0,0,0,0,0,0,0,0,0,0,0,0,0,0,0,0,0,0,0,0,0,0,0,0,0,0,0,0,0,0,0,0,0,0,0,0,0,0,0,0,0,0,0,0,0,0,0,
0,0,0,0,0,0,0,0,0,0,0,0,0,0,0,0,0,0,0,0,0,0,0,0,0,0,0,0,0,0,0,0,0,0,0,0,0,0,0,0,0,0,0,0,0,0,0,0,0,0,
0,0,0,0,0,0,0,0,0,0,0,0,0,0,0,0,0,0,0,0,0,0,0,0,0,0,0,0,0,0,0,0,0,0,0,0,0,0,0,0,0,0,0,0,0,0,0,0,0,0,
0,0,0,0,0,0,0,0,0,0,0,0,0,0,0,0,0,0,0,0,0,0,0,0,0,0,0,0,0,0,0,0,0,0,0,0,0,0,0,0,0,0,0,0,0,0,0,0,0,0
</data>
 </layer>
 <objectgroup id="22" name="Back3"/>
 <layer id="3" name="Buildings" width="50" height="40">
  <data encoding="csv">
0,0,0,0,0,0,0,1515,1512,0,0,1257,0,0,0,1463,1489,1588,1590,1252,1540,1227,1227,1227,1227,2794,1227,1512,1562,1662,1486,1487,1175,1176,1163,1164,1165,1166,1167,0,0,0,1296,1271,1296,1271,1159,1160,1440,1615,
0,0,0,0,0,0,0,1540,1537,1234,1235,1415,1416,1588,1589,1488,1514,1613,1615,0,1533,1559,1227,1227,1227,1227,2819,1537,1587,1411,1412,1512,1200,1201,1188,1189,1190,1191,1192,0,0,0,1296,0,0,0,1184,1185,1465,1640,
0,0,0,0,0,0,0,1565,1562,0,0,1565,1441,1613,1614,1513,1539,1638,1640,0,1515,1515,2819,1227,1227,0,1227,1512,1612,1436,1437,1537,1225,0,1213,1214,1215,1216,1217,1565,0,0,1296,1257,0,0,0,0,1490,1665,
0,0,0,1403,1375,1463,1489,1590,1587,1588,1589,1590,1466,1638,1639,1538,1564,1663,1665,0,1540,1540,1227,1227,1227,1227,1227,1537,1637,1461,1462,1562,1250,0,0,1239,1240,1415,1416,1590,0,1562,0,1234,1235,0,0,0,1515,0,
0,0,0,1415,1416,1488,1514,1615,1612,1613,1614,1615,1491,1663,1664,1563,0,0,0,0,1515,1533,1559,1227,1227,1227,1227,1562,1662,1486,1487,1587,1411,1412,0,1264,1265,1440,1441,1615,0,1587,1411,1412,0,0,0,0,1533,1559,
0,0,1378,1440,1441,1513,1539,1640,1637,1638,1639,1640,0,0,0,0,0,0,0,0,1540,0,1540,1227,2819,1227,1227,1587,1411,1412,1512,1612,1436,1562,0,1289,1290,1565,1466,1640,0,1612,1436,1487,1250,0,0,0,0,1565,
0,0,0,1465,1466,1538,1564,1665,1662,1663,1664,1665,0,0,0,0,0,0,0,0,1485,0,1533,1559,1227,2795,1227,1612,1436,1437,1537,1637,1461,1587,1588,1589,1588,1590,1491,1665,0,1637,1461,1562,0,0,0,1463,1489,1590,
0,0,0,1490,1491,1563,0,0,0,0,0,0,0,0,0,0,0,0,0,0,0,1511,1559,1515,1227,1227,1227,1637,1461,1462,1562,1662,1486,1612,1613,1614,1613,1615,0,0,0,1662,1486,1587,1589,1588,1589,1488,1514,1615,
0,0,0,1565,0,0,0,0,0,0,0,0,0,0,0,0,0,0,0,0,0,0,0,1540,1227,1227,1227,1662,1486,1487,1587,1411,1412,1637,1638,1639,1638,1640,0,0,0,0,0,1612,1614,1613,1614,1513,1539,1640,
0,0,1415,1590,0,0,0,0,0,0,0,0,0,0,0,0,0,0,0,0,0,0,0,1515,2819,1227,1227,1227,1227,1512,1612,1436,1562,1662,1663,1664,1663,1665,0,0,1562,0,0,1637,1639,1638,1639,1538,1564,1665,
0,0,1540,1615,0,0,0,0,0,0,0,0,0,0,0,0,0,0,0,0,0,0,0,1540,1227,1227,1227,1227,1227,1537,1637,1461,1587,1585,1561,0,0,0,1565,0,1587,1585,1561,1662,1664,1663,1664,1563,0,1463,
0,0,1565,1640,0,0,0,0,0,0,1264,1265,0,0,0,1565,0,0,0,0,0,0,1565,1515,1227,2819,1227,1227,1227,1562,1662,1486,1612,1610,1586,1589,1588,1589,1590,0,1612,1610,1586,1588,1589,1588,1589,1588,1589,1488,
1415,1416,1590,1665,0,0,0,0,0,0,1289,1290,0,1463,1489,1590,0,1562,0,1463,1489,1589,1590,1540,1227,1227,1227,1227,1227,1587,1412,0,1637,1635,1611,1614,1613,1614,1615,0,1637,1635,1611,1613,1614,1613,1614,1613,1614,1513,
1485,1441,1615,0,0,0,0,0,0,0,0,1415,1416,1488,1514,1615,0,1587,1589,1488,1514,1614,1615,1515,1227,1227,1227,1227,1227,1612,1437,0,1662,1660,1636,1639,1638,1639,1640,0,1662,1660,1636,1638,1639,1638,1639,1638,1639,1538,
0,1466,1640,0,0,0,0,0,0,0,0,1490,1441,1513,1539,1640,0,1612,1614,1513,1539,1639,1640,1540,2819,1227,1227,2843,1227,1637,1462,0,0,0,1661,1664,1663,1664,1665,0,0,0,1661,1663,1664,1663,1664,1663,1664,1563,
0,0,1565,0,0,0,0,0,0,0,0,1540,1466,1538,1564,1665,0,1637,1639,1538,1564,1664,1665,1485,1227,1227,1227,1227,2819,1662,1487,0,0,0,0,0,0,0,0,0,0,1253,1254,0,0,0,0,0,0,1507,
1415,1416,1590,0,0,0,0,1515,0,1562,0,1565,1491,1563,0,0,0,1662,1664,1563,0,0,0,0,1511,1559,1227,1227,2844,1227,1512,0,0,0,0,0,0,0,0,0,0,1278,1279,0,0,0,0,1257,0,1532,
1440,1441,1615,0,0,0,0,1540,0,1587,1589,1590,0,0,0,0,0,0,0,0,0,0,0,0,0,1565,1227,1227,1227,0,1537,0,0,0,0,0,0,0,0,0,0,0,0,0,0,0,0,0,0,1507,
1465,1466,1640,0,0,0,0,1565,0,1612,1614,1615,0,0,0,0,0,0,0,0,0,0,0,1415,1416,1590,1227,2820,1227,0,1562,0,0,0,0,0,0,0,0,0,0,0,0,0,0,0,1184,1185,1186,1532,
1490,1491,1665,0,0,1463,1489,1590,0,1637,1639,1640,0,0,0,0,0,0,0,0,1257,0,0,1440,1441,1615,1227,2819,1227,1227,1587,1585,1561,0,0,0,0,0,0,0,0,0,0,0,0,0,0,0,0,1507,
1515,0,0,1415,1416,1488,1514,1615,0,1662,1664,1665,0,0,0,0,0,0,1184,1185,1186,0,0,1465,1466,1640,1227,1227,1227,2794,1612,1610,1586,1411,1412,0,0,0,0,0,0,0,0,0,0,0,0,0,0,1532,
1540,0,0,1440,1441,1513,1539,1640,0,0,0,0,0,0,0,0,0,0,0,0,0,0,0,1490,1491,1665,1227,1227,1227,1227,1637,1635,1611,1436,1437,0,0,0,0,0,0,0,0,0,0,0,0,0,0,1507,
1533,1559,0,1465,1466,1538,1564,1665,0,0,0,0,0,0,0,0,0,0,0,0,0,0,0,1533,1559,2794,1227,1227,1227,1227,1662,1660,1636,1461,1462,0,0,0,0,0,0,0,0,0,0,0,1257,380,0,1532,
0,1515,0,1490,1491,1563,0,0,0,0,0,0,0,0,0,0,0,0,0,0,0,0,0,0,1490,1227,1227,1227,2819,1227,1227,2795,1661,1486,1487,0,0,0,0,0,0,0,0,0,0,0,0,0,0,1507,
1210,1540,0,1515,0,0,0,0,0,0,0,0,0,0,0,0,0,0,0,0,0,0,0,0,1515,1227,1227,1227,1227,1227,1227,1227,1227,1227,1512,0,0,0,0,0,0,0,0,0,0,0,0,0,0,1532,
1235,1565,0,1540,0,0,0,0,1257,0,0,0,0,0,0,0,0,1556,0,0,0,0,0,0,2871,2882,2883,2884,2885,2886,2882,2883,2884,2885,2886,2887,0,0,0,0,0,0,0,0,0,0,0,0,0,1507,
1489,1590,0,1485,0,0,0,0,1234,1235,0,0,0,0,0,0,0,0,0,0,0,0,0,0,0,0,0,0,0,0,0,0,0,0,0,0,0,0,0,0,0,0,0,1560,1535,1535,1559,0,0,1532,
1514,1615,0,0,1510,0,0,0,0,0,0,0,0,0,0,0,0,0,0,0,0,0,0,0,0,0,0,0,0,0,0,0,0,0,0,0,0,0,0,0,0,0,1558,1227,1227,1227,1533,1534,1559,1557,
1539,1640,0,0,1515,0,0,0,0,0,0,0,0,0,0,0,0,0,0,0,0,0,0,0,2946,2947,2948,2949,2955,2956,2957,2958,2959,2960,2961,2962,0,0,0,0,0,0,1537,1227,1227,1227,1227,1227,1533,1534,
1564,1665,0,0,1540,0,0,0,0,0,0,0,0,0,0,0,0,0,0,0,0,0,0,0,0,2972,2973,2974,1227,1227,1227,1227,1227,2985,2986,0,0,0,0,0,0,0,1536,1227,1227,1227,1232,1227,1227,1227,
0,0,0,0,1565,0,0,0,0,0,0,0,0,0,0,0,0,0,0,0,0,0,0,0,0,0,1515,1227,1227,1227,1227,1227,1227,1227,1562,0,0,1512,1252,1184,1185,1186,1227,1227,1227,1227,1257,1227,1227,1227,
396,395,396,395,1590,0,0,0,0,0,0,0,0,0,0,0,0,0,0,0,0,0,0,0,0,0,1540,1227,1227,1227,1227,1227,2794,1227,1587,1411,1412,1537,1227,1227,1227,1227,1227,1227,1227,1227,1227,1227,1264,1265,
412,411,412,1485,1615,0,0,0,0,0,0,0,0,0,0,0,0,0,0,0,0,0,0,0,0,0,1565,1227,1227,1227,1227,1227,1227,2795,1612,1436,1437,1512,1234,1235,1227,1227,1227,1227,1227,1227,1227,1227,1289,1290,
730,730,731,0,1640,1535,1257,1559,0,0,0,0,0,0,0,0,0,1415,1416,1588,1589,1585,1561,0,1463,1489,1590,1227,2794,1227,1227,1227,1560,1535,1637,1461,1462,1536,1227,1227,1227,1227,1227,1227,1227,1227,1227,1227,1227,1227,
0,0,809,973,974,0,0,1485,0,0,0,0,0,0,0,0,0,1440,1441,1613,1614,1610,1586,1589,1488,1514,1615,1227,1227,1227,1227,1560,1536,1227,1227,1227,1227,1227,1227,1227,1227,1227,1227,1227,1227,1227,1227,1389,1131,1132,
0,0,0,989,1071,730,731,0,1511,1559,0,0,0,0,0,0,0,1465,1466,1638,1639,1635,1611,1614,1513,1539,1640,1227,1227,1227,1558,1227,1227,1227,1227,1227,1227,1227,1227,1227,1227,1227,1227,1389,1227,1227,1227,1227,1156,1157,
778,778,1037,1038,1039,0,747,0,0,1515,0,0,0,0,0,1257,0,1490,1491,1663,1664,1660,1636,1639,1538,1564,1665,1227,1227,1227,1537,1134,1135,1136,1227,1227,1227,1232,1227,1227,1227,1227,1227,1227,1227,1227,1227,1227,1181,1182,
0,0,0,0,537,811,779,1235,1254,1540,0,0,0,0,0,0,0,1565,1227,1227,1227,1512,1227,1227,1227,1227,1227,1227,1227,1227,1227,1159,1160,1161,1227,1227,1227,1257,1227,1232,1232,1134,1135,1136,1227,1227,1227,1227,1206,1207,
1184,1185,1186,0,745,793,0,1278,1279,1515,0,0,0,0,0,1463,1489,1590,1227,1227,1227,1537,1227,1227,1227,1227,1227,1227,1227,1227,1227,1184,1185,1186,1227,1227,1227,1227,1227,1257,1257,1159,1160,1161,1227,1227,1232,1425,1421,1232,
0,0,0,729,811,763,0,0,0,1540,0,0,0,1463,1489,1488,1514,1615,1227,1227,1227,1512,1227,1227,1227,1227,1227,1227,1227,1227,1227,1227,1227,1227,1227,1227,1227,1227,1227,1227,1227,1184,1185,1186,1227,1227,1257,0,0,1257
</data>
 </layer>
 <objectgroup id="4" name="Buildings"/>
 <layer id="25" name="Buildings2" width="50" height="40">
  <data encoding="csv">
0,0,0,0,0,0,0,0,0,0,0,0,0,0,0,0,0,0,0,1540,0,0,0,0,0,0,0,0,0,0,0,0,0,0,0,0,0,0,0,0,0,0,0,0,0,0,0,0,0,0,
0,0,0,0,0,0,0,0,0,0,0,0,0,0,0,0,0,0,0,1533,1559,0,0,0,0,0,0,0,0,0,0,0,0,0,0,0,0,0,0,0,0,0,0,0,0,0,0,0,0,0,
0,0,0,0,0,0,0,0,0,0,0,0,0,0,0,0,0,0,0,0,0,0,0,0,0,0,0,0,0,0,0,0,0,0,0,0,0,0,0,0,0,0,0,0,0,0,0,0,0,0,
0,0,0,0,0,0,0,0,0,0,0,0,0,0,0,0,0,0,0,0,0,0,0,0,0,0,0,0,0,0,0,0,0,0,0,0,0,0,0,0,0,0,0,0,0,0,0,0,0,0,
0,0,0,0,0,0,0,0,0,0,0,0,0,0,0,0,0,0,0,0,0,0,0,0,0,0,0,0,0,0,0,0,0,0,0,0,0,0,0,0,0,0,0,0,0,0,0,0,0,0,
0,0,0,0,0,0,0,0,0,0,0,0,0,0,0,0,0,0,0,0,0,0,0,0,0,0,0,0,0,0,0,0,0,0,0,0,0,0,0,0,0,0,0,0,0,0,0,0,0,0,
0,0,0,0,0,0,0,0,0,0,0,0,0,0,0,0,0,0,0,0,0,0,0,0,0,0,0,0,0,0,0,0,0,0,0,0,0,0,0,0,0,0,0,0,0,0,0,0,0,0,
0,0,0,0,0,0,0,0,0,0,0,0,0,0,0,0,0,0,0,0,0,0,0,0,0,0,0,0,0,0,0,0,0,0,0,0,0,0,0,0,0,0,0,0,0,0,0,0,0,0,
0,0,0,0,0,0,0,0,0,0,0,0,0,0,0,0,0,0,0,0,0,0,1540,0,0,0,0,0,0,0,0,0,0,0,0,0,0,0,0,0,0,0,0,0,0,0,0,0,0,0,
0,0,0,0,0,0,0,0,0,0,0,0,0,0,0,0,0,0,0,0,0,0,1515,0,0,0,0,0,0,0,0,0,0,0,0,0,0,0,0,0,0,0,0,0,0,0,0,0,0,0,
0,0,0,0,0,0,0,0,0,0,0,0,0,0,0,0,0,0,0,0,0,0,1540,0,0,0,0,0,0,0,0,0,0,0,0,0,0,0,0,0,0,0,0,0,0,0,0,0,0,0,
0,0,0,0,0,0,0,0,0,0,0,0,0,0,0,0,0,0,0,0,0,0,0,0,0,0,0,0,0,0,0,0,0,0,0,0,0,0,0,0,0,0,0,0,0,0,0,0,0,0,
0,0,0,0,0,0,0,0,0,0,0,0,0,0,0,0,0,0,0,0,0,0,0,0,0,0,0,0,0,0,0,0,0,0,0,0,0,0,0,0,0,0,0,0,0,0,0,0,0,0,
0,0,0,0,0,0,0,0,0,0,0,0,0,0,0,0,0,0,0,0,0,0,0,0,0,0,0,0,0,0,0,0,0,0,0,0,0,0,0,0,0,0,0,0,0,0,0,0,0,0,
0,1511,1559,0,0,0,0,0,0,0,0,0,0,0,0,0,0,0,0,0,0,0,0,0,0,0,0,0,0,0,0,0,0,0,0,0,0,0,0,0,0,0,0,0,0,0,0,0,0,0,
0,0,0,0,0,0,0,0,0,0,0,0,0,0,0,0,0,0,0,0,0,0,0,0,0,0,0,0,0,0,0,0,0,0,0,0,0,0,0,0,0,0,0,0,0,0,0,0,0,0,
0,0,0,0,0,0,0,0,0,0,0,0,0,0,0,0,0,0,0,0,0,0,0,0,0,0,0,0,0,0,0,0,0,0,0,0,0,0,0,0,0,0,0,0,0,0,0,0,0,0,
0,0,0,0,0,0,0,0,0,0,0,0,0,0,0,0,0,0,0,0,0,0,0,0,0,0,0,0,0,0,0,0,0,0,0,0,0,0,0,0,0,0,0,0,0,0,0,0,0,0,
0,0,0,0,0,0,0,0,0,0,0,0,0,0,0,0,0,0,0,0,0,0,0,0,0,0,0,0,0,0,0,0,0,0,0,0,0,0,0,0,0,0,0,0,0,0,0,0,0,0,
0,0,0,0,0,0,0,0,0,0,0,0,0,0,0,0,0,0,0,0,0,0,0,0,0,0,0,0,0,0,0,0,0,0,0,0,0,0,0,0,0,0,0,0,0,0,0,0,0,0,
0,0,0,0,0,0,0,0,0,0,0,0,0,0,0,0,0,0,0,0,0,0,0,0,0,0,0,0,0,0,0,0,0,0,0,0,0,0,0,0,0,0,0,0,0,0,0,0,0,0,
0,0,0,0,0,0,0,0,0,0,0,0,0,0,0,0,0,0,0,0,0,0,0,0,0,0,0,0,0,0,0,0,0,0,0,0,0,0,0,0,0,0,0,0,0,0,0,0,0,0,
0,0,0,0,0,0,0,0,0,0,0,0,0,0,0,0,0,0,0,0,0,0,0,0,0,0,0,0,0,0,0,0,0,0,0,0,0,0,0,0,0,0,0,0,0,0,0,0,0,0,
0,0,0,0,0,0,0,0,0,0,0,0,0,0,0,0,0,0,0,0,0,0,0,0,0,0,0,0,0,0,0,0,0,0,0,0,0,0,0,0,0,0,0,0,0,0,0,0,0,0,
0,0,0,0,0,0,0,0,0,0,0,0,0,0,0,0,0,0,0,0,0,0,0,0,0,0,0,0,0,0,0,0,0,0,0,0,0,0,0,0,0,0,0,0,0,0,0,0,0,0,
0,0,0,0,0,0,0,0,0,0,0,0,0,0,0,0,0,0,0,0,0,0,0,0,0,0,0,0,0,0,0,0,0,0,0,0,0,0,0,0,0,0,0,0,0,0,0,0,0,0,
0,0,0,0,0,0,0,0,0,0,0,0,0,0,0,0,0,0,0,0,0,0,0,0,0,0,0,0,0,0,0,0,0,0,0,0,0,0,0,0,0,0,0,0,0,0,0,0,0,0,
0,0,0,0,0,0,0,0,0,0,0,0,0,0,0,0,0,0,0,0,0,0,0,0,0,0,0,0,0,0,0,0,0,0,0,0,0,0,0,0,0,0,0,0,0,0,0,0,0,0,
0,0,0,0,0,0,0,0,0,0,0,0,0,0,0,0,0,0,0,0,0,0,0,0,0,0,0,0,0,0,0,0,0,0,0,0,0,0,0,0,0,0,0,0,0,0,0,0,0,0,
0,0,0,0,0,0,0,0,0,0,0,0,0,0,0,0,0,0,0,0,0,0,0,0,0,0,0,0,0,0,0,0,0,0,0,0,0,0,0,0,0,0,0,0,0,0,0,0,0,0,
0,0,0,0,0,0,0,0,0,0,0,0,0,0,0,0,0,0,0,0,0,0,0,0,0,0,0,0,0,0,0,0,0,0,0,0,0,0,0,0,0,0,0,0,0,0,0,0,0,0,
0,0,0,0,0,0,0,0,0,0,0,0,0,0,0,0,0,0,0,0,0,0,0,0,0,0,0,0,0,0,0,0,0,0,0,0,0,0,0,0,0,0,0,0,0,0,0,0,0,0,
0,0,0,411,0,0,0,0,0,0,0,0,0,0,0,0,0,0,0,0,0,0,0,0,0,0,0,0,0,0,0,0,0,0,0,0,0,0,0,0,0,0,0,0,0,0,0,0,0,0,
0,0,0,0,1511,1534,1534,0,0,0,0,0,0,0,0,0,0,0,0,0,0,0,0,0,0,0,0,0,0,0,0,0,0,0,1535,1535,1535,0,0,0,0,0,0,0,0,0,0,0,0,0,
0,0,0,0,0,0,0,0,0,0,0,0,0,0,0,0,0,0,0,0,0,0,0,0,0,0,0,0,0,0,0,0,0,0,0,0,0,0,0,0,0,0,0,0,0,0,0,0,0,0,
0,0,0,0,0,0,0,0,0,0,0,0,0,0,0,0,0,0,0,0,0,0,0,0,0,0,0,0,0,0,0,0,0,0,0,0,0,0,0,0,0,0,0,0,0,0,0,0,0,0,
0,0,0,0,0,0,0,0,0,0,0,0,0,0,0,0,0,0,0,0,0,1560,1534,1534,1534,1534,1535,1534,1535,1535,1536,0,0,0,0,0,0,0,0,0,0,0,0,0,0,0,0,0,0,0,
0,0,0,0,0,0,1234,0,0,0,0,0,0,0,0,0,0,0,0,0,0,0,0,0,0,0,0,0,0,0,0,0,0,0,0,0,0,0,0,0,0,0,0,0,0,0,0,0,0,0,
0,0,0,0,0,0,0,0,0,0,0,0,0,0,0,0,0,0,0,0,0,0,0,0,0,0,0,0,0,0,0,0,0,0,0,0,0,0,0,0,0,0,0,0,0,0,0,0,0,0,
0,0,0,0,0,0,0,0,0,0,0,0,0,0,0,0,0,0,0,0,0,0,0,0,0,0,0,0,0,0,0,0,0,0,0,0,0,0,0,0,0,0,0,0,0,0,0,0,0,0
</data>
 </layer>
 <objectgroup id="26" name="Buildings2"/>
 <layer id="14" name="Paths" width="50" height="40">
  <data encoding="csv">
0,0,0,0,0,0,0,0,0,0,0,0,0,0,0,0,0,0,0,0,0,0,0,0,0,0,0,0,0,0,0,0,0,0,0,0,0,0,0,0,0,0,0,0,0,0,0,0,0,0,
0,0,0,0,0,0,0,0,0,0,0,0,0,0,0,0,0,0,0,0,0,0,0,0,0,0,0,0,0,0,0,0,0,0,0,0,0,0,0,0,0,0,0,0,0,0,0,0,0,0,
0,0,0,0,0,0,0,0,0,0,0,0,0,0,0,0,0,0,0,0,0,0,0,0,0,0,0,0,0,0,0,0,0,0,0,0,0,0,0,0,0,0,0,0,0,0,0,0,0,0,
0,0,0,0,0,0,0,0,0,0,0,0,0,0,0,0,0,0,0,0,0,0,0,0,0,0,0,0,0,0,0,0,0,0,0,0,0,0,0,0,0,0,0,0,0,0,0,3118,0,0,
0,0,0,0,0,0,0,0,0,0,0,0,0,0,0,0,0,0,0,0,0,0,0,0,0,0,0,0,0,0,0,0,0,0,3118,0,0,0,0,0,0,0,0,0,0,0,3118,0,0,0,
0,0,0,0,0,0,0,0,0,0,0,0,0,0,0,0,0,0,0,0,0,0,0,0,0,0,0,0,0,0,0,0,0,0,0,0,0,0,0,0,0,0,0,0,0,0,3118,3118,0,0,
0,0,0,0,0,0,0,0,0,0,0,0,0,0,0,0,0,0,0,0,0,0,0,0,0,0,0,0,0,0,0,0,0,0,0,0,0,0,0,0,0,0,0,0,0,0,0,0,0,0,
0,0,0,0,0,0,0,0,0,0,0,0,0,0,0,0,0,0,0,0,0,0,0,0,0,0,0,0,0,0,0,0,0,0,0,0,0,0,0,0,0,0,0,0,0,0,0,0,0,0,
0,0,0,0,0,0,0,0,0,0,0,0,0,0,0,0,0,0,0,0,0,0,0,0,0,0,0,0,0,0,0,0,0,0,0,0,0,0,0,0,0,0,3122,0,0,0,0,0,0,0,
0,0,0,0,0,0,0,0,0,0,0,0,0,0,0,0,0,0,0,0,0,0,0,0,0,0,0,0,0,0,0,0,0,0,0,0,0,0,0,0,0,0,0,0,0,0,0,0,0,0,
0,0,0,0,0,0,0,0,0,0,0,0,0,0,0,0,0,0,0,0,0,3118,0,0,0,0,0,0,0,0,0,0,0,0,0,3120,0,0,0,0,0,0,0,0,0,0,0,0,0,0,
0,0,0,0,0,0,0,0,0,0,0,0,3118,3118,0,0,0,0,0,3118,3118,0,0,0,0,0,0,0,0,0,0,0,0,0,0,0,0,0,0,0,0,0,0,0,0,0,0,0,0,0,
0,0,0,0,0,0,0,0,0,0,0,0,3118,0,0,0,0,0,0,0,0,0,0,0,0,0,0,0,0,0,0,3118,0,0,0,0,0,0,0,0,0,0,0,0,0,0,0,0,0,0,
0,0,0,0,0,0,0,0,0,0,3118,0,0,0,0,0,0,0,0,0,0,0,0,0,0,0,0,0,0,0,0,3118,0,0,0,0,0,0,0,0,0,0,0,0,0,0,0,0,0,0,
0,0,0,0,0,0,0,0,0,0,3118,0,0,0,0,0,0,0,0,0,0,0,0,0,0,0,0,0,0,0,0,0,0,0,0,0,0,0,0,0,0,0,0,0,0,0,0,0,0,0,
0,0,0,0,0,0,0,0,0,0,0,0,0,0,0,0,0,0,0,0,0,0,0,0,0,0,0,0,0,0,0,0,3107,0,0,0,0,0,0,0,0,0,0,0,0,0,0,0,0,0,
0,0,0,0,0,0,0,0,0,0,0,0,0,0,0,0,0,0,0,0,0,0,0,0,0,0,0,0,0,0,0,0,0,0,0,0,0,0,0,0,0,0,0,0,0,0,0,0,0,0,
0,0,0,0,0,0,0,0,0,0,0,0,0,0,0,0,0,0,0,0,0,0,0,0,0,0,0,0,0,0,0,3118,3118,0,0,3107,0,0,0,0,0,0,0,0,0,0,0,0,0,0,
0,0,0,0,0,3121,0,0,0,0,0,0,0,0,0,0,0,0,0,0,0,0,0,0,0,0,0,0,0,0,0,0,0,3107,0,0,0,0,0,0,0,0,0,0,0,0,0,0,0,0,
0,0,0,0,0,0,0,0,0,0,0,0,0,0,0,0,0,0,0,0,0,0,0,0,0,0,0,0,0,0,0,0,0,0,0,0,0,0,0,0,0,0,0,0,0,0,0,0,0,0,
0,0,0,0,0,0,0,0,0,0,0,0,0,0,0,0,0,0,0,0,0,0,0,0,0,0,0,0,0,0,0,0,0,0,0,0,0,0,0,0,0,0,0,0,0,0,0,0,0,0,
0,0,0,0,0,0,0,0,0,0,0,0,0,0,0,0,0,0,0,0,0,0,0,0,0,0,0,0,0,0,0,0,0,0,0,0,3107,0,0,0,0,0,0,0,0,0,0,0,0,0,
0,0,0,0,0,0,0,0,0,0,0,0,0,0,0,0,0,0,0,0,0,0,0,0,0,0,0,0,0,0,0,0,0,0,0,3118,0,0,0,0,0,0,0,0,0,0,0,0,0,0,
0,0,0,0,0,0,0,0,0,0,0,0,0,0,0,0,0,0,0,0,0,0,0,0,0,0,0,0,0,0,0,0,0,0,0,3118,0,0,0,0,0,0,0,0,0,0,0,0,0,0,
0,0,0,0,0,0,0,0,0,0,0,0,0,0,0,0,0,0,0,0,0,0,0,0,0,0,0,0,0,0,0,0,0,0,0,0,0,0,0,0,0,0,0,0,0,0,0,0,0,0,
0,0,0,0,0,0,0,0,0,0,0,0,0,0,0,0,0,0,0,0,0,0,0,0,0,0,0,0,0,0,0,0,0,0,0,0,0,0,0,0,0,0,0,0,0,0,0,0,0,0,
0,0,0,0,0,0,0,0,0,0,0,0,0,0,0,0,0,0,0,0,0,0,0,0,0,0,0,0,0,0,0,0,0,0,0,0,0,0,0,0,0,0,0,0,0,0,0,0,0,0,
0,0,0,0,0,0,0,0,0,0,0,0,0,0,0,0,0,0,0,0,0,0,0,0,0,0,0,0,0,0,0,0,0,0,0,0,0,0,0,3118,3118,0,0,0,0,0,0,0,0,0,
0,0,0,0,0,0,0,0,0,0,0,0,0,0,0,0,0,0,0,0,0,0,0,0,0,0,0,0,0,0,0,0,0,0,0,0,0,0,0,0,0,0,0,0,0,0,0,0,0,0,
0,0,0,0,0,0,0,0,0,0,0,0,0,0,0,0,0,0,0,0,0,0,0,0,0,0,0,0,0,0,0,0,0,0,0,0,0,3120,0,0,0,0,0,0,0,0,0,0,0,0,
0,0,0,0,0,0,0,0,0,0,0,0,0,0,0,0,0,0,0,0,0,0,0,0,0,0,0,0,0,0,0,0,0,0,0,3121,0,0,0,0,0,0,0,0,0,0,0,0,0,0,
0,0,0,0,0,0,0,0,0,0,0,0,0,0,0,0,0,0,0,0,0,0,0,0,0,0,0,0,0,0,0,0,0,0,0,0,0,0,0,0,0,0,0,0,0,3118,3118,0,0,0,
0,0,0,0,0,0,0,0,0,0,0,0,0,0,0,0,0,0,0,0,0,0,0,0,0,0,0,0,0,0,0,0,0,0,0,0,0,0,0,0,0,3118,0,0,0,0,0,0,0,0,
0,0,0,0,0,0,0,0,0,0,0,0,0,0,0,0,0,0,0,0,0,0,0,0,0,0,0,0,0,0,0,0,0,0,0,0,0,0,0,0,0,0,3118,0,0,0,0,0,0,0,
0,0,0,0,0,0,0,0,0,0,0,0,0,0,0,0,0,0,0,0,0,0,0,0,0,0,0,0,0,0,0,0,0,0,0,0,0,0,0,3118,0,0,0,0,0,0,0,0,0,0,
0,0,0,0,0,0,0,0,0,0,0,0,0,0,0,0,0,0,0,0,0,0,0,0,0,0,0,0,0,0,0,0,0,0,0,0,0,0,0,0,0,0,0,0,0,0,0,0,0,0,
0,0,0,0,0,0,0,0,0,0,0,0,0,0,0,0,0,0,0,0,0,0,0,0,0,0,0,0,0,0,0,0,0,0,0,0,0,0,0,3118,0,0,0,0,0,0,0,0,0,0,
0,0,0,0,0,0,0,0,0,0,0,0,0,0,0,0,0,0,0,0,0,0,0,0,0,0,0,0,0,0,0,0,0,0,0,0,0,0,0,0,0,0,0,0,0,0,0,0,0,0,
0,0,0,0,0,0,0,0,0,0,0,0,0,0,0,0,0,0,0,0,0,0,0,0,0,0,0,0,0,0,0,0,0,0,0,0,0,0,0,0,0,0,0,0,0,0,0,0,0,0,
0,0,0,0,0,0,0,0,0,0,0,0,0,0,0,0,0,0,0,0,0,0,0,0,0,0,0,0,0,0,0,0,0,0,0,0,0,0,0,0,0,0,0,0,0,0,0,0,0,0
</data>
 </layer>
 <objectgroup id="15" name="Paths"/>
 <layer id="5" name="Front" width="50" height="40">
  <data encoding="csv">
1157,1158,0,0,0,0,0,0,0,1209,1210,0,0,0,0,0,0,0,0,0,0,0,0,0,0,0,0,0,0,0,0,0,0,0,0,0,0,0,0,0,0,0,0,0,0,0,0,0,1161,0,
1182,1183,1159,0,0,0,0,0,0,0,0,0,0,0,0,0,0,0,0,0,0,0,0,0,0,0,0,0,0,0,0,0,0,0,0,0,0,0,0,0,0,0,0,1232,0,0,0,0,1186,0,
1207,1208,1184,0,0,0,0,0,0,0,0,0,0,0,0,0,0,0,0,0,0,0,0,0,0,0,0,0,0,0,0,0,0,0,0,0,0,0,0,0,0,0,0,1209,1210,0,0,0,0,0,
1232,0,0,0,0,0,0,0,0,0,0,0,0,0,0,0,0,0,0,0,0,0,0,0,0,0,0,0,0,0,0,0,0,0,0,0,0,0,0,0,0,0,0,0,0,0,0,0,0,0,
1257,0,0,0,0,0,0,0,0,0,0,0,0,0,0,0,0,0,0,0,0,0,0,0,0,0,0,0,0,0,0,0,0,0,0,0,0,0,0,0,0,0,0,0,1225,0,0,0,0,0,
0,0,0,0,0,0,0,0,0,0,0,0,0,0,0,0,0,0,0,0,0,0,0,0,0,0,0,0,0,0,0,0,0,0,0,0,0,0,0,0,0,0,0,0,0,0,0,0,0,0,
0,0,0,0,0,0,0,0,0,0,0,0,0,0,0,0,0,0,0,0,0,0,0,0,0,0,0,0,0,0,0,0,0,0,0,0,0,0,0,0,0,0,0,0,0,0,0,0,0,0,
0,0,0,0,0,0,0,0,0,0,0,0,0,0,0,0,0,0,0,0,0,0,0,0,0,0,0,0,0,0,0,0,0,0,0,0,0,0,0,0,0,0,0,0,0,0,0,0,0,0,
0,0,0,0,0,0,0,0,0,0,0,0,0,0,0,0,0,0,0,0,0,0,0,0,0,0,0,0,0,0,0,0,0,0,0,0,0,0,0,0,0,0,0,0,0,0,0,0,0,0,
1129,1130,0,0,0,0,0,0,0,0,0,0,0,0,0,0,0,0,0,0,0,0,0,0,0,0,0,0,0,0,0,0,0,0,0,0,0,0,0,0,0,0,0,0,0,0,0,0,0,0,
1154,1155,0,0,0,0,0,0,0,0,1239,1240,0,0,0,0,0,0,0,0,0,0,0,0,0,0,0,0,0,0,0,0,0,0,0,0,0,0,0,0,0,0,0,0,0,0,0,0,0,0,
1179,1180,0,0,0,0,0,0,0,0,0,0,0,0,0,0,0,0,0,0,0,0,0,0,0,0,0,0,0,0,0,0,0,0,0,0,0,0,0,0,0,0,0,0,0,0,0,0,0,0,
1204,1205,0,0,0,0,0,0,0,0,0,0,0,0,0,0,0,0,0,0,0,0,0,0,0,0,0,0,0,0,0,0,0,0,0,0,0,0,0,0,0,0,0,0,0,0,0,0,0,0,
1229,0,0,0,0,0,0,0,0,0,0,0,0,0,0,0,0,0,0,0,0,0,0,0,0,0,0,0,0,0,0,0,0,0,0,0,0,0,0,0,0,0,0,0,0,0,0,0,0,0,
1254,0,0,0,0,0,0,0,0,0,0,0,0,0,0,0,0,0,0,0,0,0,0,0,0,0,0,0,0,0,0,0,0,0,0,0,0,0,0,0,0,1228,1229,0,0,0,0,0,0,1482,
1279,0,0,0,0,0,0,0,0,0,0,0,0,0,0,0,0,0,0,0,0,0,0,0,0,0,0,0,0,0,0,0,0,0,0,0,0,0,0,0,0,0,0,0,0,0,0,1232,0,0,
0,0,0,0,0,0,0,0,0,0,0,0,0,0,0,0,0,0,0,0,0,0,0,0,0,0,0,0,0,0,0,0,0,0,0,0,0,0,0,0,0,0,0,0,0,0,0,0,0,0,
0,0,0,0,0,0,0,0,0,0,0,0,0,0,0,0,0,0,0,0,0,0,0,0,0,0,0,0,0,0,0,0,0,0,0,0,0,0,0,0,0,0,0,0,0,0,1159,1160,1161,0,
0,0,0,0,0,0,0,0,0,0,0,0,0,0,0,0,0,0,0,0,1232,0,0,0,0,0,0,0,0,0,0,0,0,0,0,0,0,0,0,0,0,0,0,0,0,0,0,0,0,0,
0,0,0,0,0,0,0,0,0,0,0,0,0,0,0,0,0,0,1159,1160,1161,0,0,0,0,0,0,0,0,0,0,0,0,0,0,0,0,0,0,0,0,0,0,0,0,0,0,0,0,0,
0,0,0,0,0,0,0,0,0,0,0,0,0,0,0,0,0,0,0,0,0,0,0,0,0,0,0,0,0,0,0,0,0,0,0,0,0,0,0,0,0,0,0,0,0,0,0,0,0,0,
0,0,0,0,0,0,0,0,0,0,0,0,0,0,0,0,0,0,0,0,0,0,0,0,0,0,0,0,0,0,0,0,0,0,0,0,0,0,0,0,0,0,0,0,0,0,1232,0,0,0,
0,0,0,0,0,0,0,0,0,0,0,0,0,0,0,0,0,0,0,0,0,0,0,0,0,0,0,0,0,0,0,0,0,0,0,0,0,0,0,0,0,0,0,0,0,0,0,0,0,0,
0,0,0,0,0,0,0,0,0,0,0,0,0,0,0,0,0,0,0,0,0,0,0,0,0,0,0,0,0,0,0,0,0,0,0,0,0,0,0,0,0,0,0,0,0,0,0,0,0,0,
0,0,0,0,0,0,0,0,1232,0,0,0,0,0,0,0,0,1531,0,0,0,0,0,0,2846,2847,2848,2849,2850,2856,2857,2858,2859,2860,2861,2862,0,0,0,0,0,0,0,0,0,0,0,0,0,0,
0,0,0,0,0,0,0,0,1209,1210,0,0,0,0,0,0,0,0,0,0,0,0,0,0,0,0,0,0,0,0,0,0,0,0,0,0,0,0,0,0,0,0,0,0,0,1131,1132,1133,0,0,
0,0,0,0,0,0,0,0,0,0,0,0,0,0,0,0,0,0,0,0,0,0,0,0,0,0,0,0,0,0,0,0,0,0,0,0,0,0,0,0,0,0,0,1560,1534,1156,1157,1158,0,0,
0,0,0,0,0,0,0,0,0,0,0,0,0,0,0,0,0,0,0,0,0,0,0,0,2996,2997,2998,2999,3000,3006,3007,3008,3009,3010,3011,3012,0,0,0,0,0,0,1131,1132,1133,1181,1182,1183,0,0,
0,0,0,0,0,0,0,0,0,0,0,0,0,0,0,0,0,0,0,0,0,0,0,0,0,0,0,0,0,0,0,0,0,0,0,0,0,0,0,0,0,0,1156,1157,1158,1206,1207,1208,0,0,
0,0,0,0,0,0,0,0,0,0,0,0,0,0,0,0,0,0,0,0,0,0,0,0,0,0,0,0,0,0,0,0,0,0,0,0,0,1560,1534,1159,1160,1161,1181,1182,1183,0,0,0,0,0,
0,0,0,0,0,0,0,0,0,0,0,0,0,0,0,0,0,0,0,0,0,0,0,0,0,0,0,0,0,0,0,0,0,0,0,0,0,0,0,0,0,0,1206,1207,1208,0,0,0,1239,1240,
0,0,0,0,0,0,0,0,0,0,0,0,0,0,0,0,0,0,0,0,0,0,0,0,0,0,0,0,0,0,0,0,0,0,0,0,0,0,1209,1210,0,0,0,1232,0,0,0,0,0,0,
0,0,0,0,0,0,1232,0,0,0,0,0,0,0,0,0,0,0,0,0,0,0,0,0,0,0,0,0,0,0,0,0,0,0,0,0,1131,1132,1133,0,0,0,0,1257,0,0,0,0,0,0,
1130,0,0,0,0,0,0,0,0,0,0,0,0,0,0,0,0,0,0,0,0,0,0,0,0,0,0,0,1131,1132,1133,0,0,0,0,0,1156,1157,1158,0,0,0,0,0,0,0,0,1364,0,0,
1155,0,0,0,0,0,0,0,0,0,0,0,0,0,0,0,0,0,0,0,0,0,0,0,0,0,0,0,1156,1157,1158,0,0,1131,1132,1133,1181,1182,1183,0,0,0,0,1364,0,1131,1132,1133,0,0,
1180,0,0,0,0,0,0,0,0,0,0,0,0,0,0,1232,0,0,0,0,0,0,0,0,0,0,0,0,1181,1182,1183,0,0,1156,1157,1158,1206,1207,1208,0,0,0,0,0,0,1156,1157,1158,0,0,
1205,0,0,0,0,0,1209,1210,1229,0,0,0,0,0,0,0,0,0,0,0,0,0,0,0,0,0,0,0,1206,1207,1208,0,0,1181,1182,1183,0,0,0,0,0,0,0,0,0,1181,1182,1183,0,0,
1159,1160,1161,0,0,0,0,1253,0,0,0,0,0,0,0,0,0,0,0,0,0,0,0,0,0,0,0,0,0,1232,0,0,0,1206,1207,1208,0,0,0,0,0,0,0,0,0,1206,1207,1208,0,0,
0,0,0,0,0,0,0,0,0,0,0,0,0,0,0,0,0,0,0,0,0,0,0,0,0,0,0,0,0,1257,0,0,0,0,1232,0,0,0,0,0,0,0,0,0,0,0,0,0,0,0,
0,0,0,0,0,0,0,0,0,0,0,0,0,0,0,0,0,0,0,0,0,0,0,0,0,0,0,0,0,0,0,0,0,0,1257,0,0,0,0,0,0,0,0,0,0,0,0,0,0,0
</data>
 </layer>
 <objectgroup id="6" name="Front"/>
 <layer id="12" name="AlwaysFront" width="50" height="40">
  <data encoding="csv">
0,0,1134,1135,1136,1253,1254,0,0,0,0,0,0,0,0,0,0,0,0,0,0,0,0,0,0,0,0,0,0,0,0,1174,0,1162,0,0,0,0,0,0,0,0,1206,1207,1208,1126,0,0,0,0,
1131,1132,1133,1160,1161,1278,1279,0,0,0,0,0,0,0,0,0,0,0,0,0,0,0,0,0,0,0,0,0,0,0,0,1199,0,1187,0,0,0,0,0,0,0,0,0,1149,1150,1151,0,0,0,0,
1156,1157,1158,1185,1186,1428,0,0,0,0,0,0,0,0,0,0,0,0,0,0,0,0,0,0,0,0,0,0,0,0,0,0,0,1212,0,0,0,0,0,0,0,0,0,1174,1175,1176,0,0,0,0,
1181,1182,1183,0,0,0,0,0,0,0,0,0,0,0,0,0,0,0,0,0,0,0,0,0,0,0,0,0,0,0,0,0,0,0,0,0,0,0,0,0,0,0,0,1199,1200,1201,0,0,0,0,
1206,1207,1208,0,0,0,0,0,0,0,0,0,0,0,0,0,0,0,0,0,0,0,0,0,0,0,0,0,0,0,0,0,0,0,0,0,0,0,0,0,0,0,0,0,0,0,0,0,0,0,
0,1232,0,0,0,0,0,0,0,0,0,0,0,0,0,0,0,0,0,0,0,0,0,0,0,0,0,0,0,0,0,0,0,0,0,0,0,0,0,0,0,0,0,0,0,0,0,0,0,0,
0,1257,0,0,0,0,0,0,0,1138,1139,1140,1141,0,0,0,0,0,0,0,0,0,0,0,0,0,0,0,0,0,0,0,0,0,0,0,0,0,0,0,0,0,0,0,0,0,0,0,0,0,
0,0,0,0,0,0,0,0,1162,1163,1164,1165,1166,1167,0,0,0,0,0,0,0,0,0,0,0,0,0,0,0,0,0,0,0,0,0,0,0,0,0,0,0,0,0,0,0,0,0,0,0,0,
0,0,0,0,0,0,0,0,1187,1188,1189,1190,1191,1192,0,0,0,0,0,0,0,0,0,0,0,0,0,0,0,0,0,0,0,0,0,0,0,0,0,0,0,0,0,0,0,0,0,0,0,0,
0,0,0,0,0,0,0,0,1212,1213,1214,1215,1216,1217,0,0,0,0,0,0,0,0,0,0,0,0,0,0,0,0,0,0,0,0,0,0,0,0,0,0,0,0,0,0,0,0,0,0,0,0,
0,0,0,0,0,0,0,0,0,0,0,0,0,0,0,0,0,0,0,0,0,0,0,0,0,0,0,0,0,0,0,0,0,0,0,0,0,0,0,0,1127,1128,1129,1130,0,0,0,0,0,0,
0,0,0,0,0,0,0,0,0,0,0,0,0,0,0,0,0,0,0,0,0,0,0,0,0,0,0,0,0,0,0,0,0,0,0,0,0,0,0,0,1152,1153,1154,1155,0,0,1131,1132,1133,0,
0,0,0,0,0,0,0,0,0,0,0,0,0,0,0,0,0,0,0,0,0,0,0,0,0,0,0,0,0,0,0,0,0,0,0,0,0,0,0,0,1177,1178,1179,1180,0,0,1156,1157,1158,0,
0,0,0,0,0,0,0,0,0,0,0,0,0,0,0,0,0,0,0,0,0,0,0,0,0,0,0,0,0,0,0,0,0,0,0,0,0,0,0,0,1202,1203,1204,1205,0,0,1181,1182,1183,0,
0,0,0,0,0,0,0,0,0,0,0,0,0,0,0,0,0,0,0,1131,1132,1133,0,0,0,0,0,0,0,0,0,0,0,0,0,0,0,0,0,0,0,0,0,0,0,0,1206,1207,1208,0,
0,0,0,0,0,0,0,0,0,0,0,0,0,0,0,0,0,0,0,1156,1157,1158,0,0,0,0,0,0,0,0,0,0,0,0,0,0,0,0,0,0,0,0,0,0,0,0,0,0,0,0,
0,0,0,0,0,0,0,0,0,0,0,0,0,0,0,0,0,0,0,1181,1182,1183,0,0,0,0,0,0,0,0,0,0,0,0,0,0,0,0,0,0,0,0,0,0,0,0,1134,1135,1136,0,
0,0,0,0,0,0,0,0,0,0,0,0,0,0,0,248,249,0,0,1206,1207,1208,0,0,0,0,0,0,0,0,0,0,0,0,0,0,0,0,0,0,0,0,0,0,0,1131,1132,1133,0,0,
1125,1126,0,0,0,0,0,0,0,0,0,0,0,0,0,264,0,0,1134,1135,1136,270,0,0,0,0,0,0,0,0,0,0,0,0,0,0,0,0,0,0,0,0,0,0,0,1156,1157,1158,0,0,
1150,1151,0,0,0,0,0,0,0,0,0,0,0,0,0,280,0,0,0,0,0,286,0,0,0,0,0,0,0,0,0,0,0,0,0,0,0,0,0,0,0,0,0,0,0,1181,1182,1183,0,0,
1175,1176,0,0,0,0,0,1131,1132,1133,0,0,0,0,0,0,0,0,0,0,0,0,0,0,0,0,0,0,0,0,0,0,0,0,0,0,0,0,0,0,0,0,0,0,0,1206,1207,1208,0,0,
1200,1201,0,0,0,0,0,1156,1157,1158,0,0,0,0,0,0,0,0,0,0,0,0,0,0,0,0,0,0,0,0,0,0,0,0,0,0,0,0,0,0,0,0,0,0,0,0,0,0,0,0,
1225,0,0,0,0,0,248,1181,1182,1183,0,0,254,0,0,0,0,0,0,0,0,0,0,0,0,0,0,0,0,0,0,0,0,0,0,0,0,0,0,0,0,0,0,0,0,0,0,0,0,0,
1250,0,0,0,0,0,0,1206,1207,1208,0,0,270,0,0,0,0,0,0,0,0,0,0,0,0,0,0,0,0,0,0,0,0,0,0,0,0,0,0,0,0,0,0,0,0,0,0,0,0,0,
0,0,0,0,0,0,0,0,0,0,0,0,0,0,0,0,0,0,0,0,0,0,0,0,0,0,0,0,0,0,0,0,0,0,0,0,0,0,0,0,0,0,0,0,0,0,0,0,0,0,
0,0,0,0,0,0,0,0,0,0,0,0,0,0,0,0,0,0,0,0,0,0,0,0,0,0,0,0,0,0,0,0,0,0,0,0,0,0,0,0,0,0,0,0,0,0,0,0,0,0,
0,0,0,0,0,0,0,0,0,0,0,0,0,0,0,0,0,0,0,0,0,0,0,0,0,0,0,0,0,0,0,0,0,0,0,0,0,0,0,0,0,0,0,0,0,0,0,1138,1139,1140,
0,0,0,0,0,0,0,0,0,0,0,0,0,0,0,0,0,0,0,0,0,0,0,0,0,0,0,0,0,0,0,0,0,0,0,0,0,0,0,0,0,0,0,0,0,0,1162,1163,1164,1165,
0,0,0,0,0,1131,1132,1133,0,0,0,0,0,0,0,0,0,0,0,0,0,0,0,0,0,0,0,0,0,0,0,0,0,0,0,0,0,0,0,1134,1135,1136,0,0,0,0,1187,1188,1189,1190,
0,0,0,0,0,1156,1157,1158,0,0,0,0,0,0,0,0,0,0,0,0,0,0,0,0,0,0,0,0,0,0,0,0,0,0,0,0,0,0,0,0,0,0,0,0,0,0,1212,1213,1214,1215,
0,0,0,0,0,1181,1182,1183,0,0,0,0,0,0,0,0,0,0,0,0,0,0,0,0,0,0,0,0,0,0,0,0,0,0,0,0,0,0,0,0,0,0,0,0,0,0,0,0,0,0,
0,0,0,0,0,1206,1207,1208,0,0,0,0,0,0,1131,1132,1133,0,0,0,0,0,0,0,0,0,0,0,0,0,0,0,0,0,0,0,0,0,0,0,0,0,0,0,0,0,0,0,0,0,
0,0,0,0,0,0,1127,1128,1129,1130,0,0,0,0,1156,1157,1158,0,0,0,0,0,0,0,0,0,0,0,0,0,0,0,0,0,0,0,1131,1132,1133,0,0,0,0,0,0,0,0,0,0,0,
0,0,0,0,0,0,1152,1153,1154,1155,0,0,0,0,1181,1182,1183,0,0,0,0,0,0,0,0,0,0,0,0,0,0,0,0,0,0,0,1156,1157,1131,1132,1133,0,0,0,0,0,0,0,0,0,
0,0,0,0,0,0,1177,1178,1179,1180,0,0,0,0,1206,1207,1208,0,0,0,0,0,0,0,0,0,1131,1132,1133,0,0,0,0,0,0,0,1181,1182,1156,1157,1158,0,0,0,0,0,0,0,0,0,
0,0,0,0,0,0,1202,1203,1204,1205,0,0,0,0,0,0,0,0,0,0,0,1131,1132,1133,0,0,1156,1157,1158,0,0,0,0,0,0,0,1206,1207,1181,1182,1183,0,0,0,0,0,0,0,0,0,
1134,1135,1136,0,0,0,0,1228,0,0,0,0,0,0,0,0,0,0,0,0,0,1156,1157,1158,0,0,1181,1182,1183,0,0,0,0,0,0,0,0,0,1206,1207,1208,0,0,0,0,0,0,0,0,0,
0,0,0,0,0,0,0,0,0,0,0,0,0,0,0,0,0,0,0,0,0,1181,1182,1183,0,0,1206,1207,1208,0,0,0,0,0,0,0,0,0,0,0,0,0,0,0,0,0,0,0,0,0,
0,0,0,0,0,0,0,0,0,0,0,0,0,0,0,0,0,0,0,0,0,1206,1207,1208,0,0,0,1232,0,0,0,0,0,0,0,0,0,0,0,0,0,0,0,0,0,0,0,0,0,0,
0,0,0,0,0,0,0,0,0,0,0,0,0,0,0,0,0,0,0,0,0,0,1232,0,0,0,0,1257,0,0,0,0,0,0,0,0,0,0,0,0,0,0,0,0,0,0,0,0,0,0
</data>
 </layer>
 <objectgroup id="13" name="AlwaysFront"/>
 <layer id="23" name="AlwaysFront2" width="50" height="40">
  <data encoding="csv">
0,0,0,0,0,0,0,0,0,0,0,0,0,0,0,0,0,0,0,0,0,0,0,0,0,0,0,0,0,0,0,0,0,0,0,0,0,0,0,0,0,0,0,1124,1125,0,0,0,0,0,
0,0,0,0,0,0,0,0,0,0,0,0,0,0,0,0,0,0,0,0,0,0,0,0,0,0,0,0,0,0,0,0,0,0,0,0,0,0,0,0,0,0,0,0,0,0,0,0,0,0,
0,0,0,0,0,0,0,0,0,0,0,0,0,0,0,0,0,0,0,0,0,0,0,0,0,0,0,0,0,0,0,0,0,0,0,0,0,0,0,0,0,0,0,0,0,0,0,0,0,0,
0,0,0,0,0,0,0,0,0,0,0,0,0,0,0,0,0,0,0,0,0,0,0,0,0,0,0,0,0,0,0,0,0,0,0,0,0,0,0,0,0,0,0,0,0,0,0,0,0,0,
0,0,0,0,0,0,0,0,0,0,0,0,0,0,0,0,0,0,0,0,0,0,0,0,0,0,0,0,0,0,0,0,0,0,0,0,0,0,0,0,0,0,0,0,0,0,0,0,0,0,
0,0,0,0,0,0,0,0,0,0,0,0,0,0,0,0,0,0,0,0,0,0,0,0,0,0,0,0,0,0,0,0,0,0,0,0,0,0,0,0,0,0,0,0,0,0,0,0,0,0,
0,0,0,0,0,0,0,0,0,0,0,0,0,0,0,0,0,0,0,0,0,0,0,0,0,0,0,0,0,0,0,0,0,0,0,0,0,0,0,0,0,0,0,0,0,0,0,0,0,0,
0,0,0,0,0,0,0,0,0,0,0,0,0,0,0,0,0,0,0,0,0,0,0,0,0,0,0,0,0,0,0,0,0,0,0,0,0,0,0,0,0,0,0,0,0,0,0,0,0,0,
0,0,0,0,0,0,0,0,0,0,0,0,0,0,0,0,0,0,0,0,0,0,0,0,0,0,0,0,0,0,0,0,0,0,0,0,0,0,0,0,0,0,0,0,0,0,0,0,0,0,
0,0,0,0,0,0,0,0,0,0,0,0,0,0,0,0,0,0,0,0,0,0,0,0,0,0,0,0,0,0,0,0,0,0,0,0,0,0,0,0,0,0,0,0,0,0,0,0,0,0,
0,0,0,0,0,0,0,0,0,0,0,0,0,0,0,0,0,0,0,0,0,0,0,0,0,0,0,0,0,0,0,0,0,0,0,0,0,0,0,0,0,0,0,0,0,0,0,0,0,0,
0,0,0,0,0,0,0,0,0,0,0,0,0,0,0,0,0,0,0,0,0,0,0,0,0,0,0,0,0,0,0,0,0,0,0,0,0,0,0,0,0,0,0,0,0,0,0,0,0,0,
0,0,0,0,0,0,0,0,0,0,0,0,0,0,0,0,0,0,0,0,0,0,0,0,0,0,0,0,0,0,0,0,0,0,0,0,0,0,0,0,0,0,0,0,0,0,0,0,0,0,
0,0,0,0,0,0,0,0,0,0,0,0,0,0,0,0,0,0,0,0,0,0,0,0,0,0,0,0,0,0,0,0,0,0,0,0,0,0,0,0,0,0,0,0,0,0,0,0,0,0,
0,0,0,0,0,0,0,0,0,0,0,0,0,0,0,0,0,0,0,0,0,0,0,0,0,0,0,0,0,0,0,0,0,0,0,0,0,0,0,0,0,0,0,0,0,0,0,0,0,0,
0,0,0,0,0,0,0,0,0,0,0,0,0,0,0,0,0,0,0,0,0,0,0,0,0,0,0,0,0,0,0,0,0,0,0,0,0,0,0,0,0,0,0,0,0,0,0,0,0,0,
0,0,0,0,0,0,0,0,0,0,0,0,0,0,0,0,0,0,0,0,0,0,0,0,0,0,0,0,0,0,0,0,0,0,0,0,0,0,0,0,0,0,0,0,0,0,0,0,0,0,
0,0,0,0,0,0,0,0,0,0,0,0,0,0,0,0,0,0,0,0,0,0,0,0,0,0,0,0,0,0,0,0,0,0,0,0,0,0,0,0,0,0,0,0,0,0,0,0,0,0,
0,0,0,0,0,0,0,0,0,0,0,0,0,0,0,0,0,0,0,0,0,0,0,0,0,0,0,0,0,0,0,0,0,0,0,0,0,0,0,0,0,0,0,0,0,0,0,0,0,0,
0,0,0,0,0,0,0,0,0,0,0,0,0,0,0,0,0,0,0,0,0,0,0,0,0,0,0,0,0,0,0,0,0,0,0,0,0,0,0,0,0,0,0,0,0,0,0,0,0,0,
0,0,0,0,0,0,0,0,0,0,0,0,0,0,0,0,0,0,0,0,0,0,0,0,0,0,0,0,0,0,0,0,0,0,0,0,0,0,0,0,0,0,0,0,0,0,0,0,0,0,
0,0,0,0,0,0,0,0,0,0,0,0,0,0,0,0,0,0,0,0,0,0,0,0,0,0,0,0,0,0,0,0,0,0,0,0,0,0,0,0,0,0,0,0,0,0,0,0,0,0,
0,0,0,0,0,0,0,0,0,0,0,0,0,0,0,0,0,0,0,0,0,0,0,0,0,0,0,0,0,0,0,0,0,0,0,0,0,0,0,0,0,0,0,0,0,0,0,0,0,0,
0,0,0,0,0,0,0,0,0,0,0,0,0,0,0,0,0,0,0,0,0,0,0,0,0,0,0,0,0,0,0,0,0,0,0,0,0,0,0,0,0,0,0,0,0,0,0,0,0,0,
0,0,0,0,0,0,0,0,0,0,0,0,0,0,0,0,0,0,0,0,0,0,0,0,0,0,0,0,0,0,0,0,0,0,0,0,0,0,0,0,0,0,0,0,0,0,0,0,0,0,
0,0,0,0,0,0,0,0,0,0,0,0,0,0,0,0,0,0,0,0,0,0,0,0,0,0,0,0,0,0,0,0,0,0,0,0,0,0,0,0,0,0,0,0,0,0,0,0,0,0,
0,0,0,0,0,0,0,0,0,0,0,0,0,0,0,0,0,0,0,0,0,0,0,0,0,0,0,0,0,0,0,0,0,0,0,0,0,0,0,0,0,0,0,0,0,0,0,0,0,0,
0,0,0,0,0,0,0,0,0,0,0,0,0,0,0,0,0,0,0,0,0,0,0,0,0,0,0,0,0,0,0,0,0,0,0,0,0,0,0,0,0,0,0,0,0,0,0,0,0,0,
0,0,0,0,0,0,0,0,0,0,0,0,0,0,0,0,0,0,0,0,0,0,0,0,0,0,0,0,0,0,0,0,0,0,0,0,0,0,0,0,0,0,0,0,0,0,0,0,0,0,
0,0,0,0,0,0,0,0,0,0,0,0,0,0,0,0,0,0,0,0,0,0,0,0,0,0,0,0,0,0,0,0,0,0,0,0,0,0,0,0,0,0,0,0,0,0,0,0,0,0,
0,0,0,0,0,0,0,0,0,0,0,0,0,0,0,0,0,0,0,0,0,0,0,0,0,0,0,0,0,0,0,0,0,0,0,0,0,0,0,0,0,0,0,0,0,0,0,0,0,0,
0,0,0,0,0,0,0,0,0,0,0,0,0,0,0,0,0,0,0,0,0,0,0,0,0,0,0,0,0,0,0,0,0,0,0,0,0,0,0,0,0,0,0,0,0,0,0,0,0,0,
0,0,0,0,0,0,0,0,0,0,0,0,0,0,0,0,0,0,0,0,0,0,0,0,0,0,0,0,0,0,0,0,0,0,0,0,0,0,0,0,0,0,0,0,0,0,0,0,0,0,
0,0,0,0,0,0,0,0,0,0,0,0,0,0,0,0,0,0,0,0,0,0,0,0,0,0,0,0,0,0,0,0,0,0,0,0,0,0,0,1131,1132,1133,0,0,0,0,0,0,0,0,
0,0,0,0,0,0,0,0,0,0,0,0,0,0,0,0,0,0,0,0,0,0,0,0,0,0,0,0,0,0,0,0,0,0,0,0,0,0,0,1156,1157,1158,0,0,0,0,0,0,0,0,
0,0,0,0,0,0,0,0,0,0,0,0,0,0,0,0,0,0,0,0,0,0,0,0,0,0,0,0,0,0,0,0,0,0,0,0,0,0,0,1181,1182,1183,0,0,0,0,0,0,0,0,
0,0,0,0,0,0,0,0,0,0,0,0,0,0,0,0,0,0,0,0,0,0,0,0,0,0,0,0,0,0,0,0,0,0,0,0,0,0,0,1206,1207,1208,0,0,0,0,0,0,0,0,
0,0,0,0,0,0,0,0,0,0,0,0,0,0,0,0,0,0,0,0,0,0,0,0,0,0,0,0,0,0,0,0,0,0,0,0,0,0,0,0,0,0,0,0,0,0,0,0,0,0,
0,0,0,0,0,0,0,0,0,0,0,0,0,0,0,0,0,0,0,0,0,0,0,0,0,0,0,0,0,0,0,0,0,0,0,0,0,0,0,0,0,0,0,0,0,0,0,0,0,0,
0,0,0,0,0,0,0,0,0,0,0,0,0,0,0,0,0,0,0,0,0,0,0,0,0,0,0,0,0,0,0,0,0,0,0,0,0,0,0,0,0,0,0,0,0,0,0,0,0,0
</data>
 </layer>
 <objectgroup id="24" name="AlwaysFront2"/>
</map>
