<?xml version="1.0" encoding="UTF-8"?>
<map version="1.8" tiledversion="1.8.2" orientation="orthogonal" renderorder="right-down" compressionlevel="0" width="40" height="38" tilewidth="16" tileheight="16" infinite="0" nextlayerid="10" nextobjectid="1">
 <tileset firstgid="1" name="untitled tile sheet" tilewidth="16" tileheight="16" tilecount="140" columns="10">
  <image source="samshowtiles" width="160" height="224"/>
  <tile id="124">
   <animation>
    <frame tileid="124" duration="550"/>
    <frame tileid="129" duration="550"/>
   </animation>
  </tile>
  <tile id="127">
   <animation>
    <frame tileid="127" duration="500"/>
    <frame tileid="128" duration="500"/>
   </animation>
  </tile>
  <tile id="137">
   <animation>
    <frame tileid="137" duration="500"/>
    <frame tileid="138" duration="500"/>
   </animation>
  </tile>
 </tileset>
 <tileset firstgid="141" name="spring_town" tilewidth="16" tileheight="16" tilecount="2304" columns="32">
  <image source="spring_town.png" trans="000000" width="512" height="1152"/>
 </tileset>
 <tileset firstgid="2445" name="spring_outdoorsTileSheet" tilewidth="16" tileheight="16" tilecount="1975" columns="25">
  <image source="spring_outdoorsTileSheet.png" trans="000000" width="400" height="1264"/>
 </tileset>
 <tileset firstgid="4420" name="paths" tilewidth="16" tileheight="16" tilecount="36" columns="4">
  <image source="paths.png" trans="000000" width="64" height="144"/>
 </tileset>
 <tileset firstgid="4456" name="Festivals" tilewidth="16" tileheight="16" tilecount="1024" columns="32">
  <image source="Festivals.png" trans="000000" width="512" height="512"/>
  <tile id="233">
   <animation>
    <frame tileid="233" duration="200"/>
    <frame tileid="297" duration="400"/>
   </animation>
  </tile>
  <tile id="307">
   <animation>
    <frame tileid="307" duration="400"/>
    <frame tileid="275" duration="400"/>
   </animation>
  </tile>
 </tileset>
 <layer id="1" name="Back" width="40" height="38">
  <data encoding="csv">
29,29,29,29,29,29,29,29,29,29,29,29,29,29,29,29,29,29,29,29,29,29,29,29,29,29,29,29,29,29,29,29,29,29,29,29,29,29,29,29,
29,29,29,29,8,9,29,29,8,9,8,9,29,29,29,8,9,8,9,29,29,29,29,8,9,8,9,29,29,29,8,9,8,9,29,29,29,8,9,8,
29,29,29,29,18,19,29,29,18,19,18,19,29,29,29,18,19,18,19,29,29,29,29,18,19,18,19,29,29,29,18,19,18,19,29,29,29,18,19,18,
29,8,9,29,29,29,29,29,29,29,29,29,29,29,29,29,29,29,29,29,29,29,29,29,29,29,29,29,29,29,29,29,29,29,29,29,29,29,29,29,
29,18,19,29,8,9,29,29,8,9,8,9,29,29,29,8,9,8,9,29,29,29,29,8,9,8,9,29,29,29,8,9,8,9,29,29,29,8,9,8,
29,29,29,29,18,19,29,29,18,19,18,19,29,29,29,18,19,18,19,29,29,29,29,18,19,18,19,29,29,29,18,19,18,19,29,29,29,18,19,18,
29,29,29,29,29,29,29,29,29,29,29,29,29,29,29,29,29,29,29,29,29,29,29,29,29,29,29,29,29,29,29,29,29,29,29,29,29,29,29,29,
28,28,28,28,8,9,28,28,8,9,8,9,28,28,28,8,9,8,9,28,28,28,28,8,9,8,9,28,28,28,8,9,8,9,28,28,29,8,9,8,
28,28,28,28,18,19,28,28,18,19,18,19,28,28,28,18,19,18,19,28,28,28,28,18,19,18,19,28,28,28,18,19,18,19,28,28,29,18,19,18,
8,9,28,28,28,28,28,28,28,8,9,28,28,28,28,28,28,28,28,28,28,28,28,28,28,28,8,9,28,28,28,28,28,28,8,9,29,29,29,29,
18,19,28,28,2720,2720,2720,2720,2720,2720,2720,2595,2720,2720,2720,2720,2720,2720,2620,2720,2720,2620,2720,2720,2720,2595,2720,2620,2720,2720,2720,2720,2720,2595,2720,2720,2720,2720,2720,2720,
28,28,28,2620,2620,2620,2595,2620,2620,2846,2620,2620,2846,2620,2620,2620,2620,2620,2620,2620,2620,2620,2620,2620,2620,2620,2846,2620,2620,2620,2620,2620,2620,2620,2720,2720,2720,2720,2720,2720,
38,38,38,38,749,752,752,752,750,752,752,752,752,786,752,752,752,752,36,36,752,750,752,752,752,752,750,752,752,752,752,752,752,752,752,752,752,752,751,2620,
85,85,85,85,781,877,878,878,877,878,877,878,877,878,46,46,46,46,46,46,46,46,46,46,877,878,877,878,877,878,877,877,878,877,878,877,878,878,783,2720,
85,85,85,85,781,909,910,910,909,910,909,910,909,910,56,56,56,56,56,56,56,56,56,56,909,910,909,910,877,878,909,909,910,909,910,909,910,910,783,2720,
85,85,85,85,781,877,877,878,877,878,877,878,877,877,877,877,877,877,877,877,877,877,877,877,877,877,877,878,877,878,877,878,877,878,877,878,877,878,783,2720,
85,85,85,85,781,909,909,910,909,910,909,910,909,909,909,909,909,909,909,909,909,909,909,909,909,909,909,910,909,910,909,910,909,910,909,910,909,910,783,2720,
85,85,85,85,781,877,878,877,878,878,909,910,877,878,877,878,878,877,878,877,878,877,878,877,878,878,877,878,877,878,877,878,877,878,877,878,877,878,783,2720,
85,85,85,85,781,909,910,909,910,910,877,878,878,878,877,878,910,878,877,878,877,878,878,909,910,910,877,878,909,910,909,910,909,910,909,910,909,910,783,2720,
85,85,85,85,781,877,878,877,877,878,877,878,878,910,877,878,878,910,877,878,909,910,878,877,878,878,877,878,877,878,877,878,877,878,877,878,877,878,783,2720,
85,85,85,85,781,909,910,909,909,910,877,878,877,878,877,878,878,878,877,878,877,878,878,909,910,878,877,878,909,910,909,910,909,910,909,910,909,910,783,2720,
85,85,85,85,781,877,878,878,877,878,877,878,909,910,877,878,878,878,877,878,909,910,878,877,878,878,877,878,877,878,877,878,877,878,877,878,877,878,783,2720,
85,85,85,85,781,909,910,910,909,910,909,910,909,910,909,910,1159,878,877,878,877,878,909,910,909,910,909,910,909,910,909,910,909,910,909,910,909,910,783,2720,
48,85,85,85,781,877,877,877,878,877,878,877,878,877,878,877,878,877,878,877,878,877,878,878,877,878,877,878,877,878,877,878,877,878,877,878,877,878,783,2720,
58,85,85,85,813,848,848,848,848,848,848,848,848,848,848,848,848,848,848,1104,1104,1105,1104,1105,848,848,848,848,814,814,848,848,848,848,848,814,848,848,815,2720,
48,49,48,49,48,49,48,49,48,49,48,49,48,49,48,49,48,49,48,49,48,49,48,49,48,49,48,49,48,49,48,49,48,49,48,49,48,49,48,49,
58,59,58,59,58,59,58,59,58,59,58,59,58,59,58,59,58,59,58,59,58,59,58,59,58,59,58,59,58,59,58,59,58,59,58,59,58,59,58,59,
68,68,68,69,68,68,68,68,68,68,68,68,68,69,68,68,68,68,68,68,68,68,68,68,69,68,68,68,68,68,68,68,68,69,68,68,68,68,68,69,
68,68,68,68,68,68,68,68,68,68,68,68,68,68,68,68,68,68,68,68,68,68,68,68,68,68,68,68,68,68,68,68,68,68,68,68,68,68,68,68,
68,68,68,68,68,68,68,68,68,68,68,68,68,68,68,68,68,68,68,68,68,68,68,68,68,68,68,68,68,68,68,68,68,68,68,68,68,68,68,68,
68,68,68,68,68,68,68,68,68,68,68,68,68,68,68,68,68,68,68,68,68,68,68,68,68,68,68,68,68,68,68,68,68,68,68,68,68,68,68,68,
68,68,68,68,68,68,68,68,68,68,68,68,68,68,68,68,68,68,68,68,68,68,68,68,68,68,68,68,68,68,68,68,68,68,68,68,68,68,68,68,
68,68,68,68,68,68,68,68,68,68,68,68,68,68,68,68,68,68,68,68,68,68,68,68,68,68,68,68,68,68,68,68,68,68,68,68,68,68,68,68,
68,68,68,68,68,68,68,68,68,68,68,68,68,68,68,68,68,68,68,68,68,68,68,68,68,68,68,68,68,68,68,68,68,68,68,68,68,68,68,68,
68,68,68,68,68,68,68,68,68,68,68,68,68,68,68,68,68,68,68,68,68,68,68,68,68,68,68,68,68,68,68,68,68,68,68,68,68,68,68,68,
68,68,68,68,68,68,68,68,68,68,68,68,68,68,68,68,68,68,68,68,68,68,68,68,68,68,68,68,68,68,68,68,68,68,68,68,68,68,68,68,
48,49,48,49,48,49,48,49,48,49,48,49,48,49,48,49,48,49,48,49,48,49,48,49,48,49,48,49,48,49,48,49,48,49,48,49,48,49,48,49,
58,59,58,59,58,59,58,59,58,59,58,59,58,59,58,59,58,59,58,59,58,59,58,59,58,59,58,59,58,59,58,59,58,59,58,59,58,59,58,59
</data>
 </layer>
 <layer id="2" name="Buildings" width="40" height="38">
  <data encoding="csv">
0,0,0,0,0,0,0,0,0,0,0,0,0,0,0,0,0,0,0,0,0,0,0,0,0,0,0,0,0,0,0,0,0,0,0,0,0,0,0,0,
0,0,0,0,0,0,0,0,0,0,0,0,0,0,0,0,0,0,0,0,0,0,0,0,0,0,0,0,0,0,0,0,0,0,0,0,0,0,0,0,
0,0,0,0,0,0,0,0,0,0,0,0,0,0,0,0,0,0,0,0,0,0,0,0,0,0,0,0,0,0,0,0,0,0,0,0,0,0,0,0,
0,0,0,0,0,0,0,0,0,0,0,0,0,0,0,0,0,0,0,0,0,0,0,0,0,0,0,0,0,0,0,0,0,0,0,0,0,0,0,0,
0,0,0,0,0,0,0,0,0,0,0,0,0,0,0,0,0,0,0,0,0,0,0,0,0,0,0,0,0,0,0,0,0,0,0,0,0,0,0,0,
0,0,0,2445,2446,2447,2445,2446,2447,2448,2449,2450,2448,2449,2450,2445,2446,2447,2448,2449,2450,2448,2449,2450,2445,2446,2447,2445,2446,2447,2448,2449,2450,2445,2446,2447,2445,2446,2447,2448,
0,0,0,2470,2471,2472,2470,2471,2472,2473,2474,2475,2473,2474,2475,2470,2471,2472,2473,2474,2475,2473,2474,2475,2470,2471,2472,2470,2471,2472,2473,2474,2475,2470,2471,2472,2470,2471,2472,2473,
0,0,0,2495,2496,2497,2495,2496,2497,2498,2499,2500,2498,2499,2500,2495,2496,2497,2498,2499,2500,2498,2499,2500,2495,2496,2497,2495,2496,2497,2498,2499,2500,2495,2496,2497,2495,2496,2497,2498,
0,0,0,2520,2521,2522,2520,2521,2522,2523,2524,2525,2523,2524,2525,2520,2521,2522,2523,2524,2525,2523,2524,2525,2520,2521,2522,2520,2521,2522,2523,2524,2525,2520,2521,2522,2520,2521,2522,2523,
0,0,0,0,2546,0,0,2546,0,0,2549,0,2546,2549,0,0,2546,0,0,2549,2546,0,2549,0,0,2546,0,0,2546,0,0,2549,0,0,2546,0,0,2546,0,0,
0,0,0,1070,2571,1070,1070,2571,1070,1070,2574,1070,0,2574,1070,1070,2571,1070,1070,2574,2571,1070,2574,1070,1070,2571,1070,1070,2571,1070,1070,2574,1070,1070,2571,1070,1070,2571,1070,1070,
0,0,0,3,1156,1157,1158,431,436,432,3543,107,108,0,0,0,0,0,0,0,0,0,0,0,0,107,108,0,1027,2154,2155,2156,0,0,2216,2217,2218,1051,1052,1053,
0,0,0,13,149,0,0,463,468,464,4721,117,118,35,36,36,36,36,107,108,36,36,36,36,37,117,118,4721,0,2186,2187,2188,0,0,2248,2249,2250,2251,1084,1085,
0,0,0,23,181,0,0,0,0,0,4689,0,0,45,0,0,0,0,117,118,0,0,0,0,47,0,0,4689,0,0,0,0,0,2284,2280,2281,2282,2283,1116,1117,
0,0,0,33,213,0,0,0,0,0,0,0,0,55,84,0,0,0,0,0,0,0,0,84,57,0,0,0,0,0,0,0,0,2284,2312,2313,2314,2315,0,0,
0,0,0,33,0,0,0,0,0,0,0,0,0,65,66,66,66,66,66,66,66,66,66,66,67,0,0,0,0,0,0,0,0,0,2344,2345,2346,2347,0,0,
0,0,0,33,0,0,0,0,0,4762,4763,0,0,0,0,0,138,0,0,0,0,0,34,14,0,0,0,0,0,0,0,0,0,0,2376,2377,2378,2379,0,0,
0,0,0,33,0,0,0,0,0,0,0,0,0,0,0,0,0,0,0,0,133,0,0,0,0,0,0,0,0,0,0,0,0,0,2408,2409,2410,2411,0,0,
0,0,0,33,149,0,0,0,0,0,0,0,0,0,0,137,136,0,0,0,0,131,0,0,135,0,0,0,0,0,0,0,0,0,2440,2441,2442,2443,0,1026,
0,0,0,33,181,0,0,0,0,0,0,0,0,0,134,0,0,0,0,0,0,0,0,0,0,0,0,0,0,0,0,0,0,0,0,0,0,0,0,0,
0,0,0,33,213,0,0,0,0,0,0,0,0,0,0,0,0,0,0,0,0,0,0,132,0,0,0,0,0,0,0,0,0,0,0,0,0,0,0,1027,
0,0,0,33,181,0,0,0,0,0,0,0,0,0,0,0,0,0,0,0,0,0,0,0,0,0,0,4740,0,0,0,0,0,0,0,0,0,0,0,0,
0,0,0,33,213,0,0,0,0,0,0,0,0,0,0,133,0,0,0,0,0,0,0,0,0,132,0,0,0,0,0,0,0,0,0,0,0,0,0,0,
0,0,0,63,0,0,41,42,0,0,0,0,0,0,0,0,0,0,0,0,0,0,0,0,0,0,0,0,0,0,0,0,0,0,0,0,0,0,0,0,
51,52,52,111,111,111,111,111,111,111,111,111,111,111,111,111,111,111,1144,54,0,0,0,1144,111,111,111,111,111,111,111,111,111,111,111,111,111,111,111,111,
0,0,0,0,0,0,0,0,0,0,0,0,0,0,0,0,0,0,0,0,0,0,0,0,0,0,0,0,0,0,0,0,76,88,89,90,88,89,90,229,
0,0,0,0,0,0,0,0,0,0,0,0,0,0,0,0,0,0,0,0,0,0,0,0,0,4347,4348,4349,0,0,0,0,0,0,0,0,0,0,0,0,
0,0,0,0,0,0,0,0,0,0,0,0,0,0,0,0,0,0,0,0,0,0,0,0,0,4372,4373,4374,0,0,0,0,0,0,0,0,0,0,0,0,
0,0,0,0,0,0,0,0,0,0,0,0,0,0,0,0,0,0,0,0,0,0,0,0,0,0,0,0,0,0,0,0,0,0,0,0,0,0,0,0,
0,0,0,0,0,0,0,0,0,0,0,0,0,0,0,0,0,0,0,0,0,0,0,0,0,0,0,0,0,0,0,0,0,0,0,0,0,0,0,0,
0,0,0,0,0,0,0,0,0,0,0,0,0,0,0,0,0,0,0,0,0,0,0,0,0,0,0,0,0,0,0,0,0,0,0,0,0,0,0,0,
0,0,0,0,0,0,0,0,0,0,0,0,0,0,0,0,0,0,0,0,0,0,0,0,0,0,0,0,0,0,0,0,0,0,0,0,0,0,0,0,
0,0,0,0,0,0,0,0,0,0,0,0,0,0,0,0,0,0,0,0,0,0,0,0,0,0,0,0,0,0,0,0,0,0,0,0,0,0,0,0,
0,0,0,0,0,0,0,0,0,0,0,0,0,0,0,0,0,0,0,0,0,0,0,0,0,0,0,0,0,0,0,0,0,0,0,0,0,0,0,0,
0,0,0,0,0,0,0,0,0,0,0,0,0,0,0,0,0,0,0,0,0,0,0,0,0,0,0,0,0,0,0,0,0,0,0,0,0,0,0,0,
0,0,0,0,0,0,0,0,0,0,0,0,0,0,0,0,0,0,0,0,0,0,0,0,0,0,0,0,0,0,0,0,0,0,0,0,0,0,0,0,
0,0,0,0,0,0,0,0,0,0,0,0,0,0,0,0,0,0,0,0,0,0,0,0,0,0,0,0,0,0,0,0,0,0,0,0,0,0,0,0,
0,0,0,0,0,0,0,0,0,0,0,0,0,0,0,0,0,0,0,0,0,0,0,0,0,0,0,0,0,0,0,0,0,0,0,0,0,0,0,0
</data>
 </layer>
 <layer id="3" name="Front" width="40" height="38">
  <data encoding="csv">
1,1,2,0,0,0,0,0,0,0,0,0,0,0,0,0,0,0,0,0,0,0,0,0,0,0,0,0,0,0,0,0,0,0,0,0,0,0,0,0,
1,11,12,0,0,0,0,0,0,0,0,0,0,0,0,0,0,0,0,0,0,0,0,0,0,0,0,0,0,0,0,0,0,0,0,0,0,0,0,0,
1,21,22,0,0,0,0,0,0,0,0,0,0,0,0,0,0,0,0,0,0,0,0,0,0,0,0,0,0,0,0,0,0,0,0,0,0,0,0,0,
1,1,2,0,0,0,0,0,0,0,0,0,0,0,0,0,0,0,0,0,0,0,0,0,0,0,0,0,0,0,0,0,0,0,0,0,0,0,0,0,
1,11,12,0,0,0,0,0,0,0,0,0,0,0,0,0,0,0,0,0,0,0,0,0,0,0,0,0,0,0,0,0,0,0,0,0,0,0,0,0,
1,21,22,0,0,0,0,0,0,0,0,0,0,0,0,0,0,0,0,0,0,0,0,0,0,0,0,0,0,0,0,0,0,0,0,0,0,0,0,0,
1,1,2,0,0,0,0,0,0,0,0,0,0,0,0,0,0,0,0,0,0,0,0,0,0,0,0,0,0,0,0,0,0,0,0,0,0,0,0,0,
1,11,12,0,0,0,0,0,0,0,0,0,0,0,0,0,0,0,0,0,0,0,0,0,0,0,0,0,0,0,0,0,0,0,0,0,0,0,0,0,
1,21,22,0,0,0,0,0,0,0,0,0,0,0,0,0,0,0,0,0,0,0,0,0,0,0,0,0,0,0,0,0,0,0,0,0,0,0,0,0,
1,1,2,1009,1009,1009,1009,1009,1009,1009,1009,1009,1009,1009,1009,1009,1009,1009,1009,1009,1009,1009,1009,1009,1009,1009,1009,1009,1009,1009,1009,1009,1009,1009,1009,1009,1009,1009,1009,1009,
1,11,12,0,1070,0,0,1070,0,0,1070,0,1070,15,16,16,16,16,16,16,16,16,16,16,17,1070,0,0,1070,0,0,1070,0,0,1070,0,0,1070,0,0,
1,21,22,0,0,0,0,0,0,0,0,0,0,25,26,26,26,26,26,26,26,26,26,26,27,0,0,0,0,0,0,0,0,0,0,0,0,0,0,0,
1,1,2,0,0,0,0,0,0,0,0,0,0,0,0,61,62,0,0,0,0,0,0,0,0,0,0,0,0,0,0,0,0,2252,0,0,0,0,0,0,
1,11,12,0,0,0,0,0,0,0,0,0,0,0,0,71,72,0,0,0,0,109,110,0,0,0,0,0,0,0,0,0,0,2252,0,0,0,0,2458,2459,
1,21,22,0,0,0,0,0,0,0,0,0,0,0,0,0,0,0,0,0,0,119,120,0,0,0,0,0,0,0,0,0,0,0,0,0,0,0,2483,2484,
1,1,2,0,0,0,0,0,0,4730,0,0,0,0,0,0,128,0,0,0,0,0,24,4,0,0,0,0,0,0,0,0,0,0,0,0,0,0,2508,2509,
1,11,12,0,0,0,0,0,0,0,0,0,0,0,0,0,0,0,0,0,123,0,0,0,0,0,0,0,0,0,0,0,0,0,0,0,0,0,0,0,
1,21,22,0,0,0,0,0,0,0,0,0,0,0,0,127,126,0,0,0,0,121,0,0,125,0,0,0,0,0,0,0,0,0,0,0,0,0,0,0,
1,1,2,0,0,0,0,0,0,0,0,0,0,0,124,0,0,0,0,0,0,0,0,0,0,0,0,0,0,0,0,0,0,0,0,0,0,0,0,0,
1,11,12,0,0,0,0,0,0,0,0,0,0,0,0,0,0,0,0,0,0,0,0,122,0,0,0,0,0,0,0,0,0,0,0,0,0,0,0,0,
1,21,22,0,149,0,0,0,0,0,0,0,0,0,0,0,0,0,0,0,0,0,0,0,0,0,0,4708,0,0,0,0,0,0,0,0,0,0,0,0,
1,31,32,43,0,0,0,0,0,0,0,0,0,0,0,121,0,0,1049,0,0,0,0,1049,0,127,0,0,0,0,0,0,0,0,0,0,0,0,0,0,
1,1,2,53,91,91,91,91,91,91,91,91,91,91,91,91,93,91,1080,0,0,0,0,1080,95,96,91,91,91,91,91,91,91,91,91,91,91,91,91,91,
41,41,42,91,101,101,101,101,101,101,101,101,101,101,101,102,103,104,1112,44,0,0,0,1112,105,106,101,101,101,101,101,101,101,101,101,101,101,101,101,101,
0,60,0,0,0,0,0,0,0,0,0,0,0,0,0,112,113,114,0,0,0,0,0,0,115,116,0,0,0,0,0,0,0,78,79,80,78,79,80,197,
0,70,0,0,0,0,0,0,0,0,0,0,0,0,0,0,0,0,0,0,0,0,0,0,0,0,0,0,0,0,0,0,0,0,0,0,0,0,0,0,
0,0,0,0,0,0,0,0,0,0,0,0,0,0,0,0,0,0,0,0,0,0,0,0,0,0,0,0,0,0,0,0,0,0,0,0,0,0,0,0,
0,0,0,0,0,0,0,0,0,0,0,0,0,0,0,0,0,0,0,0,0,0,0,0,0,0,0,0,0,0,0,0,0,0,0,0,0,0,0,0,
0,0,0,0,0,0,0,0,0,0,0,0,0,0,0,0,0,0,0,0,0,0,0,0,0,0,0,0,0,0,0,0,0,0,0,0,0,0,0,0,
0,0,0,0,0,0,0,0,0,0,0,0,0,0,0,0,0,0,0,0,0,0,0,0,0,0,0,0,0,0,0,0,0,0,0,0,0,0,0,0,
0,0,0,0,0,0,0,0,0,0,0,0,0,0,0,0,0,0,0,0,0,0,0,0,0,0,0,0,0,0,0,0,0,0,0,0,0,0,0,0,
0,0,0,0,0,0,0,0,0,0,0,0,0,0,0,0,0,0,0,0,0,0,0,0,0,0,0,0,0,0,0,0,0,0,0,0,0,0,0,0,
0,0,0,0,0,0,0,0,0,0,0,0,0,0,0,0,0,0,0,0,0,0,0,0,0,0,0,0,0,0,0,0,0,0,0,0,0,0,0,0,
0,0,0,0,0,0,0,0,0,0,0,0,0,0,0,0,0,0,0,0,0,0,0,0,0,0,0,0,0,0,0,0,0,0,0,0,0,0,0,0,
0,0,0,0,0,0,0,0,0,0,0,0,0,0,0,0,0,0,0,0,0,0,0,0,0,0,0,0,0,0,0,0,0,0,0,0,0,0,0,0,
0,0,0,0,0,0,0,0,0,0,0,0,0,0,0,0,0,0,0,0,0,0,0,0,0,0,0,0,0,0,0,0,0,0,0,0,0,0,0,0,
0,0,0,0,0,0,0,0,0,0,0,0,0,0,0,0,0,0,0,0,0,0,0,0,0,0,0,0,0,0,0,0,0,0,0,0,0,0,0,0,
0,0,0,0,0,0,0,0,0,0,0,0,0,0,0,0,0,0,0,0,0,0,0,0,0,0,0,0,0,0,0,0,0,0,0,0,0,0,0,0
</data>
 </layer>
 <layer id="9" name="Paths" width="40" height="38" visible="0">
  <data encoding="csv">
0,0,0,0,0,0,0,0,0,0,0,0,0,0,0,0,0,0,0,0,0,0,0,0,0,0,0,0,0,0,0,0,0,0,0,0,0,0,0,0,
0,0,0,0,0,0,0,0,0,0,0,0,0,0,0,0,0,0,0,0,0,0,0,0,0,0,0,0,0,0,0,0,0,0,0,0,0,0,0,0,
0,0,0,0,0,0,0,0,0,0,0,0,0,0,0,0,0,0,0,0,0,0,0,0,0,0,0,0,0,0,0,0,0,0,0,0,0,0,0,0,
0,0,0,0,0,0,0,0,0,0,0,0,0,0,0,0,0,0,0,0,0,0,0,0,0,0,0,0,0,0,0,0,0,0,0,0,0,0,0,0,
0,0,0,0,0,0,0,0,0,0,0,0,0,0,0,0,0,0,0,0,0,0,0,0,0,0,0,0,0,0,0,0,0,0,0,0,0,0,0,0,
0,0,0,0,0,0,0,0,0,0,0,0,0,0,0,0,0,0,0,0,0,0,0,0,0,0,0,0,0,0,0,0,0,0,0,0,0,0,0,0,
0,0,0,0,0,0,0,0,0,0,0,0,0,0,0,0,0,0,0,0,0,0,0,0,0,0,0,0,0,0,0,0,0,0,0,0,0,0,0,0,
0,0,0,0,0,0,0,0,0,0,0,0,0,0,0,0,0,0,0,0,0,0,0,0,0,0,0,0,0,0,0,0,0,0,0,0,0,0,0,0,
0,0,0,0,0,0,0,0,0,0,0,0,0,0,0,0,0,0,0,0,0,0,0,0,0,0,0,0,0,0,0,0,0,0,0,0,0,0,0,0,
0,0,0,0,0,0,0,0,0,0,0,0,0,0,0,0,0,0,0,0,0,0,0,0,0,0,0,0,0,0,0,0,0,0,0,0,0,0,0,0,
0,0,0,0,0,0,0,0,0,0,0,0,0,0,0,0,0,0,0,0,0,0,0,0,0,0,0,0,0,0,0,0,0,0,0,0,0,0,0,0,
0,0,0,0,0,0,0,0,0,0,0,0,0,4428,0,4428,4428,0,4428,4428,0,4428,4428,0,4428,0,0,0,0,0,0,0,0,0,0,0,0,0,0,0,
0,0,0,0,0,0,0,0,0,0,0,0,0,0,0,0,0,0,0,0,0,0,0,0,0,0,0,0,0,0,0,0,0,0,0,0,0,0,0,0,
0,0,0,0,0,0,0,0,0,0,0,0,0,0,0,0,0,0,0,0,0,0,0,0,0,0,0,0,0,0,0,0,0,0,0,0,0,0,0,0,
0,0,0,0,0,0,0,0,0,0,0,0,0,0,0,0,0,0,0,0,0,0,0,0,0,0,0,0,0,0,0,0,0,0,0,0,0,0,0,0,
0,0,0,0,0,0,0,0,0,0,0,0,0,0,0,0,0,0,0,0,0,0,0,0,0,0,0,0,0,0,0,0,0,0,0,0,0,0,0,0,
0,0,0,0,0,0,0,0,0,0,0,0,0,0,0,0,0,0,0,0,0,0,0,0,0,0,0,0,0,0,0,0,0,0,0,0,0,0,0,0,
0,0,0,0,0,0,0,0,0,0,0,0,0,0,0,0,0,0,0,0,0,0,0,0,0,0,0,0,0,0,0,0,0,0,0,0,0,0,0,0,
0,0,0,0,0,0,0,0,0,0,0,0,0,0,0,0,0,0,0,0,0,0,0,0,0,0,0,0,0,0,0,0,0,0,0,0,0,0,0,0,
0,0,0,0,0,0,0,0,0,0,0,0,0,0,0,0,0,0,0,0,0,0,0,0,0,0,0,0,0,0,0,0,0,0,0,0,0,0,0,0,
0,0,0,0,0,0,0,0,0,0,0,0,0,0,0,0,0,0,0,0,0,0,0,0,0,0,0,0,0,0,0,0,0,0,0,0,0,0,0,0,
0,0,0,0,0,0,0,0,0,0,0,0,0,0,0,0,0,0,4428,0,0,0,0,4428,0,0,0,0,0,0,0,0,0,0,0,0,0,0,0,0,
0,0,0,0,0,0,0,0,0,0,0,0,0,0,0,0,0,0,0,0,0,0,0,0,0,0,0,0,0,0,0,0,0,0,0,0,0,0,0,0,
0,0,0,0,0,0,0,0,0,0,0,0,0,0,0,0,0,0,0,0,0,0,0,0,0,0,0,0,0,0,0,0,0,0,0,0,0,0,0,0,
0,0,0,0,0,0,0,0,0,0,0,0,0,0,0,0,0,0,0,0,0,0,0,0,0,0,0,0,0,0,0,0,0,0,0,0,0,0,0,0,
0,0,0,0,0,0,0,0,0,0,0,0,0,0,0,0,0,0,0,0,0,0,0,0,0,0,0,0,0,0,0,0,0,0,0,0,0,0,0,0,
0,0,0,0,0,0,0,0,0,0,0,0,0,0,0,0,0,0,0,0,0,0,0,0,0,0,0,0,0,0,0,0,0,0,0,0,0,0,0,0,
0,0,0,0,0,0,0,0,0,0,0,0,0,0,0,0,0,0,0,0,0,0,0,0,0,0,0,0,0,0,0,0,0,0,0,0,0,0,0,0,
0,0,0,0,0,0,0,0,0,0,0,0,0,0,0,0,0,0,0,0,0,0,0,0,0,0,0,0,0,0,0,0,0,0,0,0,0,0,0,0,
0,0,0,0,0,0,0,0,0,0,0,0,0,0,0,0,0,0,0,0,0,0,0,0,0,0,0,0,0,0,0,0,0,0,0,0,0,0,0,0,
0,0,0,0,0,0,0,0,0,0,0,0,0,0,0,0,0,0,0,0,0,0,0,0,0,0,0,0,0,0,0,0,0,0,0,0,0,0,0,0,
0,0,0,0,0,0,0,0,0,0,0,0,0,0,0,0,0,0,0,0,0,0,0,0,0,0,0,0,0,0,0,0,0,0,0,0,0,0,0,0,
0,0,0,0,0,0,0,0,0,0,0,0,0,0,0,0,0,0,0,0,0,0,0,0,0,0,0,0,0,0,0,0,0,0,0,0,0,0,0,0,
0,0,0,0,0,0,0,0,0,0,0,0,0,0,0,0,0,0,0,0,0,0,0,0,0,0,0,0,0,0,0,0,0,0,0,0,0,0,0,0,
0,0,0,0,0,0,0,0,0,0,0,0,0,0,0,0,0,0,0,0,0,0,0,0,0,0,0,0,0,0,0,0,0,0,0,0,0,0,0,0,
0,0,0,0,0,0,0,0,0,0,0,0,0,0,0,0,0,0,0,0,0,0,0,0,0,0,0,0,0,0,0,0,0,0,0,0,0,0,0,0,
0,0,0,0,0,0,0,0,0,0,0,0,0,0,0,0,0,0,0,0,0,0,0,0,0,0,0,0,0,0,0,0,0,0,0,0,0,0,0,0,
0,0,0,0,0,0,0,0,0,0,0,0,0,0,0,0,0,0,0,0,0,0,0,0,0,0,0,0,0,0,0,0,0,0,0,0,0,0,0,0
</data>
 </layer>
 <layer id="7" name="AlwaysFront" width="40" height="38">
  <data encoding="csv">
0,0,0,0,0,0,0,0,0,0,0,0,0,0,0,0,0,0,0,0,0,0,0,0,0,0,0,0,0,0,0,0,0,0,0,0,0,0,0,0,
0,0,0,0,0,0,0,0,0,0,0,0,0,0,0,0,0,0,0,0,0,0,0,0,0,0,0,0,0,0,0,0,0,0,0,0,0,0,0,0,
0,0,0,0,0,0,0,0,0,0,0,0,0,0,0,0,0,0,0,0,0,0,0,0,0,0,0,0,0,0,0,0,0,0,0,0,0,0,0,0,
0,0,0,0,0,0,0,0,0,0,0,0,0,0,0,0,0,0,0,0,0,0,0,0,0,0,0,0,0,0,0,0,0,0,0,0,0,0,0,0,
0,0,0,0,0,0,0,0,0,0,0,0,0,0,0,0,0,0,0,0,0,0,0,0,0,0,0,0,0,0,0,0,0,0,0,0,0,0,0,0,
0,0,0,0,0,0,0,0,0,0,0,0,0,0,0,0,0,0,0,0,0,0,0,0,0,0,0,0,0,0,0,0,0,0,0,0,0,0,0,0,
0,0,0,0,0,0,0,0,0,0,0,0,0,0,0,0,0,0,0,0,0,0,0,0,0,0,0,0,0,0,0,0,0,0,0,0,0,0,0,0,
0,0,0,0,0,0,0,0,0,0,0,0,0,0,0,0,0,0,0,0,0,0,0,0,0,0,0,0,0,0,0,0,0,0,0,0,0,923,924,925,
0,0,0,0,0,0,0,0,0,0,0,0,0,0,0,0,0,0,0,0,0,0,0,0,0,0,0,0,0,0,0,0,0,0,0,0,0,955,956,957,
0,0,0,0,1092,1093,1094,0,0,0,0,0,0,5,6,6,6,6,6,6,6,6,6,6,7,0,0,0,0,0,0,0,0,0,0,0,0,987,988,989,
0,0,0,0,1124,1125,1126,0,0,0,0,0,0,0,0,0,0,0,0,0,0,0,0,0,0,0,0,0,0,0,0,0,0,0,0,0,0,1019,1020,1021,
0,0,0,0,0,0,0,0,0,0,0,0,0,0,0,0,0,0,0,0,0,0,0,0,0,0,0,0,0,0,0,0,0,0,0,0,0,0,0,0,
0,0,0,0,0,0,0,0,0,0,0,0,0,0,0,0,0,0,0,0,0,0,0,0,0,0,0,0,0,0,0,0,0,0,0,0,0,0,0,0,
0,0,0,0,0,0,0,0,0,0,0,0,0,0,0,0,0,0,0,0,0,0,0,0,0,0,0,0,0,0,0,0,0,0,0,0,0,0,0,0,
0,0,0,0,0,0,0,0,0,0,0,0,0,0,0,0,0,0,0,0,0,0,0,0,0,0,0,0,0,0,0,0,0,0,0,0,0,0,0,0,
0,0,0,0,0,0,0,0,0,0,0,0,0,0,0,0,0,0,0,0,0,0,0,0,0,0,0,0,0,0,0,0,0,0,0,0,0,0,0,0,
0,0,0,0,0,0,0,0,0,0,0,0,0,0,0,0,0,0,0,0,0,0,0,0,0,0,0,0,0,0,0,0,0,0,0,0,0,0,0,0,
0,0,0,0,0,0,0,0,0,0,0,0,0,0,0,0,0,0,0,0,0,0,0,0,0,0,0,0,0,0,0,0,0,0,0,0,0,0,0,0,
0,0,0,0,0,0,0,0,0,0,0,0,0,0,0,0,0,0,0,0,0,0,0,0,0,0,0,0,0,0,0,0,0,0,0,0,0,0,0,0,
0,0,0,0,0,0,0,0,0,0,0,0,0,0,0,0,0,0,0,0,0,0,0,0,0,0,0,0,0,0,0,0,0,0,0,0,0,0,0,0,
0,0,0,0,0,0,0,0,0,0,0,0,0,0,0,0,0,0,0,0,0,0,0,0,0,0,0,0,0,0,0,0,0,0,0,0,0,0,0,0,
0,0,0,0,0,0,0,0,0,0,0,0,0,0,0,0,0,0,0,0,0,0,0,0,0,0,0,0,0,0,0,0,0,0,0,0,0,0,0,0,
0,0,0,0,0,0,0,0,0,0,0,0,0,0,0,0,0,0,0,0,0,0,0,0,0,0,0,0,0,0,0,0,0,0,0,0,0,0,0,0,
0,0,0,0,0,0,0,0,0,0,0,0,0,0,0,0,0,0,0,0,0,0,0,0,0,0,0,0,0,0,0,0,0,0,0,0,0,0,0,0,
0,0,0,0,0,0,0,0,0,0,0,0,0,0,0,0,0,0,0,0,0,0,0,0,0,0,0,0,0,0,0,0,0,0,0,0,0,0,0,0,
0,0,0,0,0,0,0,0,0,0,0,0,0,0,0,0,0,0,0,0,0,0,0,0,0,0,0,0,0,0,0,0,0,0,0,0,0,0,0,0,
0,0,0,0,0,0,0,0,0,0,0,0,0,0,0,0,0,0,0,0,0,0,0,0,0,0,0,0,0,0,0,0,0,0,0,0,0,0,0,0,
0,0,0,0,0,0,0,0,0,0,0,0,0,0,0,0,0,0,0,0,0,0,0,0,0,0,0,0,0,0,0,0,0,0,0,0,0,0,0,0,
0,0,0,0,0,0,0,0,0,0,0,0,0,0,0,0,0,0,0,0,0,0,0,0,0,0,0,0,0,0,0,0,0,0,0,0,0,0,0,0,
0,0,0,0,0,0,0,0,0,0,0,0,0,0,0,0,0,0,0,0,0,0,0,0,0,0,0,0,0,0,0,0,0,0,0,0,0,0,0,0,
0,0,0,0,0,0,0,0,0,0,0,0,0,0,0,0,0,0,0,0,0,0,0,0,0,0,0,0,0,0,0,0,0,0,0,0,0,0,0,0,
0,0,0,0,0,0,0,0,0,0,0,0,0,0,0,0,0,0,0,0,0,0,0,0,0,0,0,0,0,0,0,0,0,0,0,0,0,0,0,0,
0,0,0,0,0,0,0,0,0,0,0,0,0,0,0,0,0,0,0,0,0,0,0,0,0,0,0,0,0,0,0,0,0,0,0,0,0,0,0,0,
0,0,0,0,0,0,0,0,0,0,0,0,0,0,0,0,0,0,0,0,0,0,0,0,0,0,0,0,0,0,0,0,0,0,0,0,0,0,0,0,
0,0,0,0,0,0,0,0,0,0,0,0,0,0,0,0,0,0,0,0,0,0,0,0,0,0,0,0,0,0,0,0,0,0,0,0,0,0,0,0,
0,0,0,0,0,0,0,0,0,0,0,0,0,0,0,0,0,0,0,0,0,0,0,0,0,0,0,0,0,0,0,0,0,0,0,0,0,0,0,0,
0,0,0,0,0,0,0,0,0,0,0,0,0,0,0,0,0,0,0,0,0,0,0,0,0,0,0,0,0,0,0,0,0,0,0,0,0,0,0,0,
0,0,0,0,0,0,0,0,0,0,0,0,0,0,0,0,0,0,0,0,0,0,0,0,0,0,0,0,0,0,0,0,0,0,0,0,0,0,0,0
</data>
 </layer>
 <objectgroup id="4" name="Back"/>
 <objectgroup id="5" name="Buildings"/>
 <objectgroup id="6" name="Front"/>
 <objectgroup id="8" name="Paths"/>
</map>
