<?xml version="1.0" encoding="UTF-8"?>
<map version="1.10" tiledversion="1.12.1" orientation="orthogonal" renderorder="right-down" width="40" height="29" tilewidth="16" tileheight="16" infinite="0" nextlayerid="10" nextobjectid="34">
 <properties>
  <property name="AmbientLight" value="60 60 60"/>
  <property name="AmbientNightLight" value="140 140 140"/>
  <property name="DayTiles" value="Front 32 24 1479 AlwaysFront 32 23 1447  Front 5 21 676 Front 5 20 660 Front 36 4 120 Front 13 3 62 Front 18 19 1344 Front 21 19 1344 Front 2 12 1344 Front 9 12 1344 Front 16 12 1344 Front 23 12 1344 Front 31 12 1344 Front 37 12 1344"/>
  <property name="Doors" value="4 13 townInterior 120 13 13 townInterior 120 26 13 townInterior 120 35 13 townInterior 120 4 20 townInterior 120 35 20 townInterior 120 19 20 townInterior 824 20 20 townInterior 825"/>
  <property name="Light" value="2 12 2 9 12 2 16 12 2 23 12 2 31 12 2 37 12 2 13 4 4 36 4 4 32 24 2 5 21 4"/>
  <property name="NightTiles" value="Front 32 24 1480 AlwaysFront 32 23 1448 Front 5 21 677 Front 5 20 661 Front 36 4 121 Front 13 3 63 Front 18 19 1345 Front 21 19 1345 Front 2 12 1345 Front 9 12 1345 Front 16 12 1345 Front 23 12 1345 Front 31 12 1345 Front 37 12 1345"/>
 </properties>
 <tileset firstgid="1" name="paths" tilewidth="16" tileheight="16" tilecount="64" columns="4">
  <image source="paths.png" width="64" height="256"/>
 </tileset>
 <tileset firstgid="65" name="townInterior" tilewidth="16" tileheight="16" tilecount="2176" columns="32">
  <image source="townInterior.png" width="512" height="1088"/>
 </tileset>
 <tileset firstgid="2241" name="townInterior_2" tilewidth="16" tileheight="16" tilecount="1312" columns="32">
  <image source="townInterior_2.png" width="512" height="656"/>
 </tileset>
 <tileset firstgid="3553" name="SeasideInterior" tilewidth="16" tileheight="16" tilecount="896" columns="32">
  <image source="SeasideInterior.png" width="512" height="448"/>
 </tileset>
 <tileset firstgid="4449" name="z_OWFurniture" tilewidth="16" tileheight="16" tilecount="800" columns="16">
  <image source="z_OWFurniture.png" width="256" height="800"/>
 </tileset>
 <tileset firstgid="5249" name="z_RattanFurniture" tilewidth="16" tileheight="16" tilecount="1100" columns="44">
  <image source="z_RattanFurniture.png" width="704" height="400"/>
 </tileset>
 <tileset firstgid="6349" name="walls_and_floors" tilewidth="16" tileheight="16" tilecount="688" columns="16">
  <image source="walls_and_floors.png" width="256" height="688"/>
 </tileset>
 <tileset firstgid="7037" name="z_VFSwan" tilewidth="16" tileheight="16" tilecount="560" columns="16">
  <image source="z_VFSwan.png" width="256" height="560"/>
 </tileset>
 <tileset firstgid="7597" name="WitchyInterior" tilewidth="16" tileheight="16" tilecount="300" columns="12">
  <image source="WitchyInterior.png" width="192" height="400"/>
 </tileset>
 <tileset firstgid="7897" name="WitchyFurniture" tilewidth="16" tileheight="16" tilecount="2048" columns="32">
  <image source="WitchyFurniture.png" width="512" height="1024"/>
 </tileset>
 <layer id="3" name="Paths" width="40" height="29">
  <data encoding="csv">
0,0,0,0,0,0,0,0,0,0,0,0,0,0,0,0,0,0,0,0,0,0,0,0,0,0,0,0,0,0,0,0,0,0,0,0,0,0,0,0,
0,0,0,0,0,0,0,0,0,0,0,0,0,0,0,0,0,0,0,0,0,0,0,0,0,0,0,0,0,0,0,0,0,0,0,0,0,0,0,0,
0,0,0,0,0,0,0,0,0,0,0,0,0,0,0,0,0,0,0,0,0,0,0,0,0,0,0,0,0,0,0,0,0,0,0,0,0,0,0,0,
0,0,0,0,0,0,0,0,0,0,0,0,0,0,0,0,0,0,0,0,0,0,0,0,0,0,0,0,0,0,0,0,0,0,0,0,0,0,0,0,
0,0,0,0,0,0,0,0,0,0,0,0,0,0,0,0,0,0,0,0,0,0,0,0,0,0,0,0,0,0,0,0,0,0,0,0,0,0,0,0,
0,0,0,0,0,0,0,0,0,0,0,0,0,0,0,0,0,0,0,0,0,0,0,0,0,0,0,0,0,0,0,0,0,0,0,0,0,0,0,0,
0,0,0,0,0,0,0,0,0,0,0,0,0,0,0,0,0,0,0,0,0,0,0,0,0,0,0,0,0,0,0,0,0,0,0,0,0,0,0,0,
0,0,0,0,0,0,0,0,0,0,0,0,0,0,0,0,0,0,0,0,0,0,0,0,0,0,0,0,0,0,0,0,0,0,0,0,0,0,0,0,
0,0,0,0,0,0,0,0,0,0,0,0,0,0,0,0,0,0,0,0,0,0,0,0,0,0,0,0,0,0,0,0,0,0,0,0,0,0,0,0,
0,0,0,0,0,0,0,0,0,0,0,0,0,0,0,0,0,0,0,0,0,0,0,0,0,0,0,0,0,0,0,0,0,0,0,0,0,0,0,0,
0,0,0,0,0,0,0,0,0,0,0,0,0,0,0,0,0,0,0,0,0,0,0,0,0,0,0,0,0,0,0,0,0,0,0,0,0,0,0,0,
0,0,0,0,0,0,0,0,0,0,0,0,0,0,0,0,0,0,0,0,0,0,0,0,0,0,0,0,0,0,0,0,0,0,0,0,0,0,0,0,
0,0,0,0,0,0,0,0,0,0,0,0,0,0,0,0,0,0,0,0,0,0,0,0,0,0,0,0,0,0,0,0,0,0,0,0,0,0,0,0,
0,0,0,0,0,0,0,0,0,0,0,0,0,0,0,0,0,0,0,0,0,0,0,0,0,0,0,0,0,0,0,0,0,0,0,0,0,0,0,0,
0,0,0,0,0,0,0,0,0,0,0,0,0,0,0,0,0,0,0,0,0,0,0,0,0,0,0,0,0,0,0,0,0,0,0,0,0,0,0,0,
0,0,0,0,0,0,0,0,0,0,0,0,0,0,0,0,0,0,0,0,0,0,0,0,0,0,0,0,0,0,0,0,0,0,0,0,0,0,0,0,
0,0,0,0,0,0,0,0,0,0,0,0,0,0,0,0,0,0,0,0,0,0,0,0,0,0,0,0,0,0,0,0,0,0,0,0,0,0,0,0,
0,0,0,0,0,0,0,0,0,0,0,0,0,0,0,0,0,0,0,0,0,0,0,0,0,0,0,0,0,0,0,0,0,0,0,0,0,0,0,0,
0,0,0,0,0,0,0,0,0,0,0,0,0,0,0,0,0,0,0,0,0,0,0,0,0,0,0,0,0,0,0,0,0,0,0,0,0,0,0,0,
0,0,0,0,0,0,0,0,0,0,0,0,0,0,0,0,0,0,0,0,0,0,0,0,0,0,0,0,0,0,0,0,0,0,0,0,0,0,0,0,
0,0,0,0,0,0,0,0,0,0,0,0,0,0,0,0,0,0,9,0,0,9,0,0,0,0,0,0,0,0,0,0,0,0,0,0,0,0,0,0,
0,0,0,0,0,0,0,0,0,0,0,0,0,0,0,0,0,0,0,0,0,0,0,0,0,0,0,0,0,0,0,0,0,0,0,0,0,0,0,0,
0,0,0,0,0,0,0,0,0,0,0,0,0,0,0,0,0,0,0,0,0,0,0,0,0,0,0,0,0,0,0,0,0,0,0,0,0,0,0,0,
0,0,0,0,0,0,0,0,0,0,0,0,0,0,0,0,0,0,0,0,0,0,0,0,0,0,0,0,0,0,0,0,0,0,0,0,0,0,0,0,
0,0,0,0,0,0,0,0,0,0,0,0,0,0,0,0,0,0,0,0,0,0,0,0,0,0,0,0,0,0,0,0,0,0,0,0,0,0,0,0,
0,0,0,0,0,0,0,0,0,0,0,0,0,0,0,0,0,0,0,0,0,0,0,0,0,0,0,0,0,0,0,0,0,0,0,0,0,0,0,0,
0,0,0,0,0,0,0,0,0,0,0,0,0,0,0,0,0,0,0,0,0,0,0,0,0,0,0,0,0,0,0,0,0,0,0,0,0,0,0,0,
0,0,0,0,0,0,0,0,0,0,0,0,0,0,0,0,0,0,0,0,0,0,0,0,0,0,0,0,0,0,0,0,0,0,0,0,0,0,0,0,
0,0,0,0,0,0,0,0,0,0,0,0,0,0,0,0,0,0,0,0,0,0,0,0,0,0,0,0,0,0,0,0,0,0,0,0,0,0,0,0
</data>
 </layer>
 <layer id="4" name="Back" width="40" height="29">
  <data encoding="csv">
0,704,704,704,703,704,703,704,704,704,703,704,703,704,704,704,672,671,672,672,672,671,672,671,704,704,703,704,703,704,704,704,703,704,703,704,704,704,703,0,
0,3309,3309,3309,3309,3309,3309,3309,369,0,6545,6545,6545,6545,6545,6545,6545,0,0,0,0,0,3341,3341,3341,3341,3341,3341,3341,3341,671,672,6597,6597,6597,6597,6597,6597,6597,3341,
0,3341,3341,3341,3341,3341,3341,3341,369,0,6561,6561,6561,6561,6561,6561,6561,335,0,1140,1140,671,3341,3341,3341,3341,3341,3341,3341,3341,703,704,6613,6613,6613,6613,6613,6613,6613,3341,
0,3341,3341,3341,3341,3341,3341,3341,369,0,6577,6577,6577,6577,6577,6577,6577,333,0,1108,1108,2179,704,3341,3341,3341,3341,3341,3341,3341,671,672,6629,6629,6629,6629,6629,6629,6629,3341,
0,672,672,672,671,672,671,672,672,0,671,672,6577,6577,6577,6534,6534,704,0,704,704,671,672,671,672,672,671,672,703,704,704,704,6486,6629,6629,6629,6629,6486,6486,0,
0,704,704,704,703,704,703,704,704,704,6823,6824,6823,6824,6823,6824,6823,6824,0,672,671,671,672,671,704,704,703,704,671,672,671,672,6973,6974,6973,6974,6973,6974,6973,6974,
0,672,671,672,671,672,671,672,671,672,6839,6840,6839,6840,6839,6840,6839,6840,0,704,703,703,704,703,671,672,704,703,703,704,703,704,6989,6990,6989,6990,6989,6990,6989,6990,
0,704,703,704,2179,704,703,704,703,704,6823,6824,6823,6824,6823,6824,6823,6824,0,672,671,671,672,671,703,704,672,671,671,672,671,672,6973,6974,6973,6974,6973,6974,6973,6974,
0,672,671,672,671,672,671,672,671,672,6839,6840,6839,6840,6839,6840,6839,6840,0,704,703,703,704,703,671,672,672,672,671,672,671,672,6989,6990,6989,6990,6989,6990,6989,6990,
0,672,672,672,671,672,671,672,672,672,6823,6824,6823,6824,6823,6823,6824,671,0,704,704,671,672,671,672,672,671,672,671,672,672,672,6973,6974,6973,6974,6973,6974,6973,6974,
0,0,704,704,703,704,703,704,0,0,6839,6840,6839,6840,6839,6839,6840,703,0,672,671,0,704,703,704,704,671,672,703,704,704,704,6989,6990,6989,6973,6989,6990,6989,6990,
0,672,671,672,671,672,671,672,3309,0,671,672,671,6823,671,672,672,671,0,704,703,0,672,671,671,672,671,671,672,672,671,672,0,0,0,6974,0,0,0,0,
0,3309,3309,3309,2179,3309,3309,3309,3309,3309,3309,3309,3309,6823,3309,3309,3309,3309,3309,704,704,3309,3309,3309,3309,3309,703,3309,3309,3309,3309,3309,3309,3309,3309,6973,3309,3309,3309,0,
0,3341,3341,3341,671,3341,3341,3341,3341,3341,3341,3341,3341,6839,3341,3341,3341,3341,3341,672,671,3341,3341,3341,3341,3341,671,3341,3341,3341,3341,3341,3341,3341,3341,6974,3341,3341,3341,0,
0,3373,3373,3373,671,3373,3373,3373,0,0,3373,3373,3373,704,3373,3373,3373,671,0,704,703,0,3373,3373,3373,3373,671,3373,3373,3373,3373,3373,3373,3373,3373,672,3373,3373,3373,0,
0,704,704,704,703,704,703,704,704,704,703,704,703,704,704,704,704,703,704,704,704,703,704,703,704,704,703,704,671,672,704,704,703,704,703,704,704,704,703,0,
0,672,671,672,671,672,671,672,671,672,671,672,671,672,671,672,672,671,672,671,672,671,672,671,671,672,671,672,671,672,671,672,671,672,671,672,671,672,671,0,
0,704,703,704,2179,704,703,704,703,704,2179,704,703,704,703,704,704,703,704,703,704,2179,704,703,703,704,2179,704,703,704,703,672,2179,704,703,704,703,704,2179,0,
0,672,671,672,671,672,671,672,671,672,671,672,671,672,671,672,672,671,672,671,672,671,672,671,671,672,671,672,671,672,671,704,671,672,671,672,671,672,671,0,
0,6504,6504,6504,671,6504,6504,6504,672,672,3309,3309,3309,3309,3309,3309,3309,3309,3309,672,672,3309,3309,3309,3309,3309,3309,3309,3309,3309,671,672,6459,6459,6459,672,6459,6459,6459,0,
0,6520,6520,6520,6813,6520,6520,6520,704,704,3341,3341,3341,3341,3341,3341,3341,3341,3341,704,704,3341,3341,3341,3341,3341,3341,3341,3341,3341,703,704,6475,6475,6475,6923,6475,6475,6475,0,
0,6536,6536,6536,6829,6536,6536,6536,671,672,3290,3290,3290,672,3290,3290,3290,672,0,703,703,0,671,2661,2661,2661,671,2661,2661,2661,671,671,6491,6491,6491,6939,6491,6491,6491,0,
0,6813,6814,6813,6814,6813,6814,6813,6814,704,2179,704,703,704,703,704,703,704,703,704,703,703,703,704,703,704,2179,704,703,703,2179,703,6923,6924,6923,6924,6923,6924,6923,6924,
0,6829,6830,6829,6830,6829,6830,6829,6830,672,671,672,671,672,671,672,671,672,671,672,671,671,671,672,671,672,671,672,671,671,671,671,6939,6940,6939,6940,6939,6940,6939,6940,
0,6813,6814,6813,6814,6813,6814,6813,6814,672,671,672,671,672,672,672,672,672,671,672,672,672,672,672,672,671,672,671,672,672,671,671,6923,6924,6923,6924,6923,6924,6923,6924,
0,6829,6830,6829,6830,6829,6830,6829,6830,704,703,704,703,704,704,704,703,704,703,704,704,704,704,704,704,703,704,703,704,704,703,671,6939,6940,6939,6940,6939,6940,6939,6940,
0,6813,6814,6813,6814,6813,6814,6813,6814,672,671,672,671,672,671,672,671,672,671,672,671,671,672,671,672,671,672,671,672,671,671,703,6923,6924,6923,6924,6923,6924,6923,6924,
0,6829,6830,6829,6830,6829,6830,6829,6830,704,2179,704,703,704,703,704,2179,704,703,704,703,703,704,703,704,2179,704,703,704,703,704,2179,6939,6940,6939,6940,6939,6940,6939,6940,
0,0,0,0,0,0,0,0,0,0,0,0,0,0,0,0,0,0,0,0,0,0,67,67,67,0,0,0,0,0,0,0,0,0,0,0,0,0,0,0
</data>
 </layer>
 <layer id="5" name="Buildings" width="40" height="29">
  <data encoding="csv">
65,65,65,65,65,65,65,65,65,65,65,65,65,65,65,65,65,65,65,65,65,65,65,65,65,65,65,65,65,65,65,65,65,65,65,65,65,65,65,65,
3221225704,0,0,0,0,0,0,0,1073742056,3221225704,0,0,0,0,0,0,0,0,2147483724,2147483723,75,76,3221225704,0,0,0,0,0,0,0,1073742056,3221225704,0,0,0,0,0,0,0,1073742056,
129,0,0,0,0,0,0,0,1073741957,1073741953,0,0,0,0,0,0,0,3221225601,3221225605,0,0,1073741957,1073741953,0,0,0,0,0,0,0,1073741957,1073741953,0,0,0,0,0,0,0,133,
129,139,139,139,139,139,139,139,1073741957,1073741953,139,139,139,139,139,139,139,3221225601,3221225605,0,0,1073741957,1073741953,139,139,139,139,139,139,139,1073741957,1073741953,139,139,139,139,139,139,139,133,
129,171,171,171,171,171,171,171,1073741957,1073741953,7428,7429,171,171,171,171,171,3221225601,3221225605,0,0,1073741957,1073741953,171,171,171,171,171,171,171,1073741957,1073741953,171,171,171,171,171,171,171,133,
129,0,0,0,0,0,0,0,1073741957,1073741953,0,0,0,7131,7178,7091,7180,3221225601,2147483781,0,0,1073741957,1073741953,0,0,0,0,0,0,0,1073741957,1073741953,5645,5646,5647,5648,5413,5305,5306,133,
129,0,0,0,0,0,0,0,1073741957,1073741953,7462,7463,7250,7252,7254,7107,0,3221225601,129,0,0,1073741957,1073741953,0,0,0,0,0,0,0,1073741957,1073741953,5312,0,5428,5429,5430,0,0,133,
129,0,0,0,0,0,0,0,1073741957,1073741953,0,0,7266,7268,7270,0,7289,3221225601,129,0,0,1073741957,1073741953,0,0,0,0,0,0,0,1073741957,1073741953,0,0,5472,5473,5474,5393,5394,133,
2147483781,0,0,0,0,0,0,0,133,2147483781,2147490760,2147490759,7282,7284,7286,0,7305,133,129,0,0,1073741957,2147483781,0,0,0,0,0,0,0,133,2147483781,5318,0,5516,5517,5518,5404,5405,133,
2147483781,0,0,0,0,0,0,0,133,2147483781,2147490776,2147490775,7298,7300,7302,0,0,133,129,0,0,133,2147483781,0,0,0,0,0,0,0,133,2147483781,5362,0,0,0,0,5448,5449,133,
3221225548,0,0,0,0,0,0,0,1073741900,3221225548,0,0,0,7316,0,0,0,1073741900,129,0,0,133,3221225548,0,0,0,0,0,0,0,1073741900,3221225548,5406,0,0,0,0,0,5578,1073741900,
2147483724,67,67,2147483906,0,258,2147483715,2147483715,2147483715,2147483715,2147483715,2147483715,2147483906,0,258,2147483715,2147483715,2147483715,2147483906,0,0,258,67,67,67,2147483906,0,258,2147483715,2147483715,2147483715,2147483715,2147483715,2147483715,2147483906,0,258,67,67,76,
2147483781,0,0,120,0,119,0,0,0,0,0,0,120,0,119,0,0,0,120,0,0,119,0,0,0,120,0,119,0,0,0,0,0,0,120,0,119,0,0,133,
2147483781,139,139,152,185,151,139,139,139,139,139,139,152,185,151,139,139,139,152,0,0,151,139,139,139,152,185,151,139,139,139,139,139,139,152,185,151,139,139,133,
2147483781,171,171,171,0,171,171,171,171,171,171,171,184,0,183,171,171,171,184,0,0,183,171,171,171,184,0,171,171,171,171,171,171,171,171,0,171,171,171,133,
2147483781,0,0,0,0,0,0,0,0,0,0,0,0,0,0,0,0,0,0,0,0,0,0,0,0,0,0,0,0,0,0,0,0,0,0,0,0,0,0,133,
2147483781,0,0,0,0,0,0,0,0,0,0,0,0,0,0,0,0,0,0,0,0,0,0,0,0,0,0,0,0,0,0,0,0,0,0,0,0,0,0,133,
2147483843,0,0,0,0,0,0,0,0,0,0,0,0,0,0,0,0,0,0,0,0,0,0,0,0,0,0,0,0,0,0,0,0,0,0,0,0,0,0,195,
2147483724,2147483715,2147483715,259,0,2147483907,67,67,76,74,67,67,2147483715,2147483715,2147483715,2147483715,2147483715,2147483715,259,0,0,2147483907,2147483715,2147483715,67,2147483715,2147483715,2147483715,67,67,76,74,67,67,259,0,2147483907,67,67,76,
2147483781,0,0,120,0,119,0,0,133,129,0,0,0,0,0,0,0,0,120,0,0,119,0,0,0,0,0,0,0,0,133,129,0,0,120,0,119,0,0,133,
2147483781,139,139,152,185,151,139,139,133,129,942,943,944,945,946,947,948,949,152,889,890,151,139,139,139,139,139,139,139,139,133,129,139,139,152,185,151,139,139,133,
2147483781,171,171,184,0,183,171,171,133,129,974,975,976,977,978,979,980,981,184,0,0,183,171,171,171,171,171,171,171,171,133,129,171,171,184,0,184,171,171,133,
2147483781,4865,4866,4867,0,5141,4913,4914,133,129,1006,1007,1008,1009,1010,1011,1012,1013,428,0,0,1541,1542,0,0,0,0,0,0,1549,133,129,7761,7762,7763,0,9256,7767,7768,133,
2147483781,0,4864,0,0,0,0,0,133,129,0,0,0,0,0,0,0,0,0,0,0,0,0,0,1512,1513,1514,1515,1516,0,133,129,0,0,0,0,0,0,0,133,
2147483781,0,0,0,0,0,4988,4989,133,129,0,0,0,0,0,0,0,0,0,0,0,0,0,0,1544,1545,1546,1547,1548,0,133,129,7797,7798,7799,0,8018,9059,9060,133,
2147483781,4743,4744,4745,0,0,0,0,133,129,951,952,953,951,0,0,951,952,953,951,0,0,0,0,0,0,0,0,0,0,133,129,9408,0,0,0,0,9091,9092,133,
2147483781,0,0,0,0,0,4487,4488,133,129,0,0,0,0,0,0,0,0,0,0,0,0,0,0,0,0,0,0,0,0,133,129,9067,9068,9433,9434,9435,0,0,133,
65,4778,4779,4780,4891,4892,4503,4504,195,2147483843,1424,1425,1424,1425,1424,1425,1424,1425,1424,1425,1424,1425,1424,1425,1424,1425,1424,1425,1424,1425,195,2147483843,9099,9100,9465,9466,9467,4986,4987,65,
65,65,65,65,65,65,65,65,65,65,65,65,65,65,65,65,65,65,65,65,65,65,65,65,65,65,65,65,65,65,65,65,65,65,65,65,65,65,65,65
</data>
 </layer>
 <objectgroup id="8" name="Buildings">
  <object id="5" name="TileData" x="64" y="208" width="16" height="16">
   <properties>
    <property name="Action" value="Door"/>
   </properties>
  </object>
  <object id="6" name="TileData" x="64" y="320" width="16" height="16">
   <properties>
    <property name="Action" value="Door"/>
   </properties>
  </object>
  <object id="12" name="TileData" x="416" y="208" width="16" height="16">
   <properties>
    <property name="Action" value="Door"/>
   </properties>
  </object>
  <object id="13" name="TileData" x="560" y="208" width="16" height="16">
   <properties>
    <property name="Action" value="Door"/>
   </properties>
  </object>
  <object id="14" name="TileData" x="560" y="320" width="16" height="16">
   <properties>
    <property name="Action" value="Door"/>
   </properties>
  </object>
  <object id="18" name="TileData" x="208" y="208" width="16" height="16">
   <properties>
    <property name="Action" value="Door"/>
   </properties>
  </object>
  <object id="20" name="TileData" x="320" y="320" width="16" height="16">
   <properties>
    <property name="Action" value="Door"/>
   </properties>
  </object>
  <object id="21" name="TileData" x="304" y="320" width="16" height="16">
   <properties>
    <property name="Action" value="Door"/>
   </properties>
  </object>
  <object id="25" name="TileData" x="336" y="336" width="32" height="32">
   <properties>
    <property name="Action" value="OpenShop EmpressKimi.SaloonExpansion.JojaVendingMachine"/>
   </properties>
  </object>
  <object id="26" name="TileData" x="208" y="96" width="16" height="80">
   <properties>
    <property name="Passable" value="T"/>
   </properties>
  </object>
  <object id="27" name="TileData" x="224" y="96" width="16" height="64">
   <properties>
    <property name="Passable" value="T"/>
   </properties>
  </object>
  <object id="28" name="TileData" x="192" y="96" width="16" height="64">
   <properties>
    <property name="Passable" value="T"/>
   </properties>
  </object>
  <object id="30" name="TileData" x="544" y="96" width="48" height="48">
   <properties>
    <property name="Passable" value="T"/>
   </properties>
  </object>
 </objectgroup>
 <layer id="6" name="Front" width="40" height="29">
  <data encoding="csv">
0,0,0,0,0,0,0,0,0,0,0,0,0,0,0,0,0,0,0,0,0,0,0,0,0,0,0,0,0,0,0,0,0,0,0,0,0,0,0,0,
3221225704,3221225703,1073742054,1073742054,1073742054,1073742054,1073742054,1073742055,0,0,3221225703,1073742054,1073742054,1073742054,1073742054,1073742054,1073742055,1073742056,0,0,0,0,3221225704,3221225703,1073742054,1073742054,1073742054,1073742054,1073742054,1073742055,1073742056,0,0,1073742054,1073742054,1073742054,1073742054,1073742054,0,0,
0,0,0,0,0,0,0,0,0,0,0,0,0,0,0,7376,7377,0,0,0,0,0,0,0,0,0,0,0,0,0,0,0,5455,0,0,0,5692,5459,5460,0,
0,0,0,0,0,0,0,0,0,0,7412,7413,0,7099,7146,7147,7148,0,0,0,0,0,0,0,0,0,0,0,0,0,0,0,5557,5558,5559,5560,5736,5503,5504,0,
0,0,0,0,0,0,0,0,0,0,7430,7431,0,7115,7162,7163,7164,0,0,0,0,0,0,0,0,0,0,0,0,0,0,0,5601,5602,5603,5604,5369,5261,5262,0,
0,0,0,0,0,0,0,0,0,0,7446,7447,0,0,0,7076,0,0,0,0,0,0,0,0,0,0,0,0,0,0,0,0,5268,0,0,0,0,5307,5308,0,
0,0,0,0,0,0,0,0,0,0,0,0,0,0,0,0,7273,0,0,0,0,0,0,0,0,0,0,0,0,0,0,0,0,0,0,0,0,5351,5352,0,
0,0,0,0,0,0,0,0,0,0,2147490744,2147490743,0,0,0,0,0,0,0,0,0,0,0,0,0,0,0,0,0,0,0,0,5274,0,0,0,0,5360,5361,0,
0,0,0,0,0,0,0,0,0,0,0,0,0,0,0,7202,0,0,0,0,0,0,0,0,0,0,0,0,0,0,0,0,0,0,0,0,0,0,0,0,
0,0,0,0,0,0,0,0,0,0,0,0,0,0,0,7218,7219,0,0,0,0,0,0,0,0,0,0,0,0,0,0,0,0,0,0,0,0,0,5534,0,
0,1073741891,1073741891,1073742083,0,3221225731,3221225539,3221225539,0,0,3221225539,3221225539,1073742083,0,3221225731,1073741891,1073741891,0,0,0,0,0,0,1073741891,1073741891,1073742083,0,3221225731,3221225539,3221225539,0,0,1073741891,1073741891,1073742083,0,3221225731,3221225539,3221225539,0,
0,0,0,0,121,0,0,0,0,0,0,0,0,0,0,0,0,0,0,0,0,0,0,0,0,0,121,0,0,0,0,0,0,0,0,121,0,0,0,0,
0,0,1409,0,153,0,0,0,0,1409,0,0,0,153,0,0,1409,0,0,0,0,0,0,1409,0,0,153,0,0,0,0,1409,0,0,0,153,0,1409,0,0,
0,0,0,0,0,0,0,0,0,0,0,0,0,0,0,0,0,0,0,0,0,0,0,0,0,0,0,0,0,0,0,0,0,0,0,0,0,0,0,0,
0,0,0,0,0,0,0,0,0,0,0,0,0,0,0,0,0,0,0,0,0,0,0,0,0,0,0,0,0,0,0,0,0,0,0,0,0,0,0,0,
0,0,0,0,0,0,0,0,0,0,0,0,0,0,0,0,0,0,0,0,0,0,0,0,0,0,0,0,0,0,0,0,0,0,0,0,0,0,0,0,
0,0,0,0,0,0,0,0,0,0,0,0,0,0,0,0,0,0,0,0,0,0,0,0,0,0,0,0,0,0,0,0,0,0,0,0,0,0,0,0,
0,2147483878,2147483878,227,0,2147483875,230,230,230,230,230,230,2147483878,2147483878,2147483878,2147483878,2147483878,2147483878,227,0,0,2147483875,230,230,230,2147483878,2147483878,2147483878,230,230,230,230,230,230,227,0,2147483875,230,230,0,
0,0,0,0,121,0,0,0,0,74,0,0,0,0,0,0,0,0,0,825,826,0,0,0,0,0,0,0,0,0,0,0,0,0,0,121,0,0,0,0,
0,0,0,0,153,0,0,0,0,0,910,911,912,913,914,915,916,917,1409,857,858,1409,0,0,0,4169,4170,4171,0,0,0,0,0,9504,0,153,0,0,0,0,
0,0,4834,4835,0,5109,4818,4819,0,0,0,0,0,0,0,0,0,0,0,0,0,1477,1478,0,0,4201,4202,4203,0,0,0,0,0,9536,0,0,0,0,0,0,
0,4849,4850,4851,0,5125,4897,4898,0,0,0,0,0,0,0,0,0,0,396,0,0,1509,1510,0,0,0,0,0,0,1517,0,0,7749,7750,7751,0,9224,7755,7756,0,
0,0,4848,0,0,0,4956,4957,0,0,0,0,0,0,0,0,0,0,0,0,0,0,0,0,1480,1481,1482,1483,1484,0,0,0,7773,7774,7775,0,0,0,0,0,
0,0,0,0,0,0,4972,4973,0,0,0,0,0,0,0,0,0,0,0,0,0,0,0,0,0,0,0,0,0,0,0,0,7785,7786,7787,0,7986,9027,9028,0,
0,4727,4728,4729,0,0,4455,4456,0,0,0,920,921,0,0,0,0,920,921,0,0,0,0,0,0,0,0,0,0,0,0,0,9376,0,0,0,0,9541,9542,0,
0,4746,4747,4748,0,0,4471,4472,0,0,0,0,0,0,0,0,0,0,0,0,0,0,0,0,0,0,0,0,0,0,0,0,0,9036,9401,9402,9403,4954,4955,0,
0,4762,4763,4764,4875,4876,0,0,0,0,1392,1393,1392,1393,1392,1393,1392,1393,1392,1393,1392,1393,1392,1393,1392,1393,1392,1393,1392,1393,0,0,0,0,0,0,0,4970,4971,0,
2147483880,2147483879,230,230,230,230,230,231,232,2147483880,2147483879,230,230,230,230,230,230,230,230,230,230,230,230,230,230,230,230,230,230,231,232,2147483880,2147483879,230,0,0,0,0,231,232,
65,65,65,65,65,65,65,65,65,0,0,0,0,0,0,0,0,0,0,0,0,0,0,0,0,0,0,0,0,0,0,65,65,65,65,65,65,65,65,65
</data>
 </layer>
 <layer id="7" name="AlwaysFront" width="40" height="29">
  <data encoding="csv">
0,0,0,0,0,0,0,0,0,0,0,0,0,0,0,0,0,0,0,0,0,0,0,0,0,0,0,0,0,0,0,0,0,0,0,0,0,0,0,0,
0,0,0,0,0,0,0,0,0,0,0,7362,7363,7364,0,7360,7361,0,0,0,0,0,0,0,0,0,0,0,0,0,0,0,3221225703,0,0,0,0,0,1073742055,0,
0,0,0,0,0,0,0,0,0,0,0,7378,7379,7380,0,0,0,0,0,0,0,0,0,0,0,0,0,0,0,0,0,0,0,0,0,0,0,0,0,0,
0,0,0,0,0,0,0,0,0,0,0,7394,7395,7396,0,0,0,0,0,0,0,0,0,0,0,0,0,0,0,0,0,0,0,0,0,0,0,0,0,0,
0,0,0,0,0,0,0,0,0,0,0,0,0,0,0,0,0,0,0,0,0,0,0,0,0,0,0,0,0,0,0,0,0,0,0,0,0,0,0,0,
0,0,0,0,0,0,0,0,0,0,0,0,0,0,0,0,0,0,0,0,0,0,0,0,0,0,0,0,0,0,0,0,0,0,0,0,0,0,0,0,
0,0,0,0,0,0,0,0,0,0,0,0,0,0,0,0,7333,0,0,0,0,0,0,0,0,0,0,0,0,0,0,0,0,0,0,0,0,0,0,0,
0,0,0,0,0,0,0,0,0,0,0,0,0,0,0,0,0,0,0,0,0,0,0,0,0,0,0,0,0,0,0,0,0,0,0,0,0,0,0,0,
0,0,0,0,0,0,0,0,0,0,0,0,0,0,0,0,7203,0,0,0,0,0,0,0,0,0,0,0,0,0,0,0,0,0,0,0,0,0,0,0,
0,0,0,0,0,0,0,0,0,0,0,0,0,0,0,0,0,0,0,0,0,0,0,0,0,0,0,0,0,0,0,0,0,0,0,0,0,0,0,0,
0,0,0,0,0,0,0,0,0,0,0,0,0,0,0,0,0,0,0,0,0,0,0,0,0,0,0,0,0,0,0,0,0,0,0,0,0,0,0,0,
0,0,0,0,0,0,0,0,0,0,0,0,0,0,0,0,0,0,0,0,0,0,0,0,0,0,0,0,0,0,0,0,0,0,0,0,0,0,0,0,
0,0,0,0,0,0,0,0,0,0,0,0,0,0,0,0,0,0,0,0,0,0,0,0,0,0,0,0,0,0,0,0,0,0,0,0,0,0,0,0,
0,0,0,0,0,0,0,0,0,0,0,0,0,0,0,0,0,0,0,0,0,0,0,0,0,0,0,0,0,0,0,0,0,0,0,0,0,0,0,0,
0,0,0,0,0,0,0,0,0,0,0,0,0,0,0,0,0,0,0,0,0,0,0,0,0,0,0,0,0,0,0,0,0,0,0,0,0,0,0,0,
0,0,0,0,0,0,0,0,0,0,0,0,0,0,0,0,0,0,0,0,0,0,0,0,0,0,0,0,0,0,0,0,0,0,0,0,0,0,0,0,
0,0,0,0,0,0,0,0,0,0,0,0,0,0,0,0,0,0,0,0,0,0,0,0,0,0,0,0,0,0,0,0,0,0,0,0,0,0,0,0,
0,0,0,0,0,0,0,0,0,0,0,0,0,0,0,0,0,0,0,0,0,0,0,0,0,0,0,0,0,0,0,0,0,0,0,0,0,0,0,0,
0,0,0,0,0,0,0,0,0,0,0,0,0,0,0,0,0,0,0,0,0,0,0,0,0,0,0,0,0,0,0,0,0,0,0,0,9506,9507,9508,0,
0,4665,4666,0,0,4801,4802,4803,0,0,0,0,0,0,0,0,0,0,0,0,0,0,0,0,0,0,0,0,0,0,0,0,9383,9384,9505,0,9538,9539,9540,0,
0,4681,4682,0,0,4817,4881,4882,0,0,0,0,0,0,0,0,0,0,0,0,0,0,0,0,0,0,0,0,0,1485,0,0,9415,9416,9537,0,9192,7743,7744,0,
0,0,0,0,0,0,0,0,0,0,0,0,0,0,0,0,0,0,0,0,0,0,0,0,0,0,0,0,0,0,0,0,0,0,0,0,0,0,0,0,
0,0,0,0,0,0,0,0,0,0,0,0,0,0,0,0,0,0,0,0,0,0,0,0,0,0,0,0,0,0,0,0,0,0,0,0,0,0,0,0,
0,0,0,0,0,0,0,0,0,0,0,0,0,0,0,0,0,0,0,0,0,0,0,0,0,0,0,0,0,0,0,0,9344,0,0,0,0,0,0,0,
0,0,0,0,0,0,0,0,0,0,0,0,0,0,0,0,0,0,0,0,0,0,0,0,0,0,0,0,0,0,0,0,0,0,0,0,0,0,0,0,
0,0,0,0,0,0,0,0,0,0,0,0,0,0,0,0,0,0,0,0,0,0,0,0,0,0,0,0,0,0,0,0,9035,0,0,0,0,0,0,0,
0,0,0,0,0,0,0,0,0,0,0,0,0,0,0,0,0,0,0,0,0,0,0,0,0,0,0,0,0,0,0,0,2147492912,9263,0,0,0,0,0,0,
0,0,0,0,0,0,0,0,0,0,0,0,0,0,0,0,0,0,0,0,0,0,0,0,0,0,0,0,0,0,0,0,0,0,230,230,230,230,0,0,
0,0,0,0,0,0,0,0,0,0,0,0,0,0,0,0,0,0,0,0,0,0,0,0,0,0,0,0,0,0,0,0,0,0,0,0,0,0,0,0
</data>
 </layer>
</map>
