<?xml version="1.0" encoding="UTF-8"?>
<map version="1.10" tiledversion="1.12.1" orientation="orthogonal" renderorder="right-down" width="40" height="29" tilewidth="16" tileheight="16" infinite="0" nextlayerid="10" nextobjectid="32">
 <properties>
  <property name="AmbientLight" value="60 60 60"/>
  <property name="AmbientNightLight" value="140 140 140"/>
  <property name="DayTiles" value="Front 19 2 256 Front 19 3 288 Front 20 2 256 Front 20 3 288 Front 3 4 1346 Front 16 7 1346 Front 27 4 480 Front 38 5 1346 Buildings 2 12 1344 Buildings 7 12 1344 Buildings 10 12 1344 Buildings 16 12 1344 Buildings 23 12 1344 Buildings 29 12 1344 Buildings 32 12 1344 Buildings 37 12 1344 Front 3 19 826 Front 5 19 826 Front 14 21 1346 Front 29 24 1346 Front 36 21 550 AlwaysFront 36 20 518"/>
  <property name="Doors" value="4 13 2 120 4 20 2 120 13 13 2 120 13 20 2 120 26 13 2 120 26 20 2 120 35 13 2 120 35 20 2 120"/>
  <property name="Light" value="3 4 4 16 7 4 27 4 4 38 5 4 3 19 4 5 19 4 14 21 4 29 24 4 36 21 4 2 12 2 7 12 2 10 12 2 16 12 2 23 12 2 29 12 2 32 12 2 37 12 2 3 4 2 16 7 2 27 4 2 38 5 2 3 19 2 5 19 2 14 21 2 29 24 2 36 21 2"/>
  <property name="NightTiles" value="Front 19 2 1253 Front 19 3 1285 Front 20 2 1253 Front 20 3 1285 Front 3 4 1347 Front 16 7 1347 Front 27 4 809 Front 38 5 1347 Buildings 2 12 1345 Buildings 7 12 1345 Buildings 10 12 1345 Buildings 16 12 1345 Buildings 23 12 1345 Buildings 29 12 1345 Buildings 32 12 1345 Buildings 37 12 1345 Front 3 19 827 Front 5 19 827 Front 14 21 1347 Front 29 24 1347 Front 36 21 551 AlwaysFront 36 20 519"/>
 </properties>
 <tileset firstgid="1" name="paths" tilewidth="16" tileheight="16" tilecount="64" columns="4">
  <image source="paths.png" width="64" height="256"/>
 </tileset>
 <tileset firstgid="65" name="townInterior" tilewidth="16" tileheight="16" tilecount="2176" columns="32">
  <image source="townInterior.png" width="512" height="1088"/>
 </tileset>
 <tileset firstgid="2241" name="townInterior_2" tilewidth="16" tileheight="16" tilecount="1312" columns="32">
  <image source="townInterior_2.png" width="512" height="656"/>
 </tileset>
 <tileset firstgid="3553" name="SeasideInterior" tilewidth="16" tileheight="16" tilecount="896" columns="32">
  <image source="SeasideInterior.png" width="512" height="448"/>
 </tileset>
 <tileset firstgid="4449" name="walls_and_floors" tilewidth="16" tileheight="16" tilecount="688" columns="16">
  <image source="walls_and_floors.png" width="256" height="688"/>
 </tileset>
 <layer id="3" name="Paths" width="40" height="29">
  <data encoding="csv">
0,0,0,0,0,0,0,0,0,0,0,0,0,0,0,0,0,0,0,0,0,0,0,0,0,0,0,0,0,0,0,0,0,0,0,0,0,0,0,0,
0,0,0,0,0,0,0,0,0,0,0,0,0,0,0,0,0,0,0,0,0,0,0,0,0,0,0,0,0,0,0,0,0,0,0,0,0,0,0,0,
0,0,0,0,0,0,0,0,0,0,0,0,0,0,0,0,0,0,0,0,0,0,0,0,0,0,0,0,0,0,0,0,0,0,0,0,0,0,0,0,
0,0,0,0,0,0,0,0,0,0,0,0,0,0,0,0,0,0,0,0,0,0,0,0,0,0,0,0,0,0,0,0,0,0,0,0,0,0,0,0,
0,0,0,0,0,0,0,0,0,0,0,0,0,0,0,0,0,0,0,0,0,0,0,0,0,0,0,0,0,0,0,0,0,0,0,0,0,0,0,0,
0,0,0,0,0,0,0,0,0,0,0,0,0,0,0,0,0,0,0,0,0,0,0,0,0,0,0,0,0,0,0,0,0,0,0,0,0,0,0,0,
0,0,0,0,0,0,0,0,0,0,0,0,0,0,0,0,0,0,0,0,0,0,0,0,0,0,0,0,0,0,0,0,0,0,0,0,0,0,0,0,
0,0,0,0,0,0,0,0,0,0,0,0,0,0,0,0,0,0,0,0,0,0,0,0,0,0,0,0,0,0,0,0,0,0,0,0,0,0,0,0,
0,0,0,0,0,0,0,0,0,0,0,0,0,0,0,0,0,0,0,0,0,0,0,0,0,0,0,0,0,0,0,0,0,0,0,0,0,0,0,0,
0,0,0,0,0,0,0,0,0,0,0,0,0,0,0,0,0,0,0,0,0,0,0,0,0,0,0,0,0,0,0,0,0,0,0,0,0,0,0,0,
0,0,0,0,0,0,0,0,0,0,0,0,0,0,0,0,0,0,0,0,0,0,0,0,0,0,0,0,0,0,0,0,0,0,0,0,0,0,0,0,
0,0,0,0,0,0,0,0,0,0,0,0,0,0,0,0,0,0,0,0,0,0,0,0,0,0,0,0,0,0,0,0,0,0,0,0,0,0,0,0,
0,0,0,0,0,0,0,0,0,0,0,0,0,0,0,0,0,0,0,0,0,0,0,0,0,0,0,0,0,0,0,0,0,0,0,0,0,0,0,0,
0,0,0,0,0,0,0,0,0,0,0,0,0,0,0,0,0,0,0,0,0,0,0,0,0,0,0,0,0,0,0,0,0,0,0,0,0,0,0,0,
0,0,0,0,0,0,0,0,0,0,0,0,0,0,0,0,0,0,0,0,0,0,0,0,0,0,0,0,0,0,0,0,0,0,0,0,0,0,0,0,
0,0,0,0,0,0,0,0,0,0,0,0,0,0,0,0,0,0,0,0,0,0,0,0,0,0,0,0,0,0,0,0,0,0,0,0,0,0,0,0,
0,0,0,0,0,0,0,0,0,0,0,0,0,0,0,0,0,0,0,0,0,0,0,0,0,0,0,0,0,0,0,0,0,0,0,0,0,0,0,0,
0,0,0,0,0,0,0,0,0,0,0,0,0,0,0,0,0,0,0,0,0,0,0,0,0,0,0,0,0,0,0,0,0,0,0,0,0,0,0,0,
0,0,0,0,0,0,0,0,0,0,0,0,0,0,0,0,0,0,0,0,0,0,0,0,0,0,0,0,0,0,0,0,0,0,0,0,0,0,0,0,
0,0,0,0,0,0,0,0,0,0,0,0,0,0,0,0,0,0,0,0,0,0,0,0,0,0,0,0,0,0,0,0,0,0,0,0,0,0,0,0,
0,0,0,0,0,0,0,0,0,0,0,0,0,0,0,0,0,0,0,0,0,0,0,0,0,0,0,0,0,0,0,0,0,0,0,0,0,0,0,0,
0,0,0,0,0,0,0,0,0,0,0,0,0,0,0,0,0,0,0,0,0,0,0,0,0,0,0,0,0,0,0,0,0,0,0,0,0,0,0,0,
0,0,0,0,0,0,0,0,0,0,0,0,0,0,0,0,0,0,0,0,0,0,0,0,0,0,0,0,0,0,0,0,0,0,0,0,0,0,0,0,
0,0,0,0,0,0,0,0,0,0,0,0,0,0,0,0,0,0,0,0,0,0,0,0,0,0,0,0,0,0,0,0,0,0,0,0,0,0,0,0,
0,0,0,0,0,0,0,0,0,0,0,0,0,0,0,0,0,0,0,0,0,0,0,0,0,0,0,0,0,0,0,0,0,0,0,0,0,0,0,0,
0,0,0,0,0,0,0,0,0,0,0,0,0,0,0,0,0,0,0,0,0,0,0,0,0,0,0,0,0,0,0,0,0,0,0,0,0,0,0,0,
0,0,0,0,0,0,0,0,0,0,0,0,0,0,0,0,0,0,0,0,0,0,0,0,0,0,0,0,0,0,0,0,0,0,0,0,0,0,0,0,
0,0,0,0,0,0,0,0,0,0,0,0,0,0,0,0,0,0,0,0,0,0,0,0,0,0,0,0,0,0,0,0,0,0,0,0,0,0,0,0,
0,0,0,0,0,0,0,0,0,0,0,0,0,0,0,0,0,0,0,0,0,0,0,0,0,0,0,0,0,0,0,0,0,0,0,0,0,0,0,0
</data>
 </layer>
 <layer id="4" name="Back" width="40" height="29">
  <data encoding="csv">
0,704,704,704,703,704,703,704,704,704,703,704,703,704,704,704,672,671,672,672,672,671,672,671,704,704,703,704,703,704,704,704,703,704,703,704,704,704,703,0,
0,369,369,369,369,369,369,369,369,0,4955,4955,4955,4955,4955,4955,4955,333,333,3309,3309,703,704,116,116,116,116,116,116,116,671,672,4458,4458,4458,4458,4458,4458,4458,0,
0,369,369,369,369,369,369,369,369,369,4971,4971,4955,4955,4955,4955,4955,335,335,3341,3341,671,672,148,148,148,148,148,148,148,703,704,4474,4474,4474,4474,4474,4474,4474,0,
0,369,369,369,369,369,369,369,369,369,333,333,4971,4971,4971,4971,4971,333,333,3341,3341,2179,704,180,180,180,180,180,180,180,671,672,4490,4490,4490,4490,4490,4490,4490,0,
0,672,672,672,671,672,671,672,672,672,4799,4800,4800,4799,4800,4799,4800,704,703,704,672,671,672,671,672,672,671,672,703,704,704,704,672,3092,4889,4889,4889,4890,671,0,
4981,4982,4981,4982,4981,4982,4981,4982,4982,704,4815,4816,4816,4815,4816,4815,4816,672,671,4785,4786,671,672,4827,4828,4827,4828,4827,4828,4827,4828,672,4889,4889,4905,4905,4889,4889,4890,0,
4997,4998,4997,4998,4997,4998,4997,4998,4998,672,4799,4800,4799,4800,4799,4800,4799,4800,703,4801,4802,703,704,4843,4844,4843,4844,4843,4844,4843,4844,704,4905,4905,4905,4906,4905,4905,4906,0,
4981,4982,4981,4982,4981,4982,4981,4982,703,4989,4815,4816,4815,4816,4815,4816,4815,4816,672,4801,4802,671,4827,4828,4827,4828,4827,4828,4827,4828,671,672,4889,4890,4890,4890,4890,4890,4890,0,
4997,4998,4997,4998,4997,4998,4997,4998,671,4799,4800,4799,4800,4799,4800,4799,4800,703,704,4801,4802,703,4843,4844,4843,4844,4843,4844,4843,4844,671,672,4905,4906,4906,4906,4906,4906,4906,0,
0,4981,4982,4981,4982,4981,4982,4981,4982,4815,4816,4815,4816,4815,4816,4815,4816,4990,672,4801,4802,671,672,4827,4828,4827,4828,4828,4827,4828,672,672,4889,4889,4889,4889,4889,4889,4890,0,
0,4997,4998,4997,4998,4997,4998,4997,4998,704,4799,4799,4799,4799,4799,4799,4799,4800,0,4801,4802,2179,704,4843,4844,4843,4844,4844,4843,4844,704,704,4905,4905,4905,4905,4905,4905,4906,0,
0,672,671,1401,4982,672,671,672,671,672,4815,4815,4815,4815,4815,4815,4815,4816,0,4801,4802,671,672,671,671,672,4844,704,672,672,671,672,671,672,671,4889,671,672,671,0,
0,3309,3309,3309,4982,3309,3309,3309,3309,3309,3309,3309,3309,4799,3309,3309,3309,3309,3309,4801,4802,3309,3309,3309,3309,3309,4843,3309,3309,3309,3309,3309,3309,3309,3309,4889,3309,3309,3309,0,
0,3341,3341,3341,4982,3341,3341,3341,3341,3341,3341,3341,3341,4799,3341,3341,3341,3341,3341,4801,4802,3341,3341,3341,3341,3341,4843,3341,3341,3341,3341,3341,3341,3341,3341,4889,3341,3341,3341,0,
0,4785,4785,4785,4785,4786,3373,3373,3373,3373,3373,3373,3373,4785,4786,3373,3373,3373,3373,4801,4802,3373,3373,3373,3373,3373,4785,1370,3373,3373,3373,3373,3373,3373,3373,4785,3373,3373,3373,0,
4786,4801,4801,4785,4786,4785,4786,4786,4785,4786,4785,4786,4785,4786,4785,4786,4785,4786,4785,4786,4785,4786,4785,4786,4785,4786,4785,4786,4785,4786,4785,4786,4786,4785,4786,4785,4786,4785,4786,0,
1401,4801,4802,4801,4802,4801,4802,4802,4801,4802,4801,4802,4801,4802,4801,4802,4801,4802,4801,4802,4801,4802,4801,4802,4801,4802,4801,4802,4801,4802,4801,4802,4802,4801,4802,4801,4802,4801,4802,0,
0,4785,4785,4785,4785,4785,4785,4785,4785,4785,4785,4785,4785,4785,4785,4785,4785,4785,4785,4786,4785,4786,4786,4786,4786,4786,4786,4786,4786,4786,4786,4786,4786,4786,4786,4786,4786,4785,4786,0,
0,4801,4801,4801,4801,4801,4801,4801,4801,4801,4801,4801,4801,4801,4801,4801,4801,4801,4801,4802,4801,4802,4802,0,4802,4802,4802,4802,0,4802,4802,4802,4802,4802,4802,4802,4802,4801,4802,0,
0,4548,4548,4548,4801,4548,4548,4548,672,672,4648,4648,4648,4801,4648,4648,4648,671,672,4785,4786,671,672,366,366,366,4801,366,366,366,671,672,110,319,319,4801,4451,319,319,0,
0,4564,4564,4564,4801,4564,4564,4564,704,704,4664,4664,4664,4801,4664,4664,4664,703,704,4801,4802,703,704,366,366,366,4801,366,366,366,703,704,142,351,351,4801,4467,351,351,0,
0,672,671,671,4896,1370,368,368,671,672,3290,3290,3290,4857,1370,3290,3290,672,0,1108,1108,0,671,2661,171,2661,1369,1370,2661,2661,671,671,383,174,0,4850,174,383,383,0,
0,4895,4896,4895,4896,4895,4896,4895,4896,1369,4857,4858,4858,4857,4858,4857,4858,704,0,0,0,0,703,1369,1369,1369,1401,1402,1370,703,2179,703,4849,4850,4849,4850,4849,4850,4849,4850,
0,4911,4912,4911,4912,4911,4912,4911,4912,1401,4873,4874,4874,4873,4874,4873,4874,672,0,0,0,0,671,1401,1401,1369,1401,1369,1369,1370,671,1369,4865,4866,4865,4866,4865,4866,4865,4866,
4895,4896,4895,4896,4895,4896,4895,4896,672,1369,4857,4858,4857,4858,4857,4858,4857,4858,0,0,0,0,672,1401,1402,1401,1401,1401,1369,1370,671,4849,4850,4849,4850,4849,4850,4849,4850,0,
4911,4912,4911,4912,4911,4912,4911,4912,704,1401,4873,4874,4873,4874,4873,4874,4873,4874,0,0,0,0,704,1401,1402,1369,1370,1370,1370,1370,703,4865,4866,4865,4866,4865,4866,4865,4866,0,
0,4912,4912,4912,4912,4895,4896,4896,671,4857,4858,4857,4858,4857,4858,4857,4858,672,0,0,0,0,672,1401,1402,1401,1402,1402,1370,1370,671,703,4849,4850,4849,4850,4849,4850,4849,4850,
0,4912,5008,1402,4895,4911,4912,4912,703,4873,4874,4873,4874,4873,4874,4873,4874,704,0,0,0,0,704,1401,1402,1401,1401,1402,1402,1402,704,2179,4865,4866,4865,4866,4865,4866,4865,4866,
0,0,0,0,0,0,0,0,0,0,0,0,0,0,0,0,0,0,0,0,0,0,67,67,67,0,0,0,0,0,0,0,0,0,0,1401,1402,1402,1402,0
</data>
 </layer>
 <layer id="5" name="Buildings" width="40" height="29">
  <data encoding="csv">
65,65,65,65,65,65,65,65,65,65,65,65,65,65,65,65,65,65,65,65,65,65,65,65,65,65,65,65,65,65,65,65,65,65,65,65,65,65,65,65,
0,0,0,0,0,0,0,0,0,3221225704,0,0,0,0,0,0,0,0,0,0,0,0,3221225704,0,0,0,0,0,0,0,1073742056,3221225704,0,0,0,0,0,0,0,1073742056,
129,0,0,0,0,0,0,0,1073741957,1073741953,0,0,0,0,0,0,0,1073741957,1073741953,0,0,1073741957,1073741953,0,0,0,0,0,0,0,1073741957,1073741953,0,0,0,0,0,0,0,133,
129,139,139,139,139,139,139,139,1073741957,1073741953,139,139,139,139,139,139,139,1073741957,1073741953,139,139,1073741957,1073741953,139,139,139,139,139,139,139,1073741957,1073741953,139,139,139,139,139,139,139,133,
129,171,171,171,171,171,171,2982,1073741957,1073741953,3949,3950,171,171,171,171,171,1073741957,1073741953,171,171,1073741957,1073741953,171,171,171,171,171,171,171,1073741957,1073741953,171,171,171,171,171,171,171,133,
129,421,422,517,589,591,563,3014,1073741957,1073741953,3981,3982,653,654,655,485,486,1073741957,1073741953,0,0,1073741957,1073741953,2307,3684,3685,3686,777,421,422,1073741957,1073741953,2147486292,712,713,421,422,646,2643,133,
129,0,0,0,0,0,0,0,1073741957,1073741953,4240,4241,4242,0,0,0,0,1073741957,1073741953,0,0,1073741957,1073741953,3890,0,0,0,0,0,0,1073741957,1073741953,0,0,0,0,0,0,517,133,
129,385,386,0,0,0,0,0,1073741957,1073741953,4272,4273,4274,0,0,387,388,1073741957,1073741953,0,0,1073741957,1073741953,0,0,0,0,0,385,386,1073741957,1073741953,0,0,0,385,386,0,0,133,
129,0,0,0,0,0,0,2732,1073741957,1073741953,0,0,0,0,0,0,4129,1073741957,1073741953,0,0,1073741957,1073741953,2438,0,0,0,0,0,0,1073741957,1073741953,776,2147484424,0,0,0,0,0,133,
2147483781,0,0,0,0,0,779,2764,1073741957,1073741953,3706,0,0,0,0,0,0,1073741957,1073741953,0,0,1073741957,1073741953,2470,0,0,0,0,1244,540,1073741957,1073741953,0,618,0,0,0,0,0,133,
3221225548,0,0,0,0,0,0,0,1073741900,3221225548,3738,0,0,0,0,0,0,1073741900,1073741953,0,0,1073741957,3221225548,2502,0,0,0,0,0,0,1073741900,1073741898,2641,0,0,0,0,0,2642,1073741900,
2147483724,67,67,2147483906,0,258,2147483715,2147483715,2147483715,67,2147483715,2147483715,2147483906,0,258,67,67,67,2147483906,0,0,258,67,67,67,2147483906,0,258,2147483715,2147483715,2147483715,2147483715,2147483715,2147483715,2147483906,0,258,67,67,76,
2147483781,0,1409,120,0,119,0,1409,0,0,1409,0,120,0,119,0,1409,0,120,0,0,119,0,1409,0,120,0,119,0,1409,0,0,1409,0,120,0,119,1409,0,133,
2147483781,139,139,152,185,151,139,139,139,139,139,139,152,185,151,139,139,139,152,0,0,151,139,139,139,152,185,151,139,139,139,139,139,139,152,185,151,139,139,133,
2147483781,171,171,171,0,183,171,171,171,171,171,171,171,0,171,171,171,171,184,0,0,183,171,171,171,171,0,183,171,171,171,171,171,171,171,0,183,171,171,133,
2147483781,0,0,0,0,0,0,0,0,0,0,0,0,0,0,0,0,0,0,0,0,0,0,0,0,0,0,0,0,0,0,0,0,0,0,0,0,0,0,133,
2147483781,0,0,0,0,0,0,0,0,0,0,0,0,0,0,0,0,0,0,0,0,0,0,0,0,0,0,0,0,0,0,0,0,0,0,0,0,0,0,133,
2147483843,0,0,0,0,0,0,0,0,0,0,0,0,0,0,0,0,0,0,0,0,0,0,0,0,0,0,0,0,0,0,0,0,0,0,0,0,0,0,195,
2147483724,2147483715,2147483715,259,0,2147483907,67,67,76,74,67,67,259,0,2147483907,2147483715,2147483715,2147483722,2147483781,0,0,133,74,67,67,259,0,2147483907,67,67,76,74,67,67,259,0,2147483907,67,67,76,
2147483781,0,0,120,0,119,0,0,133,129,0,0,120,0,119,0,0,133,129,0,0,133,129,0,0,120,0,119,0,0,133,129,0,0,120,0,119,0,0,133,
2147483781,139,139,152,185,151,139,139,133,129,139,139,152,185,151,139,139,133,129,0,0,133,129,139,139,152,185,151,139,139,133,129,139,139,152,185,151,139,139,133,
2147483781,171,171,184,0,183,676,677,133,129,171,171,184,0,183,171,171,133,129,0,0,133,129,171,745,184,0,183,171,171,133,129,171,171,171,0,183,171,171,133,
2147483781,2147484486,838,777,0,0,708,709,133,129,1554,1555,600,0,517,2147484486,838,133,129,1140,1140,133,129,776,777,646,0,2829,485,486,133,129,3981,3982,3884,0,4135,421,422,133,
2147483781,0,0,0,0,0,0,0,133,129,0,0,1610615263,1610615295,1610615327,0,0,133,3221225548,3221225547,1073741899,1073741900,129,587,0,0,0,0,0,0,133,129,0,0,3990,0,0,0,0,133,
2147483781,385,386,0,0,0,0,760,133,129,1552,1553,1610615262,1610615294,1610615326,385,386,133,65,65,65,65,129,0,0,0,0,0,387,388,133,129,0,0,0,0,0,385,386,133,
2147483781,466,0,0,0,0,791,792,133,129,0,0,1610615261,1610615293,1610615325,1206,1208,133,65,65,65,65,129,1364,1365,1366,1367,0,0,517,133,129,3752,0,0,0,0,0,379,133,
2147483781,4359,4360,4360,4361,0,0,0,133,129,2552,0,1610615260,1610615292,1610615324,0,0,133,65,65,65,65,129,1396,1397,1398,1399,0,0,2868,133,129,3784,4073,4074,4074,4075,0,0,133,
65,4391,3877,3878,2147487240,0,465,0,195,2147483843,2584,0,0,0,0,2273,2274,2147483809,65,65,65,65,161,1428,1429,1430,1431,0,0,2900,195,2147483843,3816,4105,3873,3874,2147487234,1686,2147485334,65,
65,65,65,65,65,65,65,65,65,65,65,65,65,65,65,65,65,65,65,65,65,65,0,65,65,65,65,65,65,65,65,65,65,65,65,65,65,65,65,65
</data>
 </layer>
 <objectgroup id="8" name="Buildings">
  <object id="5" name="TileData" x="64" y="208" width="16" height="16">
   <properties>
    <property name="Action" value="Door"/>
   </properties>
  </object>
  <object id="6" name="TileData" x="64" y="320" width="16" height="16">
   <properties>
    <property name="Action" value="Door"/>
   </properties>
  </object>
  <object id="10" name="TileData" x="208" y="320" width="16" height="16">
   <properties>
    <property name="Action" value="Door"/>
   </properties>
  </object>
  <object id="11" name="TileData" x="416" y="320" width="16" height="16">
   <properties>
    <property name="Action" value="Door"/>
   </properties>
  </object>
  <object id="12" name="TileData" x="416" y="208" width="16" height="16">
   <properties>
    <property name="Action" value="Door"/>
   </properties>
  </object>
  <object id="13" name="TileData" x="560" y="208" width="16" height="16">
   <properties>
    <property name="Action" value="Door"/>
   </properties>
  </object>
  <object id="14" name="TileData" x="560" y="320" width="16" height="16">
   <properties>
    <property name="Action" value="Door"/>
   </properties>
  </object>
  <object id="18" name="TileData" x="208" y="208" width="16" height="16">
   <properties>
    <property name="Action" value="Door"/>
   </properties>
  </object>
  <object id="19" name="TileData" x="368" y="400" width="64" height="48">
   <properties>
    <property name="Passable" value="T"/>
   </properties>
  </object>
  <object id="20" name="TileData" x="64" y="416" width="16" height="16">
   <properties>
    <property name="Passable" value="T"/>
   </properties>
  </object>
  <object id="23" name="TileData" x="160" y="96" width="48" height="32">
   <properties>
    <property name="Passable" value="T"/>
   </properties>
  </object>
  <object id="25" name="TileData" x="528" y="416" width="16" height="32">
   <properties>
    <property name="Passable" value="T"/>
   </properties>
  </object>
  <object id="26" name="TileData" x="576" y="416" width="16" height="16">
   <properties>
    <property name="Passable" value="T"/>
   </properties>
  </object>
  <object id="27" name="TileData" x="192" y="368" width="48" height="64">
   <properties>
    <property name="Passable" value="T"/>
   </properties>
  </object>
  <object id="31" name="TileData" x="80" y="80">
   <properties>
    <property name="Action" value="Chair"/>
   </properties>
  </object>
 </objectgroup>
 <layer id="6" name="Front" width="40" height="29">
  <data encoding="csv">
0,0,0,0,0,0,0,0,0,0,0,0,0,0,0,0,0,0,0,0,0,0,0,0,0,0,0,0,0,0,0,0,0,0,0,0,0,0,0,0,
3221225704,3221225703,1073742054,1073742054,1073742054,1073742054,1073742054,1073742055,1073742056,0,3221225703,1073742054,1073742054,1073742054,1073742054,1073742054,1073742055,1073742056,3221225704,3221225703,1073742055,1073742056,3221225704,3221225703,1073742054,1073742054,1073742054,1073742054,1073742054,1073742055,1073742056,0,0,1073742054,1073742054,1073742054,1073742054,1073742054,0,0,
0,1130,1131,659,660,1098,1099,0,0,0,0,0,0,1403,0,308,309,0,0,321,321,0,0,0,0,0,0,0,0,476,0,0,0,0,0,4176,4177,4178,0,0,
0,0,0,691,692,0,0,2950,0,0,3917,3918,0,1435,0,340,341,0,0,353,353,0,0,2243,0,0,0,0,0,0,0,0,2147486228,0,0,4208,4209,4210,2579,0,
0,389,390,1411,557,559,531,0,0,0,0,0,621,622,623,453,454,0,0,0,0,0,0,2275,3652,3653,3654,745,389,390,0,0,2147486260,680,681,389,390,614,2611,0,
0,417,418,0,0,0,0,0,0,0,0,0,0,0,0,481,482,0,0,0,0,0,0,3858,0,0,0,0,419,420,0,0,0,0,0,483,484,0,1411,0,
0,449,450,0,0,0,0,0,0,0,0,0,0,0,0,513,514,0,0,0,0,0,0,0,0,0,0,0,451,452,0,0,0,0,0,515,516,0,0,0,
0,0,0,0,0,0,0,2700,0,0,0,0,0,0,0,0,1411,0,0,0,0,0,0,2406,0,0,0,0,0,0,0,0,3185,3186,0,0,0,0,0,0,
0,0,0,0,0,0,747,0,0,0,3674,0,0,0,0,0,0,0,0,0,0,0,0,0,0,0,0,0,0,508,0,0,2577,0,0,0,0,0,2578,0,
0,0,0,0,0,0,0,0,0,0,0,0,0,0,0,0,0,0,0,0,0,0,0,0,0,0,0,0,0,0,0,0,2609,0,0,0,0,0,2610,0,
0,1073741891,1073741891,1073742083,0,3221225731,3221225539,3221225539,0,0,3221225539,3221225539,1073742083,0,3221225731,3221225539,3221225539,0,0,0,0,0,0,1073741891,1073741891,1073742083,0,3221225731,3221225539,3221225539,0,0,1073741891,1073741891,1073742083,0,3221225731,3221225539,3221225539,0,
0,0,0,0,121,0,0,0,0,0,0,0,0,121,0,0,0,0,0,0,0,0,0,0,0,0,121,0,0,0,0,0,0,0,0,121,0,0,0,0,
0,0,0,0,153,0,0,0,0,0,0,0,0,153,0,0,0,0,0,0,0,0,0,0,0,0,153,0,0,0,0,0,0,0,0,153,0,0,0,0,
0,0,0,0,0,0,0,0,0,0,0,0,0,0,0,0,0,0,0,0,0,0,0,0,0,0,0,0,0,0,0,0,0,0,0,0,0,0,0,0,
0,0,0,0,0,0,0,0,0,0,0,0,0,0,0,0,0,0,0,0,0,0,0,0,0,0,0,0,0,0,0,0,0,0,0,0,0,0,0,0,
0,0,0,0,0,0,0,0,0,0,0,0,0,0,0,0,0,0,0,0,0,0,0,0,0,0,0,0,0,0,0,0,0,0,0,0,0,0,0,0,
0,0,0,0,0,0,0,0,0,0,0,0,0,0,0,0,0,0,0,0,0,0,0,0,0,0,0,0,0,0,0,0,0,0,0,0,0,0,0,0,
0,2147483878,2147483878,227,0,2147483875,230,230,230,230,230,230,227,0,2147483875,2147483878,2147483878,2147483878,2147483876,0,0,228,230,230,230,227,0,2147483875,230,230,230,230,230,230,227,0,2147483875,230,230,0,
0,0,0,0,121,0,0,0,0,74,0,0,0,121,0,0,0,0,0,0,0,0,0,0,0,0,121,0,0,0,0,0,0,0,0,121,0,0,0,0,
0,0,0,891,153,891,1314,1315,0,0,0,0,0,153,0,217,218,0,0,0,0,0,0,854,855,856,153,0,821,822,0,0,4163,4164,4295,153,4227,4234,4235,0,
0,0,0,0,0,0,644,645,0,0,0,0,0,0,0,249,250,0,0,0,0,0,0,886,887,888,0,2765,0,0,0,0,4195,4196,4327,0,4259,4266,4267,0,
0,389,390,745,0,0,0,0,0,0,1522,1523,568,0,1411,389,390,0,0,0,0,0,0,744,739,614,0,2797,453,454,0,0,3917,3918,3852,0,4103,389,390,0,
0,423,424,0,0,0,0,0,0,0,0,0,0,0,0,419,420,0,0,0,0,0,0,555,0,0,0,0,487,488,0,0,0,0,3958,0,0,423,424,0,
0,455,456,0,0,0,0,728,0,0,1520,1521,0,0,0,451,452,0,0,0,0,0,0,0,0,0,0,0,519,520,0,0,0,0,0,0,0,455,456,0,
0,434,0,0,0,0,759,0,0,0,0,0,0,0,0,1174,1176,0,0,0,0,0,0,0,0,0,0,0,0,1411,0,0,0,0,0,0,0,0,0,0,
0,0,0,0,0,0,0,0,0,0,2520,0,0,0,0,0,0,0,0,0,0,0,0,0,0,0,0,0,0,2836,0,0,0,0,0,0,0,0,0,0,
0,0,3845,3846,2147487208,0,433,0,0,0,0,0,0,0,0,2241,2242,0,0,0,0,0,0,0,0,0,0,0,0,0,0,0,0,0,3841,3842,2147487202,1654,2147485302,0,
2147483880,2147483879,230,230,230,230,230,231,232,2147483880,2147483879,230,230,230,230,230,231,232,0,0,0,0,2147483880,2147483879,230,230,230,230,230,231,232,2147483880,2147483879,230,0,0,0,0,231,232,
65,65,65,65,65,65,65,65,65,65,65,65,65,65,65,65,65,65,0,0,0,0,65,65,65,65,65,65,65,65,65,65,65,65,65,65,65,65,65,65
</data>
 </layer>
 <layer id="7" name="AlwaysFront" width="40" height="29">
  <data encoding="csv">
0,0,0,0,0,0,0,0,0,0,0,0,0,0,0,0,0,0,0,0,0,0,0,0,0,0,0,0,0,0,0,0,0,0,0,0,0,0,0,0,
0,0,0,0,0,0,0,0,0,0,0,0,0,0,0,0,0,0,0,0,0,0,0,0,0,0,0,0,0,0,0,0,3221225703,2503,2504,0,2254,0,1073742055,0,
0,0,0,0,0,0,0,0,0,0,0,0,0,0,0,0,0,0,0,0,0,0,0,0,0,0,0,0,0,0,0,0,0,2535,2536,0,2286,0,0,0,
0,0,0,0,0,0,0,0,0,0,0,0,0,0,0,0,0,0,0,0,0,0,0,0,0,0,0,0,0,0,0,0,0,0,0,0,0,0,0,0,
0,0,0,0,0,0,0,0,0,0,0,0,0,0,0,0,0,0,0,0,0,0,0,0,0,0,0,545,0,0,0,0,0,0,0,0,0,0,0,0,
0,0,0,0,0,0,0,0,0,0,0,0,0,0,0,0,0,0,0,0,0,0,0,0,0,0,0,0,0,0,0,0,0,0,0,0,0,0,0,0,
0,0,0,0,0,0,0,0,0,0,0,0,0,0,0,0,0,0,0,0,0,0,0,0,0,0,0,0,0,0,0,0,0,0,0,0,0,0,0,0,
0,0,0,0,0,0,0,0,0,0,0,0,0,0,0,0,0,0,0,0,0,0,0,0,0,0,0,0,0,0,0,0,0,0,0,0,0,0,0,0,
0,0,0,0,0,0,0,0,0,0,0,0,0,0,0,0,0,0,0,0,0,0,0,0,0,0,0,0,0,0,0,0,0,0,0,0,0,0,0,0,
0,0,0,0,0,0,0,0,0,0,0,0,0,0,0,0,0,0,0,0,0,0,0,0,0,0,0,0,0,0,0,0,0,0,0,0,0,0,0,0,
0,0,0,0,0,0,0,0,0,0,0,0,0,0,0,0,0,0,0,0,0,0,0,0,0,0,0,0,0,0,0,0,0,0,0,0,0,0,0,0,
0,0,0,0,0,0,0,0,0,0,0,0,0,0,0,0,0,0,0,0,0,0,0,0,0,0,0,0,0,0,0,0,0,0,0,0,0,0,0,0,
0,0,0,0,0,0,0,0,0,0,0,0,0,0,0,0,0,0,0,0,0,0,0,0,0,0,0,0,0,0,0,0,0,0,0,0,0,0,0,0,
0,0,0,0,0,0,0,0,0,0,0,0,0,0,0,0,0,0,0,0,0,0,0,0,0,0,0,0,0,0,0,0,0,0,0,0,0,0,0,0,
0,0,0,0,0,0,0,0,0,0,0,0,0,0,0,0,0,0,0,0,0,0,0,0,0,0,0,0,0,0,0,0,0,0,0,0,0,0,0,0,
0,0,0,0,0,0,0,0,0,0,0,0,0,0,0,0,0,0,0,0,0,0,0,0,0,0,0,0,0,0,0,0,0,0,0,0,0,0,0,0,
0,0,0,0,0,0,0,0,0,0,0,0,0,0,0,0,0,0,0,0,0,0,0,0,0,0,0,0,0,0,0,0,0,0,0,0,0,0,0,0,
0,0,0,0,0,0,0,0,0,0,0,0,0,0,0,0,0,0,0,0,0,0,0,0,0,0,0,0,0,0,0,0,0,0,0,0,0,0,0,0,
0,0,0,0,0,0,0,0,0,0,0,0,0,0,0,0,0,0,0,0,0,0,0,0,0,0,0,0,0,0,0,0,0,0,0,0,0,0,0,0,
0,304,305,0,0,0,0,0,0,0,0,0,0,0,0,0,0,0,0,0,0,0,0,0,0,0,0,0,0,0,0,0,0,0,0,0,0,0,0,0,
0,336,337,0,0,0,0,0,0,0,0,0,0,0,0,0,0,0,0,0,0,0,0,0,0,0,0,0,0,0,0,0,0,0,0,0,4071,0,0,0,
0,0,0,0,0,0,0,0,0,0,0,0,0,0,0,0,0,0,0,0,0,0,0,741,0,0,0,0,0,0,0,0,0,0,3926,0,0,0,0,0,
0,0,0,0,0,0,0,0,0,0,0,0,0,0,0,0,0,0,0,0,0,0,0,0,0,0,0,0,0,0,0,0,0,0,0,0,0,0,0,0,
0,0,0,0,0,0,0,0,0,0,0,0,0,0,0,0,0,0,0,0,0,0,0,0,0,0,0,0,0,0,0,0,0,0,0,0,0,0,0,0,
0,0,0,0,0,0,0,0,0,0,0,0,0,0,0,0,0,0,0,0,0,0,0,0,0,0,0,0,0,0,0,0,0,0,0,0,0,0,0,0,
0,0,0,0,0,400,401,402,0,0,0,0,0,0,0,0,0,0,0,0,0,0,0,0,0,0,0,0,0,0,0,0,0,0,0,0,0,0,0,0,
0,0,0,496,0,0,0,0,0,0,0,0,0,0,0,0,0,0,0,0,0,0,0,0,0,0,0,0,0,0,0,0,0,0,0,0,0,0,0,0,
0,0,0,0,0,0,0,0,0,0,0,0,0,0,0,0,0,0,0,0,0,0,0,0,0,0,0,0,0,0,0,0,0,0,230,230,230,230,0,0,
0,0,0,0,0,0,0,0,0,0,0,0,0,0,0,0,0,0,0,0,0,0,0,0,0,0,0,0,0,0,0,0,0,0,0,0,0,0,0,0
</data>
 </layer>
</map>
