<?xml version="1.0" encoding="UTF-8"?>
<map version="1.10" tiledversion="1.12.1" orientation="orthogonal" renderorder="right-down" width="4" height="2" tilewidth="16" tileheight="16" infinite="0" nextlayerid="8" nextobjectid="1">
 <tileset firstgid="1" name="paths" tilewidth="16" tileheight="16" tilecount="64" columns="4">
  <image source="paths.png" width="64" height="256"/>
 </tileset>
 <tileset firstgid="65" name="townInterior" tilewidth="16" tileheight="16" tilecount="2176" columns="32">
  <image source="townInterior.png" width="512" height="1088"/>
 </tileset>
 <tileset firstgid="2241" name="townInterior_2" tilewidth="16" tileheight="16" tilecount="1312" columns="32">
  <image source="townInterior_2.png" width="512" height="656"/>
 </tileset>
 <layer id="7" name="Paths" width="4" height="2">
  <data encoding="csv">
0,0,0,0,
0,0,0,0
</data>
 </layer>
 <layer id="3" name="Back" width="4" height="2">
  <data encoding="csv">
296,296,69,296,
0,1140,1140,0
</data>
 </layer>
 <layer id="4" name="Buildings" width="4" height="2">
  <data encoding="csv">
0,0,0,0,
2147483843,261,261,195
</data>
 </layer>
 <layer id="5" name="Front" width="4" height="2">
  <data encoding="csv">
227,0,0,2147483875,
0,0,0,0
</data>
 </layer>
 <layer id="6" name="AlwaysFront" width="4" height="2">
  <data encoding="csv">
0,0,0,0,
0,0,0,0
</data>
 </layer>
</map>
