<?xml version="1.0" encoding="UTF-8"?>
<map version="1.10" tiledversion="1.12.1" orientation="orthogonal" renderorder="right-down" width="4" height="3" tilewidth="16" tileheight="16" infinite="0" nextlayerid="8" nextobjectid="1">
 <tileset firstgid="1" name="paths" tilewidth="16" tileheight="16" tilecount="64" columns="4">
  <image source="paths.png" width="64" height="256"/>
 </tileset>
 <tileset firstgid="65" name="townInterior" tilewidth="16" tileheight="16" tilecount="2176" columns="32">
  <image source="townInterior.png" width="512" height="1088"/>
 </tileset>
 <tileset firstgid="2241" name="townInterior_2" tilewidth="16" tileheight="16" tilecount="1312" columns="32">
  <image source="townInterior_2.png" width="512" height="656"/>
 </tileset>
 <layer id="7" name="Paths" width="4" height="3">
  <data encoding="csv">
0,0,0,0,
0,0,0,0,
0,0,0,0
</data>
 </layer>
 <layer id="3" name="Back" width="4" height="3">
  <data encoding="csv">
0,0,0,0,
0,1108,1108,0,
0,1108,1108,0
</data>
 </layer>
 <layer id="4" name="Buildings" width="4" height="3">
  <data encoding="csv">
3031,1140,1140,3031,
3031,0,0,3031,
177,0,0,177
</data>
 </layer>
 <layer id="5" name="Front" width="4" height="3">
  <data encoding="csv">
220,0,0,219,
252,0,0,251,
0,0,0,0
</data>
 </layer>
 <layer id="6" name="AlwaysFront" width="4" height="3">
  <data encoding="csv">
0,0,0,0,
0,0,0,0,
0,0,0,0
</data>
 </layer>
</map>
