<?xml version="1.0" encoding="UTF-8"?>
<map version="1.10" tiledversion="1.11.2" orientation="orthogonal" renderorder="right-down" compressionlevel="0" width="20" height="13" tilewidth="16" tileheight="16" infinite="0" nextlayerid="15" nextobjectid="9">
<properties>
<property name="AmbientLight" value="100 100 45"/>
<property name="Warp" value="3 1 MagicStardew_AsharaHouse 27 15 4 1 MagicStardew_AsharaHouse 27 15"/>
</properties>
<tileset firstgid="1" name="paths" tilewidth="16" tileheight="16" tilecount="64" columns="4">
<image source="paths" width="64" height="256"/>
</tileset>
<tileset firstgid="65" name="untitled tile sheet" tilewidth="16" tileheight="16" tilecount="2176" columns="32">
<image source="townInterior" width="512" height="1088"/>
</tileset>
<tileset firstgid="2241" name="MagicStardew" tilewidth="16" tileheight="16" tilecount="2244" columns="33">
<image source="MagicStardew.png" width="528" height="1088"/>
<tile id="0">
<animation>
<frame tileid="636" duration="300"/>
<frame tileid="638" duration="300"/>
<frame tileid="640" duration="300"/>
<frame tileid="642" duration="300"/>
</animation>
</tile>
<tile id="597">
<animation>
<frame tileid="597" duration="300"/>
<frame tileid="598" duration="300"/>
<frame tileid="599" duration="300"/>
<frame tileid="600" duration="300"/>
</animation>
</tile>
<tile id="603">
<animation>
<frame tileid="603" duration="300"/>
<frame tileid="605" duration="300"/>
<frame tileid="607" duration="300"/>
<frame tileid="609" duration="300"/>
<frame tileid="611" duration="300"/>
<frame tileid="613" duration="300"/>
<frame tileid="615" duration="300"/>
<frame tileid="617" duration="300"/>
<frame tileid="619" duration="300"/>
<frame tileid="669" duration="300"/>
<frame tileid="671" duration="300"/>
<frame tileid="673" duration="300"/>
</animation>
</tile>
<tile id="604">
<animation>
<frame tileid="604" duration="300"/>
<frame tileid="606" duration="300"/>
<frame tileid="608" duration="300"/>
<frame tileid="610" duration="300"/>
<frame tileid="612" duration="300"/>
<frame tileid="614" duration="300"/>
<frame tileid="616" duration="300"/>
<frame tileid="618" duration="300"/>
<frame tileid="620" duration="300"/>
<frame tileid="670" duration="300"/>
<frame tileid="672" duration="300"/>
<frame tileid="674" duration="300"/>
</animation>
</tile>
<tile id="630">
<animation>
<frame tileid="630" duration="300"/>
<frame tileid="631" duration="300"/>
<frame tileid="632" duration="300"/>
<frame tileid="633" duration="300"/>
</animation>
</tile>
<tile id="636">
<animation>
<frame tileid="636" duration="300"/>
<frame tileid="638" duration="300"/>
<frame tileid="640" duration="300"/>
<frame tileid="642" duration="300"/>
<frame tileid="644" duration="300"/>
<frame tileid="646" duration="300"/>
<frame tileid="648" duration="300"/>
<frame tileid="650" duration="300"/>
<frame tileid="652" duration="300"/>
<frame tileid="702" duration="300"/>
<frame tileid="704" duration="300"/>
<frame tileid="706" duration="300"/>
</animation>
</tile>
<tile id="637">
<animation>
<frame tileid="637" duration="300"/>
<frame tileid="639" duration="300"/>
<frame tileid="641" duration="300"/>
<frame tileid="643" duration="300"/>
<frame tileid="645" duration="300"/>
<frame tileid="647" duration="300"/>
<frame tileid="649" duration="300"/>
<frame tileid="651" duration="300"/>
<frame tileid="653" duration="300"/>
<frame tileid="703" duration="300"/>
<frame tileid="705" duration="300"/>
<frame tileid="707" duration="300"/>
</animation>
</tile>
</tileset>
<layer id="1" name="Back" width="20" height="13">
<data encoding="csv">
0,0,0,0,0,0,0,0,0,0,0,0,0,0,0,0,0,0,0,0,
0,0,0,1108,1108,0,0,0,0,0,0,0,0,0,0,0,0,0,0,0,
0,0,0,1108,1108,0,0,0,0,0,0,0,0,0,0,0,0,0,0,0,
0,2836,2837,1108,1108,2836,2837,2836,2837,2836,2837,2836,2837,2836,2837,2836,2837,2836,2837,0,
0,2869,2870,1140,1140,2869,2870,2869,2870,2869,2870,2869,2870,2869,2870,2869,2870,2869,2870,0,
0,2902,2903,1062,1775,2902,2287,2287,2287,2287,2903,2287,2903,2902,2903,2902,2287,2902,2903,0,
0,993,1062,1063,1779,1775,1062,1062,1062,1062,1775,1062,1062,1062,1062,1775,1062,1062,1060,0,
0,1063,1063,1779,1063,1063,1062,1063,1063,1063,1779,1062,1063,1063,1063,1063,1062,1063,1063,0,
0,1063,1063,1063,1063,1063,1063,1063,1063,1063,1063,1063,1063,1063,1063,1063,1063,931,1063,0,
0,1063,1063,931,1063,1063,1063,1063,1063,1063,1063,1779,1063,1063,1063,1063,1063,1063,1063,0,
0,1063,1063,1063,1063,1063,1063,931,1063,1063,1063,1063,1063,1063,1063,931,1063,1063,1063,0,
0,1779,1779,1063,1063,1063,1063,1063,1063,1779,1063,1063,1063,931,1063,1063,1063,1063,1063,0,
0,931,1063,1063,1063,1779,1063,1063,1063,1063,931,1063,1063,1063,1063,1063,1063,1063,1063,0
</data>
</layer>
<layer id="13" name="Back2" width="20" height="13">
<properties>
<property name="Draw" value="Back"/>
</properties>
<data encoding="csv">
0,0,0,0,0,0,0,0,0,0,0,0,0,0,0,0,0,0,0,0,
0,0,0,0,0,0,0,0,0,0,0,0,0,0,0,0,0,0,0,0,
0,0,0,0,0,0,0,0,0,0,0,0,0,0,0,0,0,0,0,0,
0,0,0,0,0,2256,0,0,0,0,0,0,0,0,0,0,0,0,0,0,
0,0,0,0,0,2289,0,0,0,0,0,0,0,0,0,0,0,0,0,0,
0,0,0,0,0,2322,0,0,0,0,0,0,0,0,0,0,0,0,0,0,
0,0,0,0,0,0,0,0,0,0,0,0,0,0,0,0,0,0,0,0,
0,0,0,0,0,0,0,0,0,0,0,0,0,0,0,0,0,0,0,0,
0,0,0,0,0,0,0,0,0,0,0,0,0,0,0,0,2931,2932,2933,0,
0,0,0,0,0,0,0,0,0,0,0,0,0,0,0,0,2964,2965,2966,0,
0,0,0,0,0,0,0,0,0,0,0,0,0,0,0,0,2997,2998,2999,0,
0,0,0,0,0,0,0,0,0,0,0,0,0,0,0,0,0,0,0,0,
0,0,0,0,0,0,0,0,0,0,0,0,0,0,0,0,0,0,0,0
</data>
</layer>
<layer id="2" name="Buildings" width="20" height="13">
<data encoding="csv">
0,0,0,0,0,0,0,0,0,0,0,0,0,0,0,0,0,0,0,0,
0,0,0,0,0,0,0,0,0,0,0,0,0,0,0,0,0,0,0,0,
0,2968,3167,0,0,3166,2969,2969,2969,2969,2969,2969,2969,2969,2969,2969,2191,2969,2970,0,
3000,3005,2257,0,0,0,0,0,0,0,0,0,0,0,0,0,2223,0,3007,3004,
3033,2253,2290,0,0,2254,2254,2254,2254,2254,2254,2254,2254,2254,2254,2254,2254,2254,2255,3037,
3033,2286,2323,0,0,2995,2287,2287,2995,2287,2287,2287,2287,2287,2287,2287,2222,2287,2288,3037,
3033,2319,0,0,0,2994,0,0,2994,0,0,0,2955,2895,2896,2897,2221,0,2321,3037,
3033,0,0,0,0,0,0,0,0,0,0,0,0,2928,2939,2930,0,0,0,3037,
3033,0,0,0,0,0,0,0,0,0,0,0,0,0,0,0,0,0,0,3037,
3033,0,0,0,0,3103,0,0,0,0,0,0,0,0,0,0,0,0,0,3037,
3033,0,0,0,0,3103,0,0,0,0,0,0,0,0,0,0,0,0,0,3037,
3033,0,0,0,0,0,0,0,0,0,2383,2384,2384,2384,2384,2384,2384,2384,2385,3037,
65,65,65,65,65,65,65,65,65,65,65,65,65,65,65,65,65,65,65,65
</data>
</layer>
<layer id="11" name="Buildings2" width="20" height="13">
<properties>
<property name="Draw" value="Buildings"/>
</properties>
<data encoding="csv">
0,0,0,0,0,0,0,0,0,0,0,0,0,0,0,0,0,0,0,0,
0,0,0,0,0,0,0,0,0,0,0,0,0,0,0,0,0,0,0,0,
0,0,0,0,0,0,0,0,0,0,0,0,0,0,0,0,0,0,0,0,
0,0,0,0,0,0,0,0,0,0,0,0,0,0,0,0,0,0,0,0,
0,0,0,0,0,0,0,0,0,0,0,0,0,0,0,0,0,0,0,0,
0,0,0,0,0,0,0,0,0,0,2844,2845,2922,0,0,0,0,0,0,0,
0,0,0,0,0,0,0,0,0,0,0,2878,0,0,2904,0,0,0,0,0,
0,0,0,0,0,0,0,0,0,0,0,0,0,0,0,0,0,0,0,0,
0,0,0,0,0,0,0,0,0,0,0,0,0,0,0,0,0,0,0,0,
0,0,0,0,0,0,0,0,0,0,0,0,0,0,0,0,0,0,0,0,
0,0,0,0,0,0,0,0,0,0,0,0,0,0,0,0,0,0,0,0,
0,0,0,0,0,0,0,0,0,0,0,0,0,0,0,0,0,0,0,0,
0,0,0,0,0,0,0,0,0,0,0,0,0,0,0,0,0,0,0,0
</data>
</layer>
<layer id="3" name="Front" width="20" height="13">
<data encoding="csv">
0,65,65,65,65,65,65,0,0,0,0,0,0,0,0,0,0,0,0,0,
0,65,2972,2973,2973,2974,65,0,0,0,0,0,0,0,0,0,0,0,0,0,
0,0,0,0,0,2961,0,0,2963,0,0,0,0,0,0,0,0,0,0,0,
0,0,0,0,0,2996,0,0,2996,2916,2917,2918,2919,2920,0,0,0,0,0,0,
0,0,0,0,0,2962,0,0,2962,2949,2950,2951,2952,2953,0,0,2190,0,0,0,
0,0,0,0,0,0,0,0,0,0,2842,2843,0,2862,2863,2864,0,0,0,0,
0,0,0,0,0,0,0,0,0,0,2875,2876,0,0,0,0,0,0,0,0,
0,0,0,0,0,0,0,0,0,0,0,0,0,0,0,0,0,0,0,0,
0,0,0,0,0,3070,0,0,3070,0,0,0,0,0,0,0,0,0,0,0,
0,0,0,0,0,3103,0,0,3103,0,0,0,0,0,0,0,0,0,0,0,
0,0,0,0,0,3103,0,0,3103,0,0,0,0,0,0,0,0,0,0,0,
3066,3169,3169,3169,3138,3099,3133,3138,3099,3133,3169,3169,3169,3169,3169,3169,3169,3169,3169,3101,
65,65,65,65,65,65,65,65,65,65,65,65,65,65,65,65,65,65,65,65
</data>
</layer>
<layer id="4" name="Paths" width="20" height="13">
<data encoding="csv">
0,0,0,0,0,0,0,0,0,0,0,0,0,0,0,0,0,0,0,0,
0,0,0,0,0,0,0,0,0,0,0,0,0,0,0,0,0,0,0,0,
0,0,0,9,0,9,0,0,9,0,0,0,0,0,0,0,9,0,0,0,
0,0,0,0,9,0,9,9,0,0,0,0,0,0,0,0,0,0,0,0,
0,0,0,0,0,0,0,0,0,0,0,0,0,0,0,0,0,0,0,0,
0,0,0,9,0,0,9,9,0,0,9,9,0,0,0,0,9,0,0,0,
0,0,0,0,0,0,0,0,0,0,0,0,0,0,0,0,0,0,0,0,
0,0,0,0,9,0,0,0,0,0,0,0,0,0,0,0,0,0,0,0,
0,0,0,0,0,0,0,0,0,0,0,0,0,0,0,0,0,0,0,0,
0,0,0,0,0,0,0,0,0,0,0,0,0,0,0,0,0,0,0,0,
0,0,0,0,0,0,0,0,0,0,0,0,0,0,0,0,0,0,0,0,
0,0,0,0,0,0,0,0,0,0,0,0,0,0,0,0,0,0,0,0,
0,0,0,0,0,0,0,0,0,0,0,0,0,0,0,0,0,0,0,0
</data>
</layer>
<layer id="5" name="AlwaysFront" width="20" height="13">
<data encoding="csv">
0,65,65,65,65,65,65,0,0,0,0,0,0,0,0,0,0,0,0,0,
0,65,2972,2973,2973,2838,65,0,2838,0,0,0,0,0,0,0,2838,0,0,0,
0,0,0,0,0,2871,0,0,2871,0,0,0,0,0,0,0,2871,0,0,0,
0,0,0,0,0,0,0,0,0,0,0,0,0,0,0,0,0,0,0,0,
0,0,0,0,0,0,0,0,0,0,0,0,0,0,0,0,0,0,0,0,
0,0,0,0,0,0,0,0,0,0,0,0,0,0,0,0,0,0,0,0,
0,0,0,0,0,0,0,0,0,0,2921,0,0,0,0,0,0,0,0,0,
0,0,0,0,0,0,0,0,0,0,0,0,0,0,0,0,0,0,0,0,
0,0,0,0,0,0,0,0,0,0,0,0,0,0,0,0,0,0,0,0,
0,0,0,0,0,0,0,0,0,0,0,0,0,0,0,0,0,0,0,0,
0,0,0,0,0,0,0,0,0,0,0,0,0,0,0,0,0,0,0,0,
0,0,0,0,0,0,0,0,0,0,0,0,0,0,0,0,0,0,0,0,
0,0,0,0,0,0,0,0,0,0,0,0,0,0,0,0,0,0,0,0
</data>
</layer>
<objectgroup id="6" name="Back"/>
<objectgroup id="14" name="Back2">
<properties>
<property name="Draw" value="Back"/>
</properties>
</objectgroup>
<objectgroup id="7" name="Buildings"/>
<objectgroup id="12" name="Buildings2">
<properties>
<property name="Draw" value="Buildings"/>
</properties>
</objectgroup>
<objectgroup id="8" name="Front"/>
<objectgroup id="9" name="Paths"/>
<objectgroup id="10" name="AlwaysFront"/>
</map>
