<?xml version="1.0" encoding="UTF-8"?>
<map version="1.10" tiledversion="1.12.2" orientation="orthogonal" renderorder="right-down" width="33" height="22" tilewidth="16" tileheight="16" infinite="0" nextlayerid="12" nextobjectid="5">
 <properties>
  <property name="AmbientLight" value="255 255 255"/>
  <property name="Music" value="Lava_Ambient"/>
 </properties>
 <tileset firstgid="1" name="Werdon_Forge_Tiles" tilewidth="16" tileheight="16" tilecount="200" columns="20">
  <image source="Werdon_Forge_Tiles.png" width="320" height="160"/>
  <tile id="11">
   <animation>
    <frame tileid="11" duration="200"/>
    <frame tileid="12" duration="200"/>
    <frame tileid="13" duration="200"/>
    <frame tileid="14" duration="200"/>
    <frame tileid="15" duration="200"/>
    <frame tileid="16" duration="200"/>
    <frame tileid="17" duration="200"/>
    <frame tileid="18" duration="200"/>
    <frame tileid="19" duration="200"/>
   </animation>
  </tile>
  <tile id="35">
   <animation>
    <frame tileid="35" duration="200"/>
    <frame tileid="36" duration="200"/>
    <frame tileid="37" duration="200"/>
    <frame tileid="38" duration="200"/>
    <frame tileid="39" duration="200"/>
    <frame tileid="31" duration="200"/>
    <frame tileid="32" duration="200"/>
    <frame tileid="33" duration="200"/>
    <frame tileid="34" duration="200"/>
   </animation>
  </tile>
  <tile id="52">
   <animation>
    <frame tileid="75" duration="8200"/>
    <frame tileid="52" duration="100"/>
    <frame tileid="53" duration="100"/>
    <frame tileid="54" duration="100"/>
    <frame tileid="55" duration="100"/>
    <frame tileid="56" duration="100"/>
    <frame tileid="57" duration="100"/>
    <frame tileid="58" duration="100"/>
    <frame tileid="59" duration="100"/>
   </animation>
  </tile>
  <tile id="143">
   <animation>
    <frame tileid="143" duration="200"/>
    <frame tileid="144" duration="200"/>
    <frame tileid="145" duration="200"/>
    <frame tileid="146" duration="200"/>
    <frame tileid="147" duration="200"/>
    <frame tileid="148" duration="200"/>
   </animation>
  </tile>
  <tile id="163">
   <animation>
    <frame tileid="163" duration="200"/>
    <frame tileid="164" duration="200"/>
    <frame tileid="165" duration="200"/>
    <frame tileid="166" duration="200"/>
    <frame tileid="167" duration="200"/>
    <frame tileid="168" duration="200"/>
   </animation>
  </tile>
  <tile id="183">
   <animation>
    <frame tileid="183" duration="200"/>
    <frame tileid="184" duration="200"/>
    <frame tileid="185" duration="200"/>
    <frame tileid="186" duration="200"/>
    <frame tileid="187" duration="200"/>
    <frame tileid="188" duration="200"/>
   </animation>
  </tile>
 </tileset>
 <layer id="1" name="Back" width="33" height="22">
  <data encoding="csv">
10,10,10,10,10,10,10,10,10,10,10,10,10,10,10,10,10,10,10,10,10,10,10,10,10,10,10,10,10,10,10,10,10,
10,3,4,3,3,3,5,3,3,3,4,3,3,3,5,3,76,3,3,3,3,3,3,3,3,76,5,0,0,0,0,0,10,
105,23,26,23,25,23,23,23,26,23,25,23,23,23,25,26,23,23,23,23,26,23,25,23,23,23,26,25,23,23,23,26,107,
105,0,0,0,0,0,0,45,0,0,0,0,0,0,0,0,43,0,0,12,36,43,12,0,0,43,0,0,0,0,0,0,107,
105,27,109,109,109,109,109,27,27,27,27,27,27,27,27,28,141,142,143,12,36,12,36,141,142,143,68,27,27,27,27,27,10,
105,27,109,109,27,27,109,27,68,27,27,27,27,27,27,68,161,162,163,12,36,12,36,161,162,163,27,27,28,27,27,68,10,
105,27,27,27,27,27,129,27,27,27,27,27,27,27,27,27,161,162,163,12,36,12,36,161,162,163,27,27,27,27,27,27,10,
0,68,27,27,27,27,27,27,27,27,27,27,27,27,27,27,161,162,163,12,36,12,36,161,162,163,27,27,27,27,27,27,10,
0,28,27,27,27,27,27,27,27,27,68,27,27,27,27,27,161,162,163,12,36,12,36,161,162,163,27,27,27,68,27,27,10,
105,27,27,27,27,27,27,28,27,27,27,27,27,27,27,27,161,162,163,12,36,12,36,161,162,163,27,27,27,27,27,27,10,
105,27,27,27,27,27,27,27,27,27,27,27,27,27,27,27,161,162,191,142,142,142,142,190,162,163,61,27,27,27,27,27,10,
105,27,27,27,27,27,27,27,27,27,27,27,27,27,27,27,161,162,162,162,162,162,162,162,162,163,27,27,28,27,27,27,10,
0,68,27,27,27,27,27,27,68,27,27,27,27,27,27,27,161,162,162,162,162,162,162,162,162,163,27,27,27,27,27,27,10,
105,27,27,27,27,27,27,27,27,27,27,27,27,27,27,61,161,162,123,182,182,182,182,122,162,163,27,68,27,27,27,27,10,
105,27,27,27,27,27,27,27,27,27,27,27,27,27,27,27,161,162,163,12,36,12,36,161,162,163,27,27,27,27,27,27,10,
105,27,27,27,27,27,27,27,27,27,27,27,27,27,28,27,161,162,163,12,36,12,36,161,162,163,27,27,27,27,27,68,10,
105,27,27,27,27,27,27,27,27,27,27,27,27,27,27,27,161,162,163,12,36,12,36,161,162,163,27,27,27,27,27,27,10,
105,27,28,27,68,27,27,27,27,27,27,27,27,27,27,27,161,162,163,12,36,12,36,161,162,163,27,68,27,27,27,27,10,
105,27,27,27,27,27,27,27,27,27,27,27,68,27,27,27,161,162,163,12,36,12,36,161,162,163,27,27,27,27,28,27,10,
10,27,0,48,48,48,27,27,27,27,27,27,27,27,27,27,27,27,27,12,36,12,36,27,27,27,27,27,27,27,27,27,10,
0,0,0,48,48,48,10,10,10,10,10,10,10,10,10,10,10,10,10,10,10,10,10,10,10,10,10,10,10,10,10,10,10,
10,10,10,0,0,0,10,10,10,10,10,10,10,10,10,10,10,10,10,10,10,10,10,10,10,10,10,10,10,10,10,10,10
</data>
 </layer>
 <layer id="2" name="Buildings" width="33" height="22">
  <data encoding="csv">
0,0,0,0,0,0,0,0,0,0,0,0,0,0,0,0,0,0,0,0,0,0,0,0,0,0,0,0,0,0,0,0,0,
0,0,0,0,0,0,0,8,0,0,0,0,0,0,0,0,0,0,0,0,0,0,0,0,0,0,0,0,0,0,0,0,0,
0,0,0,0,0,0,0,0,0,0,0,0,0,0,0,0,0,0,0,0,0,144,0,0,0,0,0,0,0,0,0,0,0,
0,44,43,43,43,44,43,183,43,43,43,43,43,43,44,44,0,43,43,43,43,164,44,43,43,0,43,43,44,43,43,43,0,
0,72,94,0,0,0,0,90,173,174,174,174,174,174,175,0,67,62,72,103,104,0,106,72,94,67,72,176,0,0,176,72,107,
0,177,115,115,180,151,0,110,193,194,194,194,194,194,195,0,0,0,0,12,0,0,12,0,0,0,0,176,0,0,176,94,107,
0,197,198,199,200,128,0,130,0,0,0,0,0,0,0,0,0,0,0,12,0,0,12,0,0,0,0,176,0,0,176,0,107,
105,0,0,0,0,0,0,0,0,0,0,173,174,175,0,0,0,0,0,12,0,0,12,0,0,0,0,196,0,0,196,0,107,
105,0,0,0,0,0,0,0,0,0,0,193,194,195,0,0,0,0,0,12,0,0,12,0,0,0,0,0,0,0,0,0,107,
0,173,174,174,175,0,0,0,0,0,0,0,0,0,0,0,0,0,0,12,36,103,104,0,0,0,0,0,0,0,0,0,107,
0,173,174,174,175,0,0,173,174,174,174,174,174,175,0,93,0,0,0,0,0,0,0,0,0,0,91,92,0,0,176,0,107,
0,193,194,194,195,0,0,193,194,194,194,194,194,195,0,0,0,0,0,0,0,0,0,0,0,0,0,0,0,0,176,0,107,
105,0,0,0,0,0,0,0,0,0,0,0,0,0,0,0,0,0,0,0,0,0,0,0,0,0,0,0,0,0,176,0,107,
0,176,0,0,0,0,0,0,0,0,0,0,0,0,0,111,0,0,0,0,0,0,0,0,0,0,93,0,0,0,196,0,107,
0,176,0,0,173,174,174,174,174,174,174,174,174,175,0,131,0,0,0,12,36,12,12,0,0,0,0,0,0,0,0,0,107,
0,176,0,0,193,194,194,194,194,194,194,194,194,195,0,0,0,0,0,12,0,0,12,0,0,0,0,0,0,0,0,0,107,
0,176,0,0,0,0,0,0,0,0,0,0,0,0,0,0,0,0,0,12,0,0,12,0,0,0,0,0,173,175,0,0,107,
0,176,0,0,0,0,0,0,0,0,0,0,0,0,0,0,0,0,0,12,0,0,12,0,0,0,0,0,193,195,0,0,107,
0,176,0,0,0,0,0,173,174,174,174,175,0,173,174,174,174,175,0,103,104,0,12,0,0,135,136,0,0,0,0,95,107,
0,196,10,0,0,0,10,10,10,10,10,10,10,10,10,10,10,10,10,10,10,10,10,10,10,10,10,10,10,10,10,10,0,
0,0,10,0,0,0,10,0,0,0,0,0,0,0,0,0,0,0,0,0,0,10,10,0,0,0,0,0,0,0,0,0,0,
0,0,0,73,74,75,0,0,0,0,0,0,0,0,0,0,0,0,0,0,0,0,0,0,0,0,0,0,0,0,0,0,0
</data>
 </layer>
 <layer id="3" name="Front" width="33" height="22">
  <data encoding="csv">
0,0,0,0,0,0,0,0,0,0,0,0,0,0,0,0,0,0,0,0,0,0,0,0,0,0,0,0,0,0,0,0,0,
85,138,139,138,139,138,139,76,138,139,138,139,138,139,138,139,0,138,139,138,139,138,139,138,139,0,138,139,138,139,138,139,87,
0,158,159,158,159,158,159,181,158,159,158,159,158,159,158,159,181,158,159,158,159,124,159,158,159,181,158,159,158,159,158,159,0,
0,52,0,0,0,47,0,47,153,154,154,154,154,154,155,0,183,0,52,83,84,0,0,52,0,183,52,156,0,0,156,52,0,
0,157,0,0,140,88,89,0,0,0,0,0,0,0,0,0,0,0,0,0,0,184,0,0,0,0,0,0,0,0,0,0,0,
0,0,178,179,0,0,0,0,0,0,0,0,0,0,0,0,0,0,0,0,0,0,0,0,0,0,0,0,0,0,0,0,0,
0,0,0,0,0,0,0,0,0,0,0,153,154,155,0,0,0,0,0,0,0,0,0,0,0,0,0,0,0,0,0,0,0,
0,0,0,0,0,0,0,0,0,0,0,0,0,0,0,0,0,0,0,0,0,0,0,0,0,0,0,0,0,0,0,0,0,
0,153,154,154,155,0,0,0,0,0,0,0,0,0,0,0,0,0,0,0,0,83,84,0,0,0,0,0,0,0,0,0,0,
0,0,0,0,0,0,0,153,154,154,154,154,154,155,0,0,0,0,0,0,0,0,0,0,0,0,0,0,0,0,156,0,0,
0,0,0,0,0,0,0,0,0,0,0,0,0,0,0,0,0,0,0,0,0,0,0,0,0,0,0,0,0,0,0,0,0,
0,0,0,0,0,0,0,0,0,0,0,0,0,0,0,0,0,0,0,0,0,0,0,0,0,0,0,0,0,0,0,0,0,
0,156,0,0,0,0,0,0,0,0,0,0,0,0,0,0,0,0,0,0,0,0,0,0,0,0,0,0,0,0,0,0,0,
0,0,0,0,153,154,154,154,154,154,154,154,154,155,0,0,0,0,0,0,0,0,0,0,0,0,0,0,0,0,0,0,0,
0,0,0,0,0,0,0,0,0,0,0,0,0,0,0,0,0,0,0,0,0,0,0,0,0,0,0,0,0,0,0,0,0,
0,0,0,0,0,0,0,0,0,0,0,0,0,0,0,0,0,0,0,0,0,0,0,0,0,0,0,0,153,155,0,0,0,
0,0,0,0,0,0,0,0,0,0,0,0,0,0,0,0,0,0,0,0,0,0,0,0,0,0,0,0,0,0,0,0,0,
0,0,0,0,0,0,0,153,154,154,154,155,0,153,154,154,154,155,0,83,84,0,0,0,0,0,0,0,0,0,0,0,0,
0,0,0,0,0,0,0,0,0,0,0,0,0,0,0,0,0,0,0,0,0,0,0,0,0,0,0,0,0,0,0,0,0,
125,126,126,87,0,85,126,126,126,126,74,126,126,126,126,126,126,126,126,126,126,126,126,126,126,126,126,126,126,126,126,126,127,
10,10,0,64,0,63,0,10,10,10,10,10,10,10,10,10,10,10,10,10,10,10,10,10,10,10,10,10,10,10,10,10,0,
0,0,0,0,0,0,0,0,0,0,0,0,0,0,0,0,0,0,0,0,0,0,0,0,0,0,0,0,0,0,0,0,0
</data>
 </layer>
 <layer id="11" name="AlwaysFront" width="33" height="22">
  <data encoding="csv">
0,0,0,0,0,0,0,0,0,0,0,0,0,0,0,0,0,0,0,0,0,0,0,0,0,0,0,0,0,0,0,0,0,
0,0,0,0,0,0,0,0,0,0,0,0,0,0,0,0,0,0,0,0,0,0,0,0,0,0,0,0,0,0,0,0,0,
0,0,0,0,0,0,0,0,0,0,0,0,0,0,0,0,0,0,0,0,0,158,0,0,0,0,0,0,0,0,0,0,0,
0,0,0,0,0,47,0,0,0,0,0,0,0,0,0,0,0,0,0,0,0,0,0,0,0,0,0,0,0,0,0,0,0,
0,0,0,0,0,88,89,90,0,0,0,0,0,0,0,0,0,0,0,0,0,0,0,0,0,0,0,0,0,0,0,0,0,
0,0,0,0,0,0,0,0,0,0,0,0,0,0,0,0,0,0,0,0,0,0,0,0,0,0,0,0,0,0,0,0,0,
0,0,0,0,0,0,0,0,0,0,0,0,0,0,0,0,0,0,0,0,0,0,0,0,0,0,0,0,0,0,0,0,0,
0,0,0,0,0,0,0,0,0,0,0,0,0,0,0,0,0,0,0,0,0,0,0,0,0,0,0,0,0,0,0,0,0,
0,0,0,0,0,0,0,0,0,0,0,0,0,0,0,0,0,0,0,0,0,0,0,0,0,0,0,0,0,0,0,0,0,
0,0,0,0,0,0,0,0,0,0,0,0,0,0,0,0,0,0,0,0,0,0,0,0,0,0,0,0,0,0,0,0,0,
0,0,0,0,0,0,0,0,0,0,0,0,0,0,0,0,0,0,0,0,0,0,0,0,0,0,0,0,0,0,0,0,0,
0,0,0,0,0,0,0,0,0,0,0,0,0,0,0,0,0,0,0,0,0,0,0,0,0,0,0,0,0,0,0,0,0,
0,0,0,0,0,0,0,0,0,0,0,0,0,0,0,0,0,0,0,0,0,0,0,0,0,0,0,0,0,0,0,0,0,
0,0,0,0,0,0,0,0,0,0,0,0,0,0,0,0,0,0,0,0,0,0,0,0,0,0,0,0,0,0,0,0,0,
0,0,0,0,0,0,0,0,0,0,0,0,0,0,0,0,0,0,0,0,0,0,0,0,0,0,0,0,0,0,0,0,0,
0,0,0,0,0,0,0,0,0,0,0,0,0,0,0,0,0,0,0,0,0,0,0,0,0,0,0,0,0,0,0,0,0,
0,0,0,0,0,0,0,0,0,0,0,0,0,0,0,0,0,0,0,0,0,0,0,0,0,0,0,0,0,0,0,0,0,
0,0,0,0,0,0,0,0,0,0,0,0,0,0,0,0,0,0,0,0,0,0,0,0,0,0,0,0,0,0,0,0,0,
0,0,0,0,0,0,0,0,0,0,0,0,0,0,0,0,0,0,0,0,0,0,0,0,0,0,0,0,0,0,0,0,0,
0,0,0,0,0,0,0,0,0,0,0,0,0,0,0,0,0,0,0,0,0,0,0,0,0,0,0,0,0,0,0,0,0,
0,0,0,0,0,0,0,0,0,0,0,0,0,0,0,0,0,0,0,0,0,0,0,0,0,0,0,0,0,0,0,0,0,
0,0,0,0,0,0,0,0,0,0,0,0,0,0,0,0,0,0,0,0,0,0,0,0,0,0,0,0,0,0,0,0,0
</data>
 </layer>
</map>
