<?xml version="1.0" encoding="UTF-8"?>
<map version="1.10" tiledversion="1.12.2" orientation="orthogonal" renderorder="right-down" width="14" height="21" tilewidth="16" tileheight="16" infinite="0" nextlayerid="12" nextobjectid="5">
 <properties>
  <property name="AmbientLight" value="255 255 255"/>
  <property name="Music" value="Lava_Ambient"/>
 </properties>
 <tileset firstgid="1" name="Werdon_Forge_Tiles" tilewidth="16" tileheight="16" tilecount="200" columns="20">
  <image source="Werdon_Forge_Tiles.png" width="320" height="160"/>
  <tile id="11">
   <animation>
    <frame tileid="11" duration="200"/>
    <frame tileid="12" duration="200"/>
    <frame tileid="13" duration="200"/>
    <frame tileid="14" duration="200"/>
    <frame tileid="15" duration="200"/>
    <frame tileid="16" duration="200"/>
    <frame tileid="17" duration="200"/>
    <frame tileid="18" duration="200"/>
    <frame tileid="19" duration="200"/>
   </animation>
  </tile>
  <tile id="35">
   <animation>
    <frame tileid="35" duration="200"/>
    <frame tileid="36" duration="200"/>
    <frame tileid="37" duration="200"/>
    <frame tileid="38" duration="200"/>
    <frame tileid="39" duration="200"/>
    <frame tileid="31" duration="200"/>
    <frame tileid="32" duration="200"/>
    <frame tileid="33" duration="200"/>
    <frame tileid="34" duration="200"/>
   </animation>
  </tile>
  <tile id="52">
   <animation>
    <frame tileid="75" duration="8200"/>
    <frame tileid="52" duration="100"/>
    <frame tileid="53" duration="100"/>
    <frame tileid="54" duration="100"/>
    <frame tileid="55" duration="100"/>
    <frame tileid="56" duration="100"/>
    <frame tileid="57" duration="100"/>
    <frame tileid="58" duration="100"/>
    <frame tileid="59" duration="100"/>
   </animation>
  </tile>
  <tile id="143">
   <animation>
    <frame tileid="143" duration="200"/>
    <frame tileid="144" duration="200"/>
    <frame tileid="145" duration="200"/>
    <frame tileid="146" duration="200"/>
    <frame tileid="147" duration="200"/>
    <frame tileid="148" duration="200"/>
   </animation>
  </tile>
  <tile id="163">
   <animation>
    <frame tileid="163" duration="200"/>
    <frame tileid="164" duration="200"/>
    <frame tileid="165" duration="200"/>
    <frame tileid="166" duration="200"/>
    <frame tileid="167" duration="200"/>
    <frame tileid="168" duration="200"/>
   </animation>
  </tile>
  <tile id="183">
   <animation>
    <frame tileid="183" duration="200"/>
    <frame tileid="184" duration="200"/>
    <frame tileid="185" duration="200"/>
    <frame tileid="186" duration="200"/>
    <frame tileid="187" duration="200"/>
    <frame tileid="188" duration="200"/>
   </animation>
  </tile>
 </tileset>
 <layer id="1" name="Back" width="14" height="21">
  <data encoding="csv">
10,10,10,10,10,10,0,0,10,10,10,10,10,10,
10,11,30,30,30,78,78,79,78,30,30,30,9,10,
10,31,122,50,50,98,98,99,98,50,50,122,29,10,
105,51,70,70,70,118,118,119,118,70,70,70,49,107,
105,12,36,12,36,12,170,171,36,12,36,12,36,107,
10,142,142,142,142,142,190,191,142,142,142,142,142,10,
10,162,162,162,162,162,162,162,162,162,162,162,162,10,
10,182,182,182,182,182,192,192,182,182,182,182,182,10,
10,109,109,109,109,109,109,109,109,109,109,109,109,10,
10,27,68,27,27,27,129,129,27,27,27,27,27,10,
10,27,27,27,27,27,27,27,27,27,27,68,27,10,
10,27,27,27,27,27,27,27,27,27,27,27,27,10,
10,28,27,27,27,27,27,27,27,27,27,27,27,10,
10,27,27,27,61,27,27,27,27,61,27,27,27,10,
10,27,27,27,27,27,27,27,27,27,27,27,27,10,
10,27,27,27,27,27,27,27,27,27,27,28,27,10,
10,27,68,27,27,27,27,27,27,68,27,27,27,10,
10,27,27,27,61,27,27,27,27,61,27,27,68,10,
10,10,10,10,10,48,48,48,48,10,10,10,10,10,
10,10,10,10,10,48,48,48,48,10,10,10,10,10,
10,10,10,10,10,109,109,109,109,10,10,10,10,10
</data>
 </layer>
 <layer id="2" name="Buildings" width="14" height="21">
  <data encoding="csv">
0,0,0,0,0,0,138,139,0,0,0,0,0,0,
0,0,0,0,0,77,0,0,80,0,0,0,0,0,
85,0,144,0,0,97,0,0,100,0,0,144,0,87,
0,0,164,0,83,117,0,0,120,0,0,164,0,0,
0,71,184,106,103,104,0,0,106,106,106,184,69,0,
105,0,0,0,0,62,0,0,101,102,0,133,134,107,
105,0,0,0,0,0,0,0,0,0,0,0,0,107,
105,0,0,0,0,0,112,112,0,0,0,0,0,107,
105,42,44,43,44,108,132,132,151,46,43,44,41,107,
105,72,0,95,116,128,152,152,130,94,0,0,72,107,
105,0,0,0,0,0,0,0,0,0,0,0,0,107,
105,173,174,174,175,0,0,0,0,0,0,0,176,107,
105,193,194,194,195,0,0,0,0,0,0,0,176,107,
105,135,136,0,111,0,0,0,160,93,0,0,176,107,
105,173,174,175,131,177,115,115,180,0,0,0,176,107,
105,193,194,195,0,197,198,199,200,0,0,0,176,107,
105,0,0,0,0,0,0,0,0,0,0,0,176,107,
105,173,174,175,93,0,0,0,0,91,92,0,176,107,
125,193,194,195,126,0,0,0,0,126,126,126,196,127,
10,10,10,10,10,0,0,0,0,10,10,10,10,10,
0,0,0,0,0,73,74,74,75,0,0,0,0,0
</data>
 </layer>
 <layer id="3" name="Front" width="14" height="21">
  <data encoding="csv">
0,0,0,0,0,76,0,0,76,0,0,0,0,0,
0,0,0,0,0,0,0,0,0,0,0,0,0,0,
85,0,121,0,0,0,0,0,0,0,0,121,0,87,
105,0,0,0,0,84,0,0,0,0,0,0,0,107,
105,0,0,0,0,0,0,0,81,82,0,113,114,107,
105,0,0,0,0,0,0,0,0,0,0,0,0,107,
105,2,3,4,3,7,0,0,8,3,3,3,1,107,
105,22,26,23,23,88,0,0,90,26,25,23,21,107,
105,52,0,0,96,0,0,0,150,0,0,0,52,107,
105,0,0,0,0,0,0,0,0,0,0,0,0,107,
105,153,154,154,155,0,0,0,0,0,0,0,156,107,
105,0,0,0,0,0,0,0,0,0,0,0,0,107,
105,0,0,0,0,0,0,0,140,0,0,0,0,107,
105,153,154,155,0,157,0,0,0,0,0,0,0,107,
105,0,0,0,0,0,178,179,0,0,0,0,0,107,
105,0,0,0,0,0,0,0,0,0,0,0,0,107,
105,153,154,155,0,0,0,0,0,0,0,0,0,107,
105,0,0,0,0,0,0,0,0,0,0,0,0,107,
125,126,126,126,126,87,0,0,85,126,126,126,126,127,
0,0,0,0,0,64,0,0,63,0,0,0,0,0,
0,0,0,0,0,73,74,74,75,0,0,0,0,0
</data>
 </layer>
 <layer id="11" name="AlwaysFront" width="14" height="21">
  <data encoding="csv">
0,0,0,0,0,0,138,139,0,0,0,0,0,0,
0,0,0,0,0,0,158,159,0,0,0,0,0,0,
0,0,0,0,0,0,0,0,0,0,0,0,0,0,
0,0,0,0,0,0,0,0,0,0,0,0,0,0,
0,0,0,0,0,0,0,0,0,0,0,0,0,0,
0,0,0,0,0,0,0,0,0,0,0,0,0,0,
0,0,0,0,0,0,0,0,0,0,0,0,0,0,
0,0,0,0,0,0,89,89,0,0,0,0,0,0,
0,0,0,0,0,0,0,0,0,0,0,0,0,0,
0,0,0,0,0,0,0,0,0,0,0,0,0,0,
0,0,0,0,0,0,0,0,0,0,0,0,0,0,
0,0,0,0,0,0,0,0,0,0,0,0,0,0,
0,0,0,0,0,0,0,0,0,0,0,0,0,0,
0,0,0,0,0,0,0,0,0,0,0,0,0,0,
0,0,0,0,0,0,0,0,0,0,0,0,0,0,
0,0,0,0,0,0,0,0,0,0,0,0,0,0,
0,0,0,0,0,0,0,0,0,0,0,0,0,0,
0,0,0,0,0,0,0,0,0,0,0,0,0,0,
0,0,0,0,0,0,0,0,0,0,0,0,0,0,
0,0,0,0,0,0,0,0,0,0,0,0,0,0,
0,0,0,0,0,0,0,0,0,0,0,0,0,0
</data>
 </layer>
</map>
