<?xml version="1.0" encoding="UTF-8"?>
<map version="1.10" tiledversion="1.10.2" orientation="orthogonal" renderorder="right-down" compressionlevel="0" width="16" height="17" tilewidth="16" tileheight="16" infinite="0" nextlayerid="14" nextobjectid="7">
 <properties>
  <property name="DayTiles" value="Front 5 1 256 Front 5 2 288 Back 5 4 228 Back 5 5 260"/>
  <property name="NightTiles" value="Front 5 1 1253 Front 5 2 1285 Back 5 4 200 Back 5 5 2119"/>
 </properties>
 <tileset firstgid="1" name="p" tilewidth="16" tileheight="16" tilecount="64" columns="4">
  <image source="paths" width="64" height="256"/>
 </tileset>
 <tileset firstgid="65" name="untitled tile sheet" tilewidth="16" tileheight="16" tilecount="2176" columns="32">
  <image source="townInterior" width="512" height="1088"/>
 </tileset>
 <tileset firstgid="2241" name="v15_TownInterior2" tilewidth="16" tileheight="16" tilecount="1312" columns="32">
  <image source="townInterior_2" width="512" height="656"/>
 </tileset>
 <tileset firstgid="3553" name="Festivals" tilewidth="16" tileheight="16" tilecount="1024" columns="32">
  <image source="Festivals.png" width="512" height="512"/>
 </tileset>
 <layer id="1" name="Back" width="16" height="17">
  <data encoding="csv">
0,0,0,0,0,0,0,297,0,0,0,0,0,0,0,0,
0,0,426,426,426,426,426,200,426,426,426,0,0,0,0,0,
0,3225,3226,3226,3226,3226,3226,265,3487,3487,3487,3487,3487,3487,3488,0,
0,3257,3258,3258,3258,3258,3258,297,3519,3519,3519,3519,3519,3519,3520,0,
2570,3289,171,171,171,171,171,329,171,171,171,171,171,171,3552,0,
296,1567,264,265,264,293,264,297,265,264,265,264,265,264,265,297,
328,329,328,329,328,325,296,297,296,297,296,297,296,297,296,297,
296,297,296,297,2183,297,2184,297,296,297,296,297,296,297,329,65,
328,329,328,2216,2215,329,328,329,2184,329,2184,329,2184,297,297,65,
296,296,297,297,296,297,296,297,296,297,296,297,296,297,296,297,
328,328,329,329,328,329,328,329,328,329,328,329,328,329,328,329,
0,2184,297,296,297,296,297,296,297,296,297,296,297,296,297,297,
0,328,329,328,329,328,329,328,329,328,329,328,329,328,329,329,
0,296,297,296,297,296,297,296,297,296,297,296,297,296,297,297,
0,328,329,328,329,328,329,328,329,328,329,328,329,328,329,329,
0,0,0,0,0,0,0,296,0,65,1145,1145,1145,1145,2575,297,
0,0,0,0,0,0,0,0,0,65,328,329,328,329,328,329
</data>
 </layer>
 <layer id="2" name="Back2" width="16" height="17">
  <properties>
   <property name="Draw" value="Back"/>
  </properties>
  <data encoding="csv">
0,0,0,0,0,0,0,0,0,0,0,0,0,0,0,0,
0,0,0,0,0,0,0,0,0,0,0,0,0,0,0,0,
0,0,0,0,0,0,0,0,119,0,0,0,0,0,0,0,
0,0,0,0,0,0,0,0,151,139,139,139,139,139,0,0,
0,0,0,0,0,0,0,0,0,0,0,0,0,0,0,0,
0,0,0,0,0,0,0,0,0,0,0,0,0,2386,2387,0,
0,0,0,0,0,0,2355,2356,2524,2525,2526,2526,2527,2418,2419,0,
0,0,0,0,0,0,0,0,2556,2557,2557,2558,2559,0,0,0,
0,0,3077,3078,3079,3080,3081,0,2556,2557,2558,2558,2559,0,0,0,
0,0,3109,3110,3111,3112,3113,0,2588,2589,2590,2590,2591,0,0,0,
0,0,3173,3142,3143,3144,3177,0,0,0,0,618,0,0,0,0,
0,0,3205,3206,3207,3208,3209,0,0,0,2821,2822,2823,2824,0,0,
0,0,0,0,0,0,0,0,0,0,2853,2854,2855,2856,0,0,
0,0,0,0,0,0,0,0,0,0,2885,2886,2887,2888,0,0,
0,0,0,0,0,0,0,0,0,0,0,0,0,0,0,0,
0,0,0,0,0,0,0,0,0,0,0,0,0,0,0,0,
0,0,0,0,0,0,0,0,0,0,0,0,0,0,0,0
</data>
 </layer>
 <layer id="3" name="Buildings" width="16" height="17">
  <data encoding="csv">
65,65,65,65,65,65,0,0,0,65,65,65,65,65,65,65,
65,0,0,0,0,0,0,0,0,0,0,67,67,67,0,65,
65,2485,0,0,0,0,120,0,659,660,0,0,1946,1947,2486,65,
65,138,139,139,139,139,152,0,691,692,139,139,1978,1979,140,65,
65,170,0,0,171,171,171,0,1488,1489,171,171,1488,1489,172,65,
65,202,1094,1175,0,0,517,0,0,0,0,0,0,0,204,65,
65,0,961,1061,962,0,0,0,0,0,556,556,0,0,1764,65,
65,2771,0,0,0,0,0,0,556,720,721,722,556,0,0,65,
65,2803,0,0,588,588,0,0,0,752,753,754,0,0,0,65,
65,560,0,720,721,722,588,0,0,0,556,3869,0,0,0,65,
65,2771,0,752,753,754,0,0,0,0,0,3901,0,0,560,65,
65,2803,0,0,588,0,0,0,0,0,720,721,722,0,0,65,
65,0,0,0,0,0,0,0,0,0,752,753,754,0,0,65,
65,517,1137,1138,1138,1139,0,0,2829,0,618,0,618,0,517,65,
65,65,65,65,65,65,0,0,0,65,65,65,65,65,65,65,
0,0,0,0,0,0,0,0,0,65,65,65,65,65,65,65,
0,0,0,0,0,0,0,0,0,0,65,65,65,65,65,65
</data>
 </layer>
 <layer id="4" name="Front" width="16" height="17">
  <data encoding="csv">
0,0,0,0,0,0,0,0,0,0,0,0,0,0,0,0,
65,66,75,75,2186,0,75,0,2186,75,67,0,0,0,68,0,
97,106,785,786,409,0,3472,0,0,0,0,0,0,0,108,101,
129,2517,0,0,441,0,3504,0,0,0,2530,2531,0,0,2518,133,
2217,0,0,1143,279,344,1411,0,0,0,2562,2563,0,0,0,133,
129,0,930,0,930,0,0,0,0,0,0,0,0,0,1732,133,
129,2739,0,0,0,0,0,0,0,688,689,690,0,0,0,133,
2217,0,0,0,0,0,0,0,0,0,1127,1413,0,0,0,2218,
129,528,0,688,689,690,0,0,0,0,0,0,0,0,0,133,
129,2739,0,716,431,2147484775,0,0,0,0,0,0,0,0,528,133,
129,1453,0,0,0,0,0,0,0,0,688,689,690,0,0,133,
129,0,0,0,0,0,0,0,2765,0,0,4284,0,0,0,133,
129,1411,1105,1106,1106,1107,0,0,2797,0,0,0,0,0,1411,2218,
225,226,256,0,1524,1556,227,0,2147483875,0,0,0,0,0,0,133,
65,65,65,65,65,65,129,0,2218,0,0,0,0,0,0,0,
65,65,65,65,65,65,161,230,195,0,0,0,0,0,0,0,
65,65,65,65,65,65,65,65,65,0,0,0,0,0,0,0
</data>
 </layer>
 <layer id="5" name="Front2" width="16" height="17">
  <properties>
   <property name="Draw" value="Front"/>
  </properties>
  <data encoding="csv">
0,0,0,0,0,0,74,67,76,0,0,0,0,0,0,0,
0,0,0,0,0,0,259,0,258,0,0,0,0,0,0,0,
0,2487,0,0,0,0,0,0,0,0,2530,2531,0,0,3342,0,
0,2519,0,0,0,0,0,0,0,0,2562,2563,0,0,3374,0,
0,2551,0,0,0,0,0,0,0,0,0,0,0,0,0,0,
0,0,0,0,0,0,0,0,0,0,0,0,0,0,0,0,
0,0,0,0,0,0,0,0,0,2549,2550,0,0,0,0,0,
0,432,0,0,0,0,0,0,0,2581,2582,0,0,0,0,0,
0,0,0,0,0,0,0,0,0,0,0,0,0,0,0,0,
0,0,0,0,0,0,0,0,0,0,0,0,0,0,0,0,
0,0,0,0,0,0,0,0,0,0,0,0,0,0,0,0,
0,0,0,0,0,0,0,0,0,0,0,0,0,0,0,0,
0,0,0,0,0,0,0,0,0,0,0,0,0,0,0,0,
0,0,0,2185,230,230,0,0,0,230,230,230,230,230,231,232,
0,0,0,0,0,0,0,0,0,0,0,0,0,0,0,0,
0,0,0,0,0,0,0,0,0,0,0,0,0,0,0,0,
0,0,0,0,0,0,0,0,0,0,0,0,0,0,0,0
</data>
 </layer>
 <layer id="13" name="AlwaysFront" width="16" height="17">
  <data encoding="csv">
0,0,0,0,0,0,0,0,0,0,0,0,0,0,0,0,
0,0,0,0,0,67,0,0,0,0,0,0,0,0,0,0,
0,0,0,0,0,321,0,0,0,0,3622,1413,0,0,0,0,
0,0,0,0,0,353,0,0,0,0,2328,0,0,0,0,0,
0,0,0,0,0,0,0,0,0,0,0,0,0,0,0,0,
0,0,0,0,0,293,0,0,0,0,0,0,0,0,0,0,
0,0,3805,0,0,325,0,0,0,0,0,0,0,0,0,0,
0,0,3837,0,0,0,0,0,0,0,0,0,0,0,0,0,
0,0,0,0,0,0,0,0,0,0,0,0,0,0,0,0,
0,0,0,0,0,0,0,0,0,0,0,0,0,0,0,0,
0,0,0,0,0,0,0,0,0,0,0,0,0,0,0,0,
0,0,0,0,0,0,0,0,0,0,0,0,3646,0,0,0,
0,0,0,0,0,0,0,0,0,0,0,0,0,0,0,0,
0,0,261,0,0,0,227,0,2147483875,0,0,0,0,0,0,0,
0,0,0,0,0,0,129,0,2218,65,0,0,0,0,0,0,
0,0,0,0,0,65,161,230,195,65,0,0,0,0,0,0,
0,0,0,0,0,65,65,65,65,65,0,0,0,0,0,0
</data>
 </layer>
 <layer id="6" name="Paths" width="16" height="17">
  <data encoding="csv">
0,0,0,0,0,0,0,0,0,0,0,0,0,0,0,0,
0,0,0,0,0,0,0,0,0,0,0,0,0,0,0,0,
0,0,9,0,0,9,0,0,0,0,0,0,0,0,0,0,
0,0,9,0,0,9,0,0,9,9,9,9,9,9,0,0,
0,0,9,0,0,0,9,0,0,0,0,0,0,0,0,0,
0,0,0,0,0,9,0,0,0,0,0,0,0,0,0,0,
0,9,0,0,0,9,0,9,0,0,9,0,0,0,9,0,
0,9,0,0,0,0,0,0,0,9,9,9,0,0,0,0,
0,9,0,0,9,0,0,0,0,0,0,0,0,0,0,0,
0,9,0,9,9,9,0,0,0,0,0,0,0,0,0,0,
0,9,0,0,0,0,0,0,0,0,0,9,0,0,0,0,
0,9,0,0,0,0,0,0,9,0,9,9,9,0,0,0,
0,9,0,0,0,0,0,0,9,0,0,0,0,0,9,0,
0,9,9,9,9,9,0,0,9,0,0,0,0,0,9,0,
0,0,0,0,0,0,0,9,0,0,0,0,0,0,0,0,
0,0,0,0,0,0,0,9,0,0,0,0,0,0,0,0,
0,0,0,0,0,0,0,0,0,0,0,0,0,0,0,0
</data>
 </layer>
 <objectgroup id="7" name="Back"/>
 <objectgroup id="8" name="Back2"/>
 <objectgroup id="9" name="Buildings"/>
 <objectgroup id="10" name="Front"/>
 <objectgroup id="11" name="Front2"/>
 <objectgroup id="12" name="Paths"/>
</map>
