<?xml version="1.0" encoding="UTF-8"?>
<map version="1.10" tiledversion="1.10.2" orientation="orthogonal" renderorder="right-down" compressionlevel="0" width="4" height="3" tilewidth="16" tileheight="16" infinite="0" nextlayerid="11" nextobjectid="1">
 <properties>
  <property name="Outdoors" value="T"/>
  <property name="Warp" value="80 15 BusStop 0 23 80 18 BusStop 0 24 80 16 BusStop 0 23 80 17 BusStop 0 23 40 65 Forest 68 0 41 65 Forest 68 0 42 65 Forest 68 0 40 -1 Backwoods 14 39 41 -1 Backwoods 14 39 34 5 FarmCave 8 11"/>
 </properties>
 <tileset firstgid="1" name="Paths" tilewidth="16" tileheight="16" tilecount="64" columns="4">
  <image source="paths.png" width="64" height="256"/>
 </tileset>
 <tileset firstgid="65" name="Craftables" tilewidth="16" tileheight="16" tilecount="736" columns="8">
  <image source="Craftables.png" width="128" height="1472"/>
 </tileset>
 <tileset firstgid="801" name="editedcrops" tilewidth="16" tileheight="16" tilecount="8" columns="4">
  <image source="editedcrops.png" width="64" height="32"/>
 </tileset>
 <layer id="1" name="Back" width="4" height="3">
  <data encoding="csv">
0,0,0,0,
0,0,0,0,
0,0,0,0
</data>
 </layer>
 <layer id="2" name="Buildings" width="4" height="3">
  <data encoding="csv">
0,0,0,0,
804,801,0,84,
808,805,0,92
</data>
 </layer>
 <layer id="3" name="Paths" width="4" height="3">
  <data encoding="csv">
0,0,0,0,
0,0,0,0,
0,0,8,0
</data>
 </layer>
 <layer id="4" name="Front" width="4" height="3">
  <data encoding="csv">
0,0,0,0,
0,0,0,0,
0,0,0,0
</data>
 </layer>
 <layer id="5" name="AlwaysFront" width="4" height="3">
  <data encoding="csv">
0,0,0,0,
0,0,0,0,
0,0,0,0
</data>
 </layer>
 <objectgroup id="6" name="Back"/>
 <objectgroup id="7" name="Buildings"/>
 <objectgroup id="8" name="Paths"/>
 <objectgroup id="9" name="Front"/>
 <objectgroup id="10" name="AlwaysFront"/>
</map>
