<?xml version="1.0" encoding="UTF-8"?>
<map version="1.10" tiledversion="1.10.2" orientation="orthogonal" renderorder="right-down" compressionlevel="0" width="12" height="15" tilewidth="16" tileheight="16" infinite="0" nextlayerid="17" nextobjectid="51">
 <properties>
  <property name="Fall_Objects" value="T"/>
  <property name="Outdoors" value="T"/>
  <property name="Spring_Objects" value="T"/>
  <property name="Summer_Objects" value="T"/>
  <property name="Winter_Objects" value="T"/>
 </properties>
 <tileset firstgid="1" name="Landscape" tilewidth="16" tileheight="16" tilecount="1975" columns="25">
  <image source="spring_outdoorsTileSheet.png" width="400" height="1264"/>
  <tile id="150">
   <properties>
    <property name="Spawnable" value="T"/>
    <property name="Type" value="Grass"/>
   </properties>
   <animation>
    <frame tileid="150" duration="100"/>
    <frame tileid="420" duration="100"/>
    <frame tileid="421" duration="100"/>
    <frame tileid="422" duration="100"/>
    <frame tileid="423" duration="100"/>
    <frame tileid="420" duration="100"/>
    <frame tileid="150" duration="100"/>
    <frame tileid="150" duration="100"/>
    <frame tileid="150" duration="100"/>
    <frame tileid="150" duration="100"/>
    <frame tileid="150" duration="100"/>
    <frame tileid="150" duration="100"/>
    <frame tileid="150" duration="100"/>
    <frame tileid="150" duration="100"/>
    <frame tileid="150" duration="100"/>
    <frame tileid="150" duration="100"/>
    <frame tileid="150" duration="100"/>
    <frame tileid="150" duration="100"/>
    <frame tileid="150" duration="100"/>
    <frame tileid="150" duration="100"/>
    <frame tileid="150" duration="100"/>
    <frame tileid="150" duration="100"/>
    <frame tileid="150" duration="100"/>
    <frame tileid="150" duration="100"/>
    <frame tileid="150" duration="100"/>
    <frame tileid="150" duration="100"/>
    <frame tileid="150" duration="100"/>
    <frame tileid="150" duration="100"/>
    <frame tileid="150" duration="100"/>
    <frame tileid="150" duration="100"/>
    <frame tileid="150" duration="100"/>
   </animation>
  </tile>
  <tile id="151">
   <properties>
    <property name="Type" value="Grass"/>
   </properties>
   <animation>
    <frame tileid="151" duration="1000"/>
    <frame tileid="152" duration="1000"/>
   </animation>
  </tile>
  <tile id="152">
   <animation>
    <frame tileid="152" duration="1000"/>
    <frame tileid="151" duration="1000"/>
   </animation>
  </tile>
  <tile id="153">
   <properties>
    <property name="Diggable" value="T"/>
    <property name="Type" value="Dirt"/>
   </properties>
  </tile>
  <tile id="156">
   <properties>
    <property name="Spawnable" value="T"/>
    <property name="Type" value="Grass"/>
   </properties>
  </tile>
  <tile id="175">
   <properties>
    <property name="Spawnable" value="T"/>
    <property name="Type" value="Grass"/>
   </properties>
  </tile>
  <tile id="176">
   <properties>
    <property name="Diggable" value="T"/>
    <property name="Type" value="Dirt"/>
   </properties>
  </tile>
  <tile id="177">
   <properties>
    <property name="Type" value="Dirt"/>
   </properties>
  </tile>
  <tile id="178">
   <properties>
    <property name="Type" value="Dirt"/>
   </properties>
  </tile>
  <tile id="179">
   <properties>
    <property name="Type" value="Grass"/>
   </properties>
  </tile>
  <tile id="180">
   <properties>
    <property name="Spawnable" value="T"/>
    <property name="Type" value="Grass"/>
   </properties>
  </tile>
  <tile id="181">
   <properties>
    <property name="Type" value="Dirt"/>
   </properties>
  </tile>
  <tile id="182">
   <properties>
    <property name="Type" value="Dirt"/>
   </properties>
  </tile>
  <tile id="183">
   <animation>
    <frame tileid="183" duration="1000"/>
    <frame tileid="1182" duration="1000"/>
   </animation>
  </tile>
  <tile id="184">
   <animation>
    <frame tileid="184" duration="1000"/>
    <frame tileid="1183" duration="1000"/>
   </animation>
  </tile>
  <tile id="185">
   <animation>
    <frame tileid="185" duration="1000"/>
    <frame tileid="1184" duration="1000"/>
   </animation>
  </tile>
  <tile id="200">
   <properties>
    <property name="Spawnable" value="T"/>
    <property name="Type" value="Grass"/>
   </properties>
  </tile>
  <tile id="202">
   <properties>
    <property name="Type" value="Dirt"/>
   </properties>
  </tile>
  <tile id="203">
   <properties>
    <property name="Type" value="Grass"/>
   </properties>
  </tile>
  <tile id="204">
   <properties>
    <property name="Type" value="Grass"/>
   </properties>
  </tile>
  <tile id="205">
   <properties>
    <property name="Type" value="Grass"/>
   </properties>
  </tile>
  <tile id="206">
   <properties>
    <property name="Diggable" value="T"/>
    <property name="Type" value="Dirt"/>
   </properties>
  </tile>
  <tile id="207">
   <properties>
    <property name="Diggable" value="T"/>
    <property name="Type" value="Dirt"/>
   </properties>
  </tile>
  <tile id="208">
   <animation>
    <frame tileid="208" duration="1000"/>
    <frame tileid="1207" duration="1000"/>
   </animation>
  </tile>
  <tile id="209">
   <properties>
    <property name="Water" value="T"/>
   </properties>
   <animation>
    <frame tileid="209" duration="1000"/>
    <frame tileid="1208" duration="1000"/>
   </animation>
  </tile>
  <tile id="210">
   <animation>
    <frame tileid="210" duration="1000"/>
    <frame tileid="1209" duration="1000"/>
   </animation>
  </tile>
  <tile id="211">
   <animation>
    <frame tileid="211" duration="1000"/>
    <frame tileid="1210" duration="1000"/>
   </animation>
  </tile>
  <tile id="225">
   <properties>
    <property name="Type" value="Dirt"/>
   </properties>
  </tile>
  <tile id="226">
   <properties>
    <property name="Diggable" value="T"/>
    <property name="Type" value="Dirt"/>
   </properties>
  </tile>
  <tile id="227">
   <properties>
    <property name="Diggable" value="T"/>
    <property name="Type" value="Dirt"/>
   </properties>
  </tile>
  <tile id="228">
   <properties>
    <property name="Type" value="Dirt"/>
   </properties>
  </tile>
  <tile id="229">
   <properties>
    <property name="Type" value="Grass"/>
   </properties>
  </tile>
  <tile id="230">
   <properties>
    <property name="Type" value="Grass"/>
   </properties>
  </tile>
  <tile id="231">
   <properties>
    <property name="Diggable" value="T"/>
    <property name="Type" value="Dirt"/>
   </properties>
  </tile>
  <tile id="233">
   <animation>
    <frame tileid="233" duration="1000"/>
    <frame tileid="1232" duration="1000"/>
   </animation>
  </tile>
  <tile id="234">
   <properties>
    <property name="Water" value="T"/>
   </properties>
  </tile>
  <tile id="235">
   <animation>
    <frame tileid="235" duration="1000"/>
    <frame tileid="1290" duration="1000"/>
   </animation>
  </tile>
  <tile id="237">
   <animation>
    <frame tileid="237" duration="1000"/>
    <frame tileid="1291" duration="1000"/>
   </animation>
  </tile>
  <tile id="238">
   <animation>
    <frame tileid="238" duration="1000"/>
    <frame tileid="1292" duration="1000"/>
   </animation>
  </tile>
  <tile id="250">
   <properties>
    <property name="Type" value="Grass"/>
   </properties>
  </tile>
  <tile id="251">
   <properties>
    <property name="Type" value="Dirt"/>
   </properties>
  </tile>
  <tile id="252">
   <properties>
    <property name="Diggable" value="T"/>
    <property name="Type" value="Dirt"/>
   </properties>
  </tile>
  <tile id="253">
   <properties>
    <property name="Type" value="Grass"/>
   </properties>
  </tile>
  <tile id="254">
   <properties>
    <property name="Type" value="Grass"/>
   </properties>
  </tile>
  <tile id="255">
   <properties>
    <property name="Type" value="Grass"/>
   </properties>
  </tile>
  <tile id="256">
   <properties>
    <property name="Type" value="Grass"/>
   </properties>
  </tile>
  <tile id="258">
   <animation>
    <frame tileid="258" duration="1000"/>
    <frame tileid="1257" duration="1000"/>
   </animation>
  </tile>
  <tile id="260">
   <animation>
    <frame tileid="260" duration="1000"/>
    <frame tileid="1315" duration="1000"/>
   </animation>
  </tile>
  <tile id="261">
   <properties>
    <property name="Type" value="Grass"/>
   </properties>
  </tile>
  <tile id="265">
   <properties>
    <property name="Type" value="Dirt"/>
   </properties>
  </tile>
  <tile id="276">
   <properties>
    <property name="Type" value="Grass"/>
   </properties>
  </tile>
  <tile id="277">
   <properties>
    <property name="Type" value="Grass"/>
   </properties>
  </tile>
  <tile id="278">
   <properties>
    <property name="Type" value="Grass"/>
   </properties>
  </tile>
  <tile id="279">
   <properties>
    <property name="Type" value="Grass"/>
   </properties>
  </tile>
  <tile id="281">
   <properties>
    <property name="Type" value="Grass"/>
   </properties>
  </tile>
  <tile id="283">
   <animation>
    <frame tileid="283" duration="1000"/>
    <frame tileid="1312" duration="1000"/>
   </animation>
  </tile>
  <tile id="284">
   <animation>
    <frame tileid="284" duration="1000"/>
    <frame tileid="1313" duration="1000"/>
   </animation>
  </tile>
  <tile id="285">
   <properties>
    <property name="Water" value="T"/>
   </properties>
  </tile>
  <tile id="286">
   <properties>
    <property name="Type" value="Grass"/>
   </properties>
  </tile>
  <tile id="301">
   <properties>
    <property name="Type" value="Grass"/>
   </properties>
  </tile>
  <tile id="302">
   <properties>
    <property name="Type" value="Grass"/>
   </properties>
  </tile>
  <tile id="303">
   <properties>
    <property name="Type" value="Grass"/>
   </properties>
  </tile>
  <tile id="304">
   <properties>
    <property name="Type" value="Grass"/>
   </properties>
  </tile>
  <tile id="305">
   <properties>
    <property name="Type" value="Grass"/>
   </properties>
  </tile>
  <tile id="306">
   <properties>
    <property name="Type" value="Grass"/>
   </properties>
  </tile>
  <tile id="308">
   <properties>
    <property name="Water" value="T"/>
   </properties>
  </tile>
  <tile id="309">
   <properties>
    <property name="Water" value="T"/>
   </properties>
  </tile>
  <tile id="310">
   <properties>
    <property name="Water" value="T"/>
   </properties>
  </tile>
  <tile id="311">
   <properties>
    <property name="Type" value="Grass"/>
   </properties>
  </tile>
  <tile id="312">
   <properties>
    <property name="Type" value="Wood"/>
   </properties>
  </tile>
  <tile id="313">
   <properties>
    <property name="Type" value="Wood"/>
   </properties>
  </tile>
  <tile id="314">
   <properties>
    <property name="Type" value="Wood"/>
   </properties>
  </tile>
  <tile id="325">
   <properties>
    <property name="Type" value="Grass"/>
   </properties>
  </tile>
  <tile id="326">
   <properties>
    <property name="Type" value="Grass"/>
   </properties>
  </tile>
  <tile id="327">
   <properties>
    <property name="Type" value="Grass"/>
   </properties>
  </tile>
  <tile id="328">
   <properties>
    <property name="Type" value="Grass"/>
   </properties>
  </tile>
  <tile id="329">
   <properties>
    <property name="Type" value="Grass"/>
   </properties>
  </tile>
  <tile id="331">
   <properties>
    <property name="Type" value="Grass"/>
   </properties>
  </tile>
  <tile id="332">
   <properties>
    <property name="Type" value="Grass"/>
   </properties>
  </tile>
  <tile id="333">
   <properties>
    <property name="Water" value="T"/>
   </properties>
  </tile>
  <tile id="334">
   <properties>
    <property name="Water" value="T"/>
   </properties>
  </tile>
  <tile id="335">
   <properties>
    <property name="Water" value="T"/>
   </properties>
  </tile>
  <tile id="336">
   <properties>
    <property name="Water" value="T"/>
   </properties>
  </tile>
  <tile id="337">
   <properties>
    <property name="Type" value="Wood"/>
   </properties>
  </tile>
  <tile id="338">
   <properties>
    <property name="Type" value="Wood"/>
   </properties>
  </tile>
  <tile id="339">
   <properties>
    <property name="Type" value="Wood"/>
   </properties>
  </tile>
  <tile id="350">
   <properties>
    <property name="Type" value="Grass"/>
   </properties>
  </tile>
  <tile id="351">
   <properties>
    <property name="Spawnable" value="T"/>
    <property name="Type" value="Grass"/>
   </properties>
  </tile>
  <tile id="352">
   <properties>
    <property name="Type" value="Grass"/>
   </properties>
  </tile>
  <tile id="353">
   <properties>
    <property name="Type" value="Grass"/>
   </properties>
  </tile>
  <tile id="354">
   <properties>
    <property name="Type" value="Grass"/>
   </properties>
  </tile>
  <tile id="355">
   <properties>
    <property name="Type" value="Grass"/>
   </properties>
  </tile>
  <tile id="356">
   <properties>
    <property name="Type" value="Grass"/>
   </properties>
  </tile>
  <tile id="357">
   <properties>
    <property name="Type" value="Grass"/>
   </properties>
  </tile>
  <tile id="375">
   <properties>
    <property name="Type" value="Grass"/>
   </properties>
  </tile>
  <tile id="376">
   <properties>
    <property name="Type" value="Grass"/>
   </properties>
  </tile>
  <tile id="377">
   <properties>
    <property name="Type" value="Grass"/>
   </properties>
  </tile>
  <tile id="378">
   <properties>
    <property name="Type" value="Grass"/>
   </properties>
  </tile>
  <tile id="379">
   <properties>
    <property name="Type" value="Grass"/>
   </properties>
  </tile>
  <tile id="380">
   <properties>
    <property name="Spawnable" value="T"/>
    <property name="Type" value="Grass"/>
   </properties>
  </tile>
  <tile id="381">
   <properties>
    <property name="Type" value="Grass"/>
   </properties>
  </tile>
  <tile id="382">
   <properties>
    <property name="Type" value="Grass"/>
   </properties>
  </tile>
  <tile id="400">
   <properties>
    <property name="Type" value="Grass"/>
   </properties>
  </tile>
  <tile id="401">
   <properties>
    <property name="Type" value="Grass"/>
   </properties>
  </tile>
  <tile id="402">
   <properties>
    <property name="Type" value="Grass"/>
   </properties>
  </tile>
  <tile id="403">
   <properties>
    <property name="Spawnable" value="T"/>
    <property name="Type" value="Grass"/>
   </properties>
  </tile>
  <tile id="404">
   <properties>
    <property name="Type" value="Grass"/>
   </properties>
  </tile>
  <tile id="405">
   <properties>
    <property name="Type" value="Grass"/>
   </properties>
  </tile>
  <tile id="406">
   <properties>
    <property name="Type" value="Grass"/>
   </properties>
  </tile>
  <tile id="407">
   <properties>
    <property name="Type" value="Grass"/>
   </properties>
  </tile>
  <tile id="463">
   <properties>
    <property name="Type" value="Dirt"/>
   </properties>
  </tile>
  <tile id="488">
   <properties>
    <property name="Type" value="Dirt"/>
   </properties>
  </tile>
  <tile id="512">
   <properties>
    <property name="Type" value="Dirt"/>
   </properties>
  </tile>
  <tile id="513">
   <properties>
    <property name="Type" value="Dirt"/>
   </properties>
  </tile>
  <tile id="534">
   <properties>
    <property name="Type" value="Dirt"/>
   </properties>
  </tile>
  <tile id="536">
   <properties>
    <property name="Type" value="Dirt"/>
   </properties>
  </tile>
  <tile id="537">
   <properties>
    <property name="Type" value="Dirt"/>
   </properties>
  </tile>
  <tile id="538">
   <properties>
    <property name="Type" value="Dirt"/>
   </properties>
  </tile>
  <tile id="558">
   <properties>
    <property name="Diggable" value="T"/>
    <property name="Type" value="Dirt"/>
   </properties>
  </tile>
  <tile id="560">
   <properties>
    <property name="Diggable" value="T"/>
    <property name="Type" value="Dirt"/>
   </properties>
  </tile>
  <tile id="561">
   <properties>
    <property name="Type" value="Dirt"/>
   </properties>
  </tile>
  <tile id="562">
   <properties>
    <property name="Type" value="Dirt"/>
   </properties>
  </tile>
  <tile id="563">
   <properties>
    <property name="Type" value="Dirt"/>
   </properties>
  </tile>
  <tile id="564">
   <properties>
    <property name="Diggable" value="T"/>
    <property name="Type" value="Dirt"/>
   </properties>
  </tile>
  <tile id="565">
   <properties>
    <property name="Type" value="Dirt"/>
   </properties>
  </tile>
  <tile id="566">
   <properties>
    <property name="Type" value="Dirt"/>
   </properties>
  </tile>
  <tile id="567">
   <properties>
    <property name="Spawnable" value="T"/>
    <property name="Type" value="Grass"/>
   </properties>
  </tile>
  <tile id="568">
   <properties>
    <property name="Type" value="Grass"/>
   </properties>
  </tile>
  <tile id="569">
   <properties>
    <property name="Spawnable" value="T"/>
    <property name="Type" value="Grass"/>
   </properties>
  </tile>
  <tile id="570">
   <properties>
    <property name="Type" value="Grass"/>
   </properties>
  </tile>
  <tile id="583">
   <properties>
    <property name="Diggable" value="T"/>
    <property name="Type" value="Dirt"/>
   </properties>
  </tile>
  <tile id="585">
   <properties>
    <property name="Diggable" value="T"/>
    <property name="Type" value="Dirt"/>
   </properties>
  </tile>
  <tile id="586">
   <properties>
    <property name="Type" value="Dirt"/>
   </properties>
  </tile>
  <tile id="587">
   <properties>
    <property name="Diggable" value="T"/>
    <property name="Type" value="Dirt"/>
   </properties>
  </tile>
  <tile id="588">
   <properties>
    <property name="Type" value="Dirt"/>
   </properties>
  </tile>
  <tile id="589">
   <properties>
    <property name="Diggable" value="T"/>
    <property name="Type" value="Dirt"/>
   </properties>
  </tile>
  <tile id="590">
   <properties>
    <property name="Type" value="Dirt"/>
   </properties>
  </tile>
  <tile id="591">
   <properties>
    <property name="Type" value="Dirt"/>
   </properties>
  </tile>
  <tile id="592">
   <properties>
    <property name="Type" value="Grass"/>
   </properties>
  </tile>
  <tile id="593">
   <properties>
    <property name="Type" value="Grass"/>
   </properties>
  </tile>
  <tile id="594">
   <properties>
    <property name="Type" value="Grass"/>
   </properties>
  </tile>
  <tile id="595">
   <properties>
    <property name="Type" value="Grass"/>
   </properties>
  </tile>
  <tile id="596">
   <properties>
    <property name="Type" value="Dirt"/>
   </properties>
  </tile>
  <tile id="597">
   <properties>
    <property name="Type" value="Dirt"/>
   </properties>
  </tile>
  <tile id="598">
   <properties>
    <property name="Type" value="Stone"/>
   </properties>
  </tile>
  <tile id="599">
   <properties>
    <property name="Type" value="Stone"/>
   </properties>
  </tile>
  <tile id="606">
   <properties>
    <property name="Diggable" value="T"/>
    <property name="Type" value="Dirt"/>
   </properties>
  </tile>
  <tile id="607">
   <properties>
    <property name="Diggable" value="T"/>
    <property name="Type" value="Dirt"/>
   </properties>
  </tile>
  <tile id="608">
   <properties>
    <property name="Diggable" value="T"/>
    <property name="Type" value="Dirt"/>
   </properties>
  </tile>
  <tile id="610">
   <properties>
    <property name="Diggable" value="T"/>
    <property name="Type" value="Dirt"/>
   </properties>
  </tile>
  <tile id="611">
   <properties>
    <property name="Type" value="Dirt"/>
   </properties>
  </tile>
  <tile id="612">
   <properties>
    <property name="Type" value="Dirt"/>
   </properties>
  </tile>
  <tile id="613">
   <properties>
    <property name="Type" value="Dirt"/>
   </properties>
  </tile>
  <tile id="614">
   <properties>
    <property name="Diggable" value="T"/>
    <property name="Type" value="Dirt"/>
   </properties>
  </tile>
  <tile id="615">
   <properties>
    <property name="Type" value="Dirt"/>
   </properties>
  </tile>
  <tile id="616">
   <properties>
    <property name="Type" value="Dirt"/>
   </properties>
  </tile>
  <tile id="617">
   <properties>
    <property name="Type" value="Dirt"/>
   </properties>
  </tile>
  <tile id="618">
   <properties>
    <property name="Type" value="Dirt"/>
   </properties>
  </tile>
  <tile id="619">
   <properties>
    <property name="Type" value="Grass"/>
   </properties>
  </tile>
  <tile id="620">
   <properties>
    <property name="Type" value="Dirt"/>
   </properties>
  </tile>
  <tile id="621">
   <properties>
    <property name="Type" value="Dirt"/>
   </properties>
  </tile>
  <tile id="622">
   <properties>
    <property name="Type" value="Dirt"/>
   </properties>
  </tile>
  <tile id="623">
   <properties>
    <property name="Type" value="Stone"/>
   </properties>
  </tile>
  <tile id="628">
   <properties>
    <property name="Water" value="T"/>
   </properties>
  </tile>
  <tile id="629">
   <properties>
    <property name="Water" value="T"/>
   </properties>
  </tile>
  <tile id="630">
   <properties>
    <property name="Diggable" value="T"/>
    <property name="Type" value="Dirt"/>
   </properties>
  </tile>
  <tile id="631">
   <properties>
    <property name="Type" value="Dirt"/>
   </properties>
  </tile>
  <tile id="632">
   <properties>
    <property name="Diggable" value="T"/>
    <property name="Type" value="Dirt"/>
   </properties>
  </tile>
  <tile id="633">
   <properties>
    <property name="Type" value="Grass"/>
   </properties>
  </tile>
  <tile id="634">
   <properties>
    <property name="Spawnable" value="T"/>
    <property name="Type" value="Grass"/>
   </properties>
  </tile>
  <tile id="635">
   <properties>
    <property name="Type" value="Dirt"/>
   </properties>
  </tile>
  <tile id="636">
   <properties>
    <property name="Type" value="Dirt"/>
   </properties>
  </tile>
  <tile id="653">
   <properties>
    <property name="Water" value="T"/>
   </properties>
  </tile>
  <tile id="654">
   <properties>
    <property name="Type" value="Grass"/>
   </properties>
  </tile>
  <tile id="655">
   <properties>
    <property name="Type" value="Dirt"/>
   </properties>
  </tile>
  <tile id="656">
   <properties>
    <property name="Type" value="Dirt"/>
   </properties>
  </tile>
  <tile id="657">
   <properties>
    <property name="Type" value="Grass"/>
   </properties>
  </tile>
  <tile id="658">
   <properties>
    <property name="Type" value="Grass"/>
   </properties>
  </tile>
  <tile id="659">
   <properties>
    <property name="Type" value="Grass"/>
   </properties>
  </tile>
  <tile id="679">
   <properties>
    <property name="Type" value="Dirt"/>
   </properties>
  </tile>
  <tile id="680">
   <properties>
    <property name="Diggable" value="T"/>
    <property name="Type" value="Dirt"/>
   </properties>
  </tile>
  <tile id="681">
   <properties>
    <property name="Diggable" value="T"/>
    <property name="Type" value="Dirt"/>
   </properties>
  </tile>
  <tile id="682">
   <properties>
    <property name="Type" value="Dirt"/>
   </properties>
  </tile>
  <tile id="683">
   <properties>
    <property name="Type" value="Grass"/>
   </properties>
  </tile>
  <tile id="684">
   <properties>
    <property name="Type" value="Grass"/>
   </properties>
  </tile>
  <tile id="685">
   <properties>
    <property name="Diggable" value="T"/>
    <property name="Type" value="Dirt"/>
   </properties>
  </tile>
  <tile id="704">
   <properties>
    <property name="Type" value="Grass"/>
   </properties>
  </tile>
  <tile id="705">
   <properties>
    <property name="Type" value="Dirt"/>
   </properties>
  </tile>
  <tile id="706">
   <properties>
    <property name="Diggable" value="T"/>
    <property name="Type" value="Dirt"/>
   </properties>
  </tile>
  <tile id="707">
   <properties>
    <property name="Type" value="Grass"/>
   </properties>
  </tile>
  <tile id="729">
   <properties>
    <property name="Type" value="Wood"/>
   </properties>
  </tile>
  <tile id="730">
   <properties>
    <property name="Type" value="Wood"/>
   </properties>
  </tile>
  <tile id="734">
   <properties>
    <property name="Water" value="T"/>
   </properties>
  </tile>
  <tile id="754">
   <properties>
    <property name="Type" value="Wood"/>
   </properties>
  </tile>
  <tile id="755">
   <properties>
    <property name="Type" value="Wood"/>
   </properties>
  </tile>
  <tile id="759">
   <properties>
    <property name="Water" value="T"/>
   </properties>
  </tile>
  <tile id="779">
   <properties>
    <property name="Passable" value="T"/>
    <property name="Type" value="Wood"/>
   </properties>
  </tile>
  <tile id="780">
   <properties>
    <property name="Passable" value="T"/>
    <property name="Type" value="Wood"/>
   </properties>
  </tile>
  <tile id="781">
   <properties>
    <property name="Passable" value="T"/>
    <property name="Type" value="Wood"/>
   </properties>
  </tile>
  <tile id="782">
   <properties>
    <property name="Passable" value="T"/>
    <property name="Type" value="Wood"/>
   </properties>
  </tile>
  <tile id="809">
   <properties>
    <property name="Passable" value="T"/>
    <property name="Type" value="Wood"/>
   </properties>
  </tile>
  <tile id="812">
   <properties>
    <property name="Type" value="Stone"/>
   </properties>
  </tile>
  <tile id="813">
   <properties>
    <property name="Type" value="Stone"/>
   </properties>
  </tile>
  <tile id="834">
   <properties>
    <property name="Passable" value="T"/>
    <property name="Type" value="Wood"/>
   </properties>
  </tile>
  <tile id="838">
   <properties>
    <property name="Type" value="Stone"/>
   </properties>
  </tile>
  <tile id="859">
   <properties>
    <property name="Passable" value="T"/>
    <property name="Type" value="Wood"/>
   </properties>
  </tile>
  <tile id="884">
   <properties>
    <property name="Passable" value="T"/>
    <property name="Type" value="Wood"/>
   </properties>
  </tile>
  <tile id="947">
   <properties>
    <property name="Type" value="Stone"/>
   </properties>
  </tile>
  <tile id="948">
   <properties>
    <property name="Type" value="Stone"/>
   </properties>
  </tile>
  <tile id="949">
   <properties>
    <property name="Type" value="Stone"/>
   </properties>
  </tile>
  <tile id="972">
   <properties>
    <property name="Type" value="Stone"/>
   </properties>
  </tile>
  <tile id="973">
   <properties>
    <property name="Type" value="Stone"/>
   </properties>
  </tile>
  <tile id="974">
   <properties>
    <property name="Type" value="Stone"/>
   </properties>
  </tile>
  <tile id="998">
   <properties>
    <property name="Type" value="Stone"/>
   </properties>
  </tile>
  <tile id="999">
   <properties>
    <property name="Type" value="Stone"/>
   </properties>
  </tile>
  <tile id="1186">
   <properties>
    <property name="Water" value="T"/>
   </properties>
  </tile>
  <tile id="1187">
   <properties>
    <property name="Water" value="T"/>
   </properties>
  </tile>
  <tile id="1188">
   <properties>
    <property name="Water" value="T"/>
   </properties>
  </tile>
  <tile id="1211">
   <properties>
    <property name="Water" value="T"/>
   </properties>
  </tile>
  <tile id="1212">
   <properties>
    <property name="Water" value="T"/>
   </properties>
  </tile>
  <tile id="1213">
   <properties>
    <property name="Water" value="T"/>
   </properties>
  </tile>
  <tile id="1227">
   <properties>
    <property name="Water" value="T"/>
   </properties>
  </tile>
  <tile id="1228">
   <properties>
    <property name="Water" value="T"/>
   </properties>
  </tile>
  <tile id="1229">
   <properties>
    <property name="Water" value="T"/>
   </properties>
  </tile>
  <tile id="1230">
   <properties>
    <property name="Water" value="T"/>
   </properties>
  </tile>
  <tile id="1231">
   <properties>
    <property name="Water" value="T"/>
   </properties>
  </tile>
  <tile id="1237">
   <properties>
    <property name="Water" value="T"/>
   </properties>
  </tile>
  <tile id="1238">
   <properties>
    <property name="Water" value="T"/>
   </properties>
  </tile>
  <tile id="1239">
   <properties>
    <property name="Water" value="T"/>
   </properties>
  </tile>
  <tile id="1240">
   <properties>
    <property name="Water" value="T"/>
   </properties>
  </tile>
  <tile id="1241">
   <properties>
    <property name="Water" value="T"/>
   </properties>
  </tile>
  <tile id="1242">
   <properties>
    <property name="Water" value="T"/>
   </properties>
  </tile>
  <tile id="1243">
   <properties>
    <property name="Water" value="T"/>
   </properties>
  </tile>
  <tile id="1244">
   <properties>
    <property name="Water" value="T"/>
   </properties>
  </tile>
  <tile id="1245">
   <properties>
    <property name="Water" value="T"/>
   </properties>
  </tile>
  <tile id="1246">
   <properties>
    <property name="Passable" value="F"/>
    <property name="Water" value="T"/>
   </properties>
  </tile>
  <tile id="1247">
   <properties>
    <property name="Water" value="T"/>
   </properties>
  </tile>
  <tile id="1248">
   <properties>
    <property name="Water" value="T"/>
   </properties>
  </tile>
  <tile id="1249">
   <properties>
    <property name="Passable" value="F"/>
    <property name="Water" value="T"/>
   </properties>
  </tile>
  <tile id="1252">
   <properties>
    <property name="Water" value="T"/>
   </properties>
  </tile>
  <tile id="1253">
   <properties>
    <property name="Water" value="T"/>
   </properties>
  </tile>
  <tile id="1254">
   <properties>
    <property name="Water" value="T"/>
   </properties>
  </tile>
  <tile id="1255">
   <properties>
    <property name="Water" value="T"/>
   </properties>
  </tile>
  <tile id="1256">
   <properties>
    <property name="Water" value="T"/>
   </properties>
  </tile>
  <tile id="1263">
   <properties>
    <property name="Water" value="T"/>
   </properties>
  </tile>
  <tile id="1264">
   <properties>
    <property name="Water" value="T"/>
   </properties>
  </tile>
  <tile id="1265">
   <properties>
    <property name="Water" value="T"/>
   </properties>
  </tile>
  <tile id="1266">
   <properties>
    <property name="Passable" value="F"/>
    <property name="Water" value="T"/>
   </properties>
  </tile>
  <tile id="1267">
   <properties>
    <property name="Passable" value="F"/>
    <property name="Water" value="T"/>
   </properties>
  </tile>
  <tile id="1268">
   <properties>
    <property name="Water" value="T"/>
   </properties>
  </tile>
  <tile id="1269">
   <properties>
    <property name="Water" value="T"/>
   </properties>
  </tile>
  <tile id="1270">
   <properties>
    <property name="Water" value="T"/>
   </properties>
  </tile>
  <tile id="1271">
   <properties>
    <property name="Passable" value="F"/>
    <property name="Water" value="T"/>
   </properties>
  </tile>
  <tile id="1272">
   <properties>
    <property name="Water" value="T"/>
   </properties>
  </tile>
  <tile id="1273">
   <properties>
    <property name="Water" value="T"/>
   </properties>
  </tile>
  <tile id="1274">
   <properties>
    <property name="Water" value="T"/>
   </properties>
  </tile>
  <tile id="1277">
   <properties>
    <property name="Water" value="T"/>
   </properties>
  </tile>
  <tile id="1278">
   <properties>
    <property name="Water" value="T"/>
   </properties>
  </tile>
  <tile id="1279">
   <properties>
    <property name="Water" value="T"/>
   </properties>
  </tile>
  <tile id="1280">
   <properties>
    <property name="Water" value="T"/>
   </properties>
  </tile>
  <tile id="1281">
   <properties>
    <property name="Water" value="T"/>
   </properties>
  </tile>
  <tile id="1297">
   <properties>
    <property name="Water" value="T"/>
   </properties>
  </tile>
  <tile id="1298">
   <properties>
    <property name="Water" value="T"/>
   </properties>
  </tile>
  <tile id="1299">
   <properties>
    <property name="Passable" value="F"/>
    <property name="Water" value="T"/>
   </properties>
  </tile>
  <tile id="1302">
   <properties>
    <property name="Water" value="T"/>
   </properties>
  </tile>
  <tile id="1303">
   <properties>
    <property name="Water" value="T"/>
   </properties>
  </tile>
  <tile id="1304">
   <properties>
    <property name="Water" value="T"/>
   </properties>
  </tile>
  <tile id="1305">
   <properties>
    <property name="Water" value="T"/>
   </properties>
  </tile>
  <tile id="1306">
   <properties>
    <property name="Water" value="T"/>
   </properties>
  </tile>
  <tile id="1322">
   <properties>
    <property name="Water" value="T"/>
   </properties>
  </tile>
  <tile id="1323">
   <properties>
    <property name="Water" value="T"/>
   </properties>
  </tile>
  <tile id="1324">
   <properties>
    <property name="Water" value="T"/>
   </properties>
  </tile>
 </tileset>
 <tileset firstgid="1976" name="Paths" tilewidth="16" tileheight="16" tilecount="64" columns="4">
  <image source="paths.png" width="64" height="256"/>
  <tile id="35">
   <properties>
    <property name="GreenRain" value="??"/>
   </properties>
  </tile>
 </tileset>
 <tileset firstgid="2040" name="Town" tilewidth="16" tileheight="16" tilecount="2304" columns="32">
  <image source="spring_town.png" width="512" height="1152"/>
  <tile id="45">
   <animation>
    <frame tileid="45" duration="1000"/>
    <frame tileid="45" duration="1000"/>
    <frame tileid="45" duration="1000"/>
    <frame tileid="45" duration="1000"/>
    <frame tileid="45" duration="1000"/>
    <frame tileid="45" duration="1000"/>
    <frame tileid="45" duration="1000"/>
    <frame tileid="45" duration="1000"/>
    <frame tileid="45" duration="1000"/>
    <frame tileid="45" duration="1000"/>
    <frame tileid="45" duration="1000"/>
    <frame tileid="45" duration="1000"/>
    <frame tileid="45" duration="1000"/>
    <frame tileid="45" duration="1000"/>
    <frame tileid="45" duration="1000"/>
    <frame tileid="45" duration="1000"/>
    <frame tileid="45" duration="1000"/>
    <frame tileid="12" duration="1000"/>
   </animation>
  </tile>
  <tile id="159">
   <properties>
    <property name="Passable" value="T"/>
   </properties>
  </tile>
  <tile id="191">
   <properties>
    <property name="Passable" value="T"/>
   </properties>
  </tile>
  <tile id="223">
   <properties>
    <property name="Passable" value="T"/>
   </properties>
  </tile>
  <tile id="608">
   <properties>
    <property name="Type" value="Grass"/>
   </properties>
  </tile>
  <tile id="609">
   <properties>
    <property name="Type" value="Grass"/>
   </properties>
  </tile>
  <tile id="610">
   <properties>
    <property name="Type" value="Grass"/>
   </properties>
  </tile>
  <tile id="611">
   <properties>
    <property name="Type" value="Grass"/>
   </properties>
  </tile>
  <tile id="612">
   <properties>
    <property name="Type" value="Grass"/>
   </properties>
  </tile>
  <tile id="641">
   <properties>
    <property name="Type" value="Stone"/>
   </properties>
  </tile>
  <tile id="644">
   <properties>
    <property name="Type" value="Grass"/>
   </properties>
  </tile>
  <tile id="645">
   <properties>
    <property name="Type" value="Grass"/>
   </properties>
  </tile>
  <tile id="646">
   <properties>
    <property name="Type" value="Stone"/>
   </properties>
  </tile>
  <tile id="672">
   <properties>
    <property name="Type" value="Grass"/>
   </properties>
  </tile>
  <tile id="674">
   <properties>
    <property name="Type" value="Grass"/>
   </properties>
  </tile>
  <tile id="676">
   <properties>
    <property name="Type" value="Stone"/>
   </properties>
  </tile>
  <tile id="736">
   <properties>
    <property name="Type" value="Stone"/>
   </properties>
  </tile>
  <tile id="737">
   <properties>
    <property name="Type" value="Stone"/>
   </properties>
  </tile>
  <tile id="768">
   <properties>
    <property name="Type" value="Stone"/>
   </properties>
  </tile>
  <tile id="769">
   <properties>
    <property name="Type" value="Stone"/>
   </properties>
  </tile>
  <tile id="770">
   <properties>
    <property name="Type" value="Stone"/>
   </properties>
  </tile>
  <tile id="858">
   <properties>
    <property name="Type" value="Stone"/>
   </properties>
  </tile>
  <tile id="859">
   <properties>
    <property name="Type" value="Stone"/>
   </properties>
  </tile>
  <tile id="860">
   <properties>
    <property name="Type" value="Stone"/>
   </properties>
  </tile>
  <tile id="861">
   <properties>
    <property name="Type" value="Stone"/>
   </properties>
  </tile>
  <tile id="862">
   <properties>
    <property name="Type" value="Stone"/>
   </properties>
  </tile>
  <tile id="863">
   <properties>
    <property name="Type" value="Stone"/>
   </properties>
  </tile>
  <tile id="874">
   <properties>
    <property name="Type" value="Stone"/>
   </properties>
  </tile>
  <tile id="890">
   <properties>
    <property name="Type" value="Stone"/>
   </properties>
  </tile>
  <tile id="891">
   <properties>
    <property name="Type" value="Stone"/>
   </properties>
  </tile>
  <tile id="892">
   <properties>
    <property name="Type" value="Stone"/>
   </properties>
  </tile>
  <tile id="893">
   <properties>
    <property name="Type" value="Stone"/>
   </properties>
  </tile>
  <tile id="894">
   <properties>
    <property name="Type" value="Stone"/>
   </properties>
  </tile>
  <tile id="895">
   <properties>
    <property name="Type" value="Stone"/>
   </properties>
  </tile>
  <tile id="901">
   <properties>
    <property name="Type" value="Stone"/>
   </properties>
  </tile>
  <tile id="902">
   <properties>
    <property name="Type" value="Stone"/>
   </properties>
  </tile>
  <tile id="903">
   <properties>
    <property name="Type" value="Stone"/>
   </properties>
  </tile>
  <tile id="904">
   <properties>
    <property name="Type" value="Stone"/>
   </properties>
  </tile>
  <tile id="905">
   <properties>
    <property name="Passable" value="F"/>
   </properties>
  </tile>
  <tile id="909">
   <properties>
    <property name="Type" value="Stone"/>
   </properties>
  </tile>
  <tile id="916">
   <properties>
    <property name="Water" value="T"/>
   </properties>
  </tile>
  <tile id="917">
   <properties>
    <property name="Water" value="T"/>
   </properties>
  </tile>
  <tile id="918">
   <properties>
    <property name="Water" value="T"/>
   </properties>
  </tile>
  <tile id="919">
   <properties>
    <property name="Water" value="T"/>
   </properties>
  </tile>
  <tile id="922">
   <properties>
    <property name="Type" value="Stone"/>
   </properties>
  </tile>
  <tile id="923">
   <properties>
    <property name="Type" value="Stone"/>
   </properties>
  </tile>
  <tile id="924">
   <properties>
    <property name="Type" value="Stone"/>
   </properties>
  </tile>
  <tile id="925">
   <properties>
    <property name="Type" value="Stone"/>
   </properties>
  </tile>
  <tile id="926">
   <properties>
    <property name="Type" value="Stone"/>
   </properties>
  </tile>
  <tile id="927">
   <properties>
    <property name="Type" value="Stone"/>
   </properties>
  </tile>
  <tile id="931">
   <properties>
    <property name="Type" value="Stone"/>
   </properties>
  </tile>
  <tile id="932">
   <properties>
    <property name="Type" value="Stone"/>
   </properties>
  </tile>
  <tile id="933">
   <properties>
    <property name="Type" value="Stone"/>
   </properties>
  </tile>
  <tile id="934">
   <properties>
    <property name="Type" value="Stone"/>
   </properties>
  </tile>
  <tile id="935">
   <properties>
    <property name="Type" value="Stone"/>
   </properties>
  </tile>
  <tile id="936">
   <properties>
    <property name="Type" value="Stone"/>
   </properties>
  </tile>
  <tile id="950">
   <properties>
    <property name="Water" value="T"/>
   </properties>
  </tile>
  <tile id="954">
   <properties>
    <property name="Type" value="Stone"/>
   </properties>
  </tile>
  <tile id="955">
   <properties>
    <property name="Type" value="Stone"/>
   </properties>
  </tile>
  <tile id="956">
   <properties>
    <property name="Type" value="Stone"/>
   </properties>
  </tile>
  <tile id="957">
   <properties>
    <property name="Type" value="Stone"/>
   </properties>
  </tile>
  <tile id="958">
   <properties>
    <property name="Type" value="Stone"/>
   </properties>
  </tile>
  <tile id="959">
   <properties>
    <property name="Type" value="Stone"/>
   </properties>
  </tile>
  <tile id="963">
   <properties>
    <property name="Type" value="Stone"/>
   </properties>
  </tile>
  <tile id="964">
   <properties>
    <property name="Type" value="Stone"/>
   </properties>
  </tile>
  <tile id="965">
   <properties>
    <property name="Type" value="Stone"/>
   </properties>
  </tile>
  <tile id="966">
   <properties>
    <property name="Type" value="Stone"/>
   </properties>
  </tile>
  <tile id="967">
   <properties>
    <property name="Type" value="Stone"/>
   </properties>
  </tile>
  <tile id="968">
   <properties>
    <property name="Type" value="Stone"/>
   </properties>
  </tile>
  <tile id="969">
   <properties>
    <property name="Type" value="Stone"/>
   </properties>
  </tile>
  <tile id="970">
   <properties>
    <property name="Type" value="Stone"/>
   </properties>
  </tile>
  <tile id="986">
   <properties>
    <property name="Type" value="Stone"/>
   </properties>
  </tile>
  <tile id="987">
   <properties>
    <property name="Type" value="Stone"/>
   </properties>
  </tile>
  <tile id="988">
   <properties>
    <property name="Type" value="Stone"/>
   </properties>
  </tile>
  <tile id="989">
   <properties>
    <property name="Type" value="Stone"/>
   </properties>
  </tile>
  <tile id="990">
   <properties>
    <property name="Type" value="Stone"/>
   </properties>
  </tile>
  <tile id="991">
   <properties>
    <property name="Type" value="Stone"/>
   </properties>
  </tile>
  <tile id="993">
   <properties>
    <property name="Type" value="Stone"/>
   </properties>
  </tile>
  <tile id="994">
   <properties>
    <property name="Type" value="Stone"/>
   </properties>
  </tile>
  <tile id="995">
   <properties>
    <property name="Type" value="Stone"/>
   </properties>
  </tile>
  <tile id="996">
   <properties>
    <property name="Type" value="Stone"/>
   </properties>
  </tile>
  <tile id="997">
   <properties>
    <property name="Type" value="Stone"/>
   </properties>
  </tile>
  <tile id="998">
   <properties>
    <property name="Type" value="Stone"/>
   </properties>
  </tile>
  <tile id="999">
   <properties>
    <property name="Type" value="Stone"/>
   </properties>
  </tile>
  <tile id="1000">
   <properties>
    <property name="Type" value="Stone"/>
   </properties>
  </tile>
  <tile id="1007">
   <properties>
    <property name="Type" value="Stone"/>
   </properties>
  </tile>
  <tile id="1008">
   <properties>
    <property name="Type" value="Stone"/>
   </properties>
  </tile>
  <tile id="1018">
   <properties>
    <property name="Type" value="Stone"/>
   </properties>
  </tile>
  <tile id="1019">
   <properties>
    <property name="Type" value="Stone"/>
   </properties>
  </tile>
  <tile id="1020">
   <properties>
    <property name="Type" value="Stone"/>
   </properties>
  </tile>
  <tile id="1021">
   <properties>
    <property name="Type" value="Stone"/>
   </properties>
  </tile>
  <tile id="1022">
   <properties>
    <property name="Type" value="Stone"/>
   </properties>
  </tile>
  <tile id="1023">
   <properties>
    <property name="Type" value="Stone"/>
   </properties>
  </tile>
  <tile id="1031">
   <properties>
    <property name="Type" value="Dirt"/>
   </properties>
  </tile>
  <tile id="1032">
   <properties>
    <property name="Type" value="Dirt"/>
   </properties>
  </tile>
  <tile id="1033">
   <properties>
    <property name="Type" value="Dirt"/>
   </properties>
  </tile>
  <tile id="1037">
   <animation>
    <frame tileid="1037" duration="100"/>
    <frame tileid="1038" duration="100"/>
    <frame tileid="1039" duration="100"/>
    <frame tileid="1039" duration="100"/>
   </animation>
  </tile>
  <tile id="1063">
   <properties>
    <property name="Type" value="Dirt"/>
   </properties>
  </tile>
  <tile id="1064">
   <properties>
    <property name="Type" value="Dirt"/>
   </properties>
  </tile>
  <tile id="1065">
   <properties>
    <property name="Type" value="Dirt"/>
   </properties>
  </tile>
  <tile id="1070">
   <animation>
    <frame tileid="1070" duration="100"/>
    <frame tileid="1101" duration="100"/>
    <frame tileid="1102" duration="100"/>
    <frame tileid="1043" duration="100"/>
   </animation>
  </tile>
  <tile id="1095">
   <properties>
    <property name="Type" value="Dirt"/>
   </properties>
  </tile>
  <tile id="1096">
   <properties>
    <property name="Type" value="Dirt"/>
   </properties>
  </tile>
  <tile id="1097">
   <properties>
    <property name="Type" value="Dirt"/>
   </properties>
  </tile>
  <tile id="1201">
   <animation>
    <frame tileid="1201" duration="100"/>
    <frame tileid="1202" duration="100"/>
    <frame tileid="1203" duration="100"/>
    <frame tileid="1204" duration="100"/>
    <frame tileid="1205" duration="100"/>
    <frame tileid="1206" duration="100"/>
   </animation>
  </tile>
  <tile id="1233">
   <animation>
    <frame tileid="1233" duration="100"/>
    <frame tileid="1234" duration="100"/>
    <frame tileid="1235" duration="100"/>
    <frame tileid="1236" duration="100"/>
    <frame tileid="1237" duration="100"/>
    <frame tileid="1238" duration="100"/>
   </animation>
  </tile>
  <tile id="1249">
   <properties>
    <property name="Shadow" value="T"/>
   </properties>
  </tile>
  <tile id="1265">
   <animation>
    <frame tileid="1265" duration="100"/>
    <frame tileid="1266" duration="100"/>
    <frame tileid="1267" duration="100"/>
    <frame tileid="1268" duration="100"/>
    <frame tileid="1269" duration="100"/>
    <frame tileid="1270" duration="100"/>
   </animation>
  </tile>
  <tile id="1573">
   <properties>
    <property name="Type" value="Stone"/>
   </properties>
  </tile>
  <tile id="1574">
   <properties>
    <property name="Type" value="Stone"/>
   </properties>
  </tile>
  <tile id="1585">
   <properties>
    <property name="Type" value="Stone"/>
   </properties>
  </tile>
  <tile id="1586">
   <properties>
    <property name="Type" value="Stone"/>
   </properties>
  </tile>
  <tile id="1958">
   <properties>
    <property name="Shadow" value="T"/>
   </properties>
  </tile>
 </tileset>
 <tileset firstgid="4344" name="v16_Shadows" tilewidth="16" tileheight="16" tilecount="475" columns="19">
  <image source="spring_Shadows.png" width="304" height="400"/>
 </tileset>
 <tileset firstgid="4819" name="ExtHouse" tilewidth="16" tileheight="16" tilecount="56" columns="7">
  <image source="ExtHouse.png" width="112" height="128"/>
 </tileset>
 <tileset firstgid="4875" name="townInterior" tilewidth="16" tileheight="16" tilecount="2176" columns="32">
  <image source="townInterior.png" width="512" height="1088"/>
 </tileset>
 <tileset firstgid="7051" name="CarolineGreenhouseTiles" tilewidth="16" tileheight="16" tilecount="128" columns="8">
  <image source="CarolineGreenhouseTiles.png" width="128" height="256"/>
 </tileset>
 <tileset firstgid="7179" name="townInterior_2" tilewidth="16" tileheight="16" tilecount="1312" columns="32">
  <image source="townInterior_2.png" width="512" height="656"/>
 </tileset>
 <tileset firstgid="8491" name="Craftables" tilewidth="16" tileheight="16" tilecount="736" columns="8">
  <image source="Craftables.png" width="128" height="1472"/>
 </tileset>
 <tileset firstgid="9227" name="editedcrops" tilewidth="16" tileheight="16" tilecount="8" columns="4">
  <image source="editedcrops.png" width="64" height="32"/>
 </tileset>
 <tileset firstgid="9235" name="bushes" tilewidth="16" tileheight="16" tilecount="176" columns="8">
  <image source="bushes.png" width="128" height="352"/>
 </tileset>
 <tileset firstgid="9411" name="temporary_sprites_1" tilewidth="16" tileheight="16" tilecount="1280" columns="32">
  <image source="temporary_sprites_1.png" width="512" height="640"/>
 </tileset>
 <tileset firstgid="10691" name="Landscape" tilewidth="16" tileheight="16" tilecount="1975" columns="25">
  <image source="spring_outdoorsTileSheet" width="400" height="1264"/>
  <tile id="150">
   <properties>
    <property name="Spawnable" value="T"/>
    <property name="Type" value="Grass"/>
   </properties>
   <animation>
    <frame tileid="150" duration="100"/>
    <frame tileid="420" duration="100"/>
    <frame tileid="421" duration="100"/>
    <frame tileid="422" duration="100"/>
    <frame tileid="423" duration="100"/>
    <frame tileid="420" duration="100"/>
    <frame tileid="150" duration="100"/>
    <frame tileid="150" duration="100"/>
    <frame tileid="150" duration="100"/>
    <frame tileid="150" duration="100"/>
    <frame tileid="150" duration="100"/>
    <frame tileid="150" duration="100"/>
    <frame tileid="150" duration="100"/>
    <frame tileid="150" duration="100"/>
    <frame tileid="150" duration="100"/>
    <frame tileid="150" duration="100"/>
    <frame tileid="150" duration="100"/>
    <frame tileid="150" duration="100"/>
    <frame tileid="150" duration="100"/>
    <frame tileid="150" duration="100"/>
    <frame tileid="150" duration="100"/>
    <frame tileid="150" duration="100"/>
    <frame tileid="150" duration="100"/>
    <frame tileid="150" duration="100"/>
    <frame tileid="150" duration="100"/>
    <frame tileid="150" duration="100"/>
    <frame tileid="150" duration="100"/>
    <frame tileid="150" duration="100"/>
    <frame tileid="150" duration="100"/>
    <frame tileid="150" duration="100"/>
    <frame tileid="150" duration="100"/>
   </animation>
  </tile>
  <tile id="151">
   <properties>
    <property name="Type" value="Grass"/>
   </properties>
   <animation>
    <frame tileid="151" duration="1000"/>
    <frame tileid="152" duration="1000"/>
   </animation>
  </tile>
  <tile id="152">
   <animation>
    <frame tileid="152" duration="1000"/>
    <frame tileid="151" duration="1000"/>
   </animation>
  </tile>
  <tile id="153">
   <properties>
    <property name="Diggable" value="T"/>
    <property name="Type" value="Dirt"/>
   </properties>
  </tile>
  <tile id="156">
   <properties>
    <property name="Spawnable" value="T"/>
    <property name="Type" value="Grass"/>
   </properties>
  </tile>
  <tile id="175">
   <properties>
    <property name="Spawnable" value="T"/>
    <property name="Type" value="Grass"/>
   </properties>
  </tile>
  <tile id="176">
   <properties>
    <property name="Diggable" value="T"/>
    <property name="Type" value="Dirt"/>
   </properties>
  </tile>
  <tile id="177">
   <properties>
    <property name="Type" value="Dirt"/>
   </properties>
  </tile>
  <tile id="178">
   <properties>
    <property name="Type" value="Dirt"/>
   </properties>
  </tile>
  <tile id="179">
   <properties>
    <property name="Type" value="Grass"/>
   </properties>
  </tile>
  <tile id="180">
   <properties>
    <property name="Spawnable" value="T"/>
    <property name="Type" value="Grass"/>
   </properties>
  </tile>
  <tile id="181">
   <properties>
    <property name="Type" value="Dirt"/>
   </properties>
  </tile>
  <tile id="182">
   <properties>
    <property name="Type" value="Dirt"/>
   </properties>
  </tile>
  <tile id="183">
   <animation>
    <frame tileid="183" duration="1000"/>
    <frame tileid="1182" duration="1000"/>
   </animation>
  </tile>
  <tile id="184">
   <animation>
    <frame tileid="184" duration="1000"/>
    <frame tileid="1183" duration="1000"/>
   </animation>
  </tile>
  <tile id="185">
   <animation>
    <frame tileid="185" duration="1000"/>
    <frame tileid="1184" duration="1000"/>
   </animation>
  </tile>
  <tile id="200">
   <properties>
    <property name="Spawnable" value="T"/>
    <property name="Type" value="Grass"/>
   </properties>
  </tile>
  <tile id="202">
   <properties>
    <property name="Type" value="Dirt"/>
   </properties>
  </tile>
  <tile id="203">
   <properties>
    <property name="Type" value="Grass"/>
   </properties>
  </tile>
  <tile id="204">
   <properties>
    <property name="Type" value="Grass"/>
   </properties>
  </tile>
  <tile id="205">
   <properties>
    <property name="Type" value="Grass"/>
   </properties>
  </tile>
  <tile id="206">
   <properties>
    <property name="Diggable" value="T"/>
    <property name="Type" value="Dirt"/>
   </properties>
  </tile>
  <tile id="207">
   <properties>
    <property name="Diggable" value="T"/>
    <property name="Type" value="Dirt"/>
   </properties>
  </tile>
  <tile id="208">
   <animation>
    <frame tileid="208" duration="1000"/>
    <frame tileid="1207" duration="1000"/>
   </animation>
  </tile>
  <tile id="209">
   <properties>
    <property name="Water" value="T"/>
   </properties>
   <animation>
    <frame tileid="209" duration="1000"/>
    <frame tileid="1208" duration="1000"/>
   </animation>
  </tile>
  <tile id="210">
   <animation>
    <frame tileid="210" duration="1000"/>
    <frame tileid="1209" duration="1000"/>
   </animation>
  </tile>
  <tile id="211">
   <animation>
    <frame tileid="211" duration="1000"/>
    <frame tileid="1210" duration="1000"/>
   </animation>
  </tile>
  <tile id="225">
   <properties>
    <property name="Type" value="Dirt"/>
   </properties>
  </tile>
  <tile id="226">
   <properties>
    <property name="Diggable" value="T"/>
    <property name="Type" value="Dirt"/>
   </properties>
  </tile>
  <tile id="227">
   <properties>
    <property name="Diggable" value="T"/>
    <property name="Type" value="Dirt"/>
   </properties>
  </tile>
  <tile id="228">
   <properties>
    <property name="Type" value="Dirt"/>
   </properties>
  </tile>
  <tile id="229">
   <properties>
    <property name="Type" value="Grass"/>
   </properties>
  </tile>
  <tile id="230">
   <properties>
    <property name="Type" value="Grass"/>
   </properties>
  </tile>
  <tile id="231">
   <properties>
    <property name="Diggable" value="T"/>
    <property name="Type" value="Dirt"/>
   </properties>
  </tile>
  <tile id="233">
   <animation>
    <frame tileid="233" duration="1000"/>
    <frame tileid="1232" duration="1000"/>
   </animation>
  </tile>
  <tile id="234">
   <properties>
    <property name="Water" value="T"/>
   </properties>
  </tile>
  <tile id="235">
   <animation>
    <frame tileid="235" duration="1000"/>
    <frame tileid="1290" duration="1000"/>
   </animation>
  </tile>
  <tile id="237">
   <animation>
    <frame tileid="237" duration="1000"/>
    <frame tileid="1291" duration="1000"/>
   </animation>
  </tile>
  <tile id="238">
   <animation>
    <frame tileid="238" duration="1000"/>
    <frame tileid="1292" duration="1000"/>
   </animation>
  </tile>
  <tile id="250">
   <properties>
    <property name="Type" value="Grass"/>
   </properties>
  </tile>
  <tile id="251">
   <properties>
    <property name="Type" value="Dirt"/>
   </properties>
  </tile>
  <tile id="252">
   <properties>
    <property name="Diggable" value="T"/>
    <property name="Type" value="Dirt"/>
   </properties>
  </tile>
  <tile id="253">
   <properties>
    <property name="Type" value="Grass"/>
   </properties>
  </tile>
  <tile id="254">
   <properties>
    <property name="Type" value="Grass"/>
   </properties>
  </tile>
  <tile id="255">
   <properties>
    <property name="Type" value="Grass"/>
   </properties>
  </tile>
  <tile id="256">
   <properties>
    <property name="Type" value="Grass"/>
   </properties>
  </tile>
  <tile id="258">
   <animation>
    <frame tileid="258" duration="1000"/>
    <frame tileid="1257" duration="1000"/>
   </animation>
  </tile>
  <tile id="260">
   <animation>
    <frame tileid="260" duration="1000"/>
    <frame tileid="1315" duration="1000"/>
   </animation>
  </tile>
  <tile id="261">
   <properties>
    <property name="Type" value="Grass"/>
   </properties>
  </tile>
  <tile id="265">
   <properties>
    <property name="Type" value="Dirt"/>
   </properties>
  </tile>
  <tile id="276">
   <properties>
    <property name="Type" value="Grass"/>
   </properties>
  </tile>
  <tile id="277">
   <properties>
    <property name="Type" value="Grass"/>
   </properties>
  </tile>
  <tile id="278">
   <properties>
    <property name="Type" value="Grass"/>
   </properties>
  </tile>
  <tile id="279">
   <properties>
    <property name="Type" value="Grass"/>
   </properties>
  </tile>
  <tile id="281">
   <properties>
    <property name="Type" value="Grass"/>
   </properties>
  </tile>
  <tile id="283">
   <animation>
    <frame tileid="283" duration="1000"/>
    <frame tileid="1312" duration="1000"/>
   </animation>
  </tile>
  <tile id="284">
   <animation>
    <frame tileid="284" duration="1000"/>
    <frame tileid="1313" duration="1000"/>
   </animation>
  </tile>
  <tile id="285">
   <properties>
    <property name="Water" value="T"/>
   </properties>
  </tile>
  <tile id="286">
   <properties>
    <property name="Type" value="Grass"/>
   </properties>
  </tile>
  <tile id="301">
   <properties>
    <property name="Type" value="Grass"/>
   </properties>
  </tile>
  <tile id="302">
   <properties>
    <property name="Type" value="Grass"/>
   </properties>
  </tile>
  <tile id="303">
   <properties>
    <property name="Type" value="Grass"/>
   </properties>
  </tile>
  <tile id="304">
   <properties>
    <property name="Type" value="Grass"/>
   </properties>
  </tile>
  <tile id="305">
   <properties>
    <property name="Type" value="Grass"/>
   </properties>
  </tile>
  <tile id="306">
   <properties>
    <property name="Type" value="Grass"/>
   </properties>
  </tile>
  <tile id="308">
   <properties>
    <property name="Water" value="T"/>
   </properties>
  </tile>
  <tile id="309">
   <properties>
    <property name="Water" value="T"/>
   </properties>
  </tile>
  <tile id="310">
   <properties>
    <property name="Water" value="T"/>
   </properties>
  </tile>
  <tile id="311">
   <properties>
    <property name="Type" value="Grass"/>
   </properties>
  </tile>
  <tile id="312">
   <properties>
    <property name="Type" value="Wood"/>
   </properties>
  </tile>
  <tile id="313">
   <properties>
    <property name="Type" value="Wood"/>
   </properties>
  </tile>
  <tile id="314">
   <properties>
    <property name="Type" value="Wood"/>
   </properties>
  </tile>
  <tile id="325">
   <properties>
    <property name="Type" value="Grass"/>
   </properties>
  </tile>
  <tile id="326">
   <properties>
    <property name="Type" value="Grass"/>
   </properties>
  </tile>
  <tile id="327">
   <properties>
    <property name="Type" value="Grass"/>
   </properties>
  </tile>
  <tile id="328">
   <properties>
    <property name="Type" value="Grass"/>
   </properties>
  </tile>
  <tile id="329">
   <properties>
    <property name="Type" value="Grass"/>
   </properties>
  </tile>
  <tile id="331">
   <properties>
    <property name="Type" value="Grass"/>
   </properties>
  </tile>
  <tile id="332">
   <properties>
    <property name="Type" value="Grass"/>
   </properties>
  </tile>
  <tile id="333">
   <properties>
    <property name="Water" value="T"/>
   </properties>
  </tile>
  <tile id="334">
   <properties>
    <property name="Water" value="T"/>
   </properties>
  </tile>
  <tile id="335">
   <properties>
    <property name="Water" value="T"/>
   </properties>
  </tile>
  <tile id="336">
   <properties>
    <property name="Water" value="T"/>
   </properties>
  </tile>
  <tile id="337">
   <properties>
    <property name="Type" value="Wood"/>
   </properties>
  </tile>
  <tile id="338">
   <properties>
    <property name="Type" value="Wood"/>
   </properties>
  </tile>
  <tile id="339">
   <properties>
    <property name="Type" value="Wood"/>
   </properties>
  </tile>
  <tile id="350">
   <properties>
    <property name="Type" value="Grass"/>
   </properties>
  </tile>
  <tile id="351">
   <properties>
    <property name="Spawnable" value="T"/>
    <property name="Type" value="Grass"/>
   </properties>
  </tile>
  <tile id="352">
   <properties>
    <property name="Type" value="Grass"/>
   </properties>
  </tile>
  <tile id="353">
   <properties>
    <property name="Type" value="Grass"/>
   </properties>
  </tile>
  <tile id="354">
   <properties>
    <property name="Type" value="Grass"/>
   </properties>
  </tile>
  <tile id="355">
   <properties>
    <property name="Type" value="Grass"/>
   </properties>
  </tile>
  <tile id="356">
   <properties>
    <property name="Type" value="Grass"/>
   </properties>
  </tile>
  <tile id="357">
   <properties>
    <property name="Type" value="Grass"/>
   </properties>
  </tile>
  <tile id="375">
   <properties>
    <property name="Type" value="Grass"/>
   </properties>
  </tile>
  <tile id="376">
   <properties>
    <property name="Type" value="Grass"/>
   </properties>
  </tile>
  <tile id="377">
   <properties>
    <property name="Type" value="Grass"/>
   </properties>
  </tile>
  <tile id="378">
   <properties>
    <property name="Type" value="Grass"/>
   </properties>
  </tile>
  <tile id="379">
   <properties>
    <property name="Type" value="Grass"/>
   </properties>
  </tile>
  <tile id="380">
   <properties>
    <property name="Spawnable" value="T"/>
    <property name="Type" value="Grass"/>
   </properties>
  </tile>
  <tile id="381">
   <properties>
    <property name="Type" value="Grass"/>
   </properties>
  </tile>
  <tile id="382">
   <properties>
    <property name="Type" value="Grass"/>
   </properties>
  </tile>
  <tile id="400">
   <properties>
    <property name="Type" value="Grass"/>
   </properties>
  </tile>
  <tile id="401">
   <properties>
    <property name="Type" value="Grass"/>
   </properties>
  </tile>
  <tile id="402">
   <properties>
    <property name="Type" value="Grass"/>
   </properties>
  </tile>
  <tile id="403">
   <properties>
    <property name="Spawnable" value="T"/>
    <property name="Type" value="Grass"/>
   </properties>
  </tile>
  <tile id="404">
   <properties>
    <property name="Type" value="Grass"/>
   </properties>
  </tile>
  <tile id="405">
   <properties>
    <property name="Type" value="Grass"/>
   </properties>
  </tile>
  <tile id="406">
   <properties>
    <property name="Type" value="Grass"/>
   </properties>
  </tile>
  <tile id="407">
   <properties>
    <property name="Type" value="Grass"/>
   </properties>
  </tile>
  <tile id="463">
   <properties>
    <property name="Type" value="Dirt"/>
   </properties>
  </tile>
  <tile id="488">
   <properties>
    <property name="Type" value="Dirt"/>
   </properties>
  </tile>
  <tile id="512">
   <properties>
    <property name="Type" value="Dirt"/>
   </properties>
  </tile>
  <tile id="513">
   <properties>
    <property name="Type" value="Dirt"/>
   </properties>
  </tile>
  <tile id="534">
   <properties>
    <property name="Type" value="Dirt"/>
   </properties>
  </tile>
  <tile id="536">
   <properties>
    <property name="Type" value="Dirt"/>
   </properties>
  </tile>
  <tile id="537">
   <properties>
    <property name="Type" value="Dirt"/>
   </properties>
  </tile>
  <tile id="538">
   <properties>
    <property name="Type" value="Dirt"/>
   </properties>
  </tile>
  <tile id="558">
   <properties>
    <property name="Diggable" value="T"/>
    <property name="Type" value="Dirt"/>
   </properties>
  </tile>
  <tile id="560">
   <properties>
    <property name="Diggable" value="T"/>
    <property name="Type" value="Dirt"/>
   </properties>
  </tile>
  <tile id="561">
   <properties>
    <property name="Type" value="Dirt"/>
   </properties>
  </tile>
  <tile id="562">
   <properties>
    <property name="Type" value="Dirt"/>
   </properties>
  </tile>
  <tile id="563">
   <properties>
    <property name="Type" value="Dirt"/>
   </properties>
  </tile>
  <tile id="564">
   <properties>
    <property name="Diggable" value="T"/>
    <property name="Type" value="Dirt"/>
   </properties>
  </tile>
  <tile id="565">
   <properties>
    <property name="Type" value="Dirt"/>
   </properties>
  </tile>
  <tile id="566">
   <properties>
    <property name="Type" value="Dirt"/>
   </properties>
  </tile>
  <tile id="567">
   <properties>
    <property name="Spawnable" value="T"/>
    <property name="Type" value="Grass"/>
   </properties>
  </tile>
  <tile id="568">
   <properties>
    <property name="Type" value="Grass"/>
   </properties>
  </tile>
  <tile id="569">
   <properties>
    <property name="Spawnable" value="T"/>
    <property name="Type" value="Grass"/>
   </properties>
  </tile>
  <tile id="570">
   <properties>
    <property name="Type" value="Grass"/>
   </properties>
  </tile>
  <tile id="583">
   <properties>
    <property name="Diggable" value="T"/>
    <property name="Type" value="Dirt"/>
   </properties>
  </tile>
  <tile id="585">
   <properties>
    <property name="Diggable" value="T"/>
    <property name="Type" value="Dirt"/>
   </properties>
  </tile>
  <tile id="586">
   <properties>
    <property name="Type" value="Dirt"/>
   </properties>
  </tile>
  <tile id="587">
   <properties>
    <property name="Diggable" value="T"/>
    <property name="Type" value="Dirt"/>
   </properties>
  </tile>
  <tile id="588">
   <properties>
    <property name="Type" value="Dirt"/>
   </properties>
  </tile>
  <tile id="589">
   <properties>
    <property name="Diggable" value="T"/>
    <property name="Type" value="Dirt"/>
   </properties>
  </tile>
  <tile id="590">
   <properties>
    <property name="Type" value="Dirt"/>
   </properties>
  </tile>
  <tile id="591">
   <properties>
    <property name="Type" value="Dirt"/>
   </properties>
  </tile>
  <tile id="592">
   <properties>
    <property name="Type" value="Grass"/>
   </properties>
  </tile>
  <tile id="593">
   <properties>
    <property name="Type" value="Grass"/>
   </properties>
  </tile>
  <tile id="594">
   <properties>
    <property name="Type" value="Grass"/>
   </properties>
  </tile>
  <tile id="595">
   <properties>
    <property name="Type" value="Grass"/>
   </properties>
  </tile>
  <tile id="596">
   <properties>
    <property name="Type" value="Dirt"/>
   </properties>
  </tile>
  <tile id="597">
   <properties>
    <property name="Type" value="Dirt"/>
   </properties>
  </tile>
  <tile id="598">
   <properties>
    <property name="Type" value="Stone"/>
   </properties>
  </tile>
  <tile id="599">
   <properties>
    <property name="Type" value="Stone"/>
   </properties>
  </tile>
  <tile id="606">
   <properties>
    <property name="Diggable" value="T"/>
    <property name="Type" value="Dirt"/>
   </properties>
  </tile>
  <tile id="607">
   <properties>
    <property name="Diggable" value="T"/>
    <property name="Type" value="Dirt"/>
   </properties>
  </tile>
  <tile id="608">
   <properties>
    <property name="Diggable" value="T"/>
    <property name="Type" value="Dirt"/>
   </properties>
  </tile>
  <tile id="610">
   <properties>
    <property name="Diggable" value="T"/>
    <property name="Type" value="Dirt"/>
   </properties>
  </tile>
  <tile id="611">
   <properties>
    <property name="Type" value="Dirt"/>
   </properties>
  </tile>
  <tile id="612">
   <properties>
    <property name="Type" value="Dirt"/>
   </properties>
  </tile>
  <tile id="613">
   <properties>
    <property name="Type" value="Dirt"/>
   </properties>
  </tile>
  <tile id="614">
   <properties>
    <property name="Diggable" value="T"/>
    <property name="Type" value="Dirt"/>
   </properties>
  </tile>
  <tile id="615">
   <properties>
    <property name="Type" value="Dirt"/>
   </properties>
  </tile>
  <tile id="616">
   <properties>
    <property name="Type" value="Dirt"/>
   </properties>
  </tile>
  <tile id="617">
   <properties>
    <property name="Type" value="Dirt"/>
   </properties>
  </tile>
  <tile id="618">
   <properties>
    <property name="Type" value="Dirt"/>
   </properties>
  </tile>
  <tile id="619">
   <properties>
    <property name="Type" value="Grass"/>
   </properties>
  </tile>
  <tile id="620">
   <properties>
    <property name="Type" value="Dirt"/>
   </properties>
  </tile>
  <tile id="621">
   <properties>
    <property name="Type" value="Dirt"/>
   </properties>
  </tile>
  <tile id="622">
   <properties>
    <property name="Type" value="Dirt"/>
   </properties>
  </tile>
  <tile id="623">
   <properties>
    <property name="Type" value="Stone"/>
   </properties>
  </tile>
  <tile id="628">
   <properties>
    <property name="Water" value="T"/>
   </properties>
  </tile>
  <tile id="629">
   <properties>
    <property name="Water" value="T"/>
   </properties>
  </tile>
  <tile id="630">
   <properties>
    <property name="Diggable" value="T"/>
    <property name="Type" value="Dirt"/>
   </properties>
  </tile>
  <tile id="631">
   <properties>
    <property name="Type" value="Dirt"/>
   </properties>
  </tile>
  <tile id="632">
   <properties>
    <property name="Diggable" value="T"/>
    <property name="Type" value="Dirt"/>
   </properties>
  </tile>
  <tile id="633">
   <properties>
    <property name="Type" value="Grass"/>
   </properties>
  </tile>
  <tile id="634">
   <properties>
    <property name="Spawnable" value="T"/>
    <property name="Type" value="Grass"/>
   </properties>
  </tile>
  <tile id="635">
   <properties>
    <property name="Type" value="Dirt"/>
   </properties>
  </tile>
  <tile id="636">
   <properties>
    <property name="Type" value="Dirt"/>
   </properties>
  </tile>
  <tile id="653">
   <properties>
    <property name="Water" value="T"/>
   </properties>
  </tile>
  <tile id="654">
   <properties>
    <property name="Type" value="Grass"/>
   </properties>
  </tile>
  <tile id="655">
   <properties>
    <property name="Type" value="Dirt"/>
   </properties>
  </tile>
  <tile id="656">
   <properties>
    <property name="Type" value="Dirt"/>
   </properties>
  </tile>
  <tile id="657">
   <properties>
    <property name="Type" value="Grass"/>
   </properties>
  </tile>
  <tile id="658">
   <properties>
    <property name="Type" value="Grass"/>
   </properties>
  </tile>
  <tile id="659">
   <properties>
    <property name="Type" value="Grass"/>
   </properties>
  </tile>
  <tile id="679">
   <properties>
    <property name="Type" value="Dirt"/>
   </properties>
  </tile>
  <tile id="680">
   <properties>
    <property name="Diggable" value="T"/>
    <property name="Type" value="Dirt"/>
   </properties>
  </tile>
  <tile id="681">
   <properties>
    <property name="Diggable" value="T"/>
    <property name="Type" value="Dirt"/>
   </properties>
  </tile>
  <tile id="682">
   <properties>
    <property name="Type" value="Dirt"/>
   </properties>
  </tile>
  <tile id="683">
   <properties>
    <property name="Type" value="Grass"/>
   </properties>
  </tile>
  <tile id="684">
   <properties>
    <property name="Type" value="Grass"/>
   </properties>
  </tile>
  <tile id="685">
   <properties>
    <property name="Diggable" value="T"/>
    <property name="Type" value="Dirt"/>
   </properties>
  </tile>
  <tile id="704">
   <properties>
    <property name="Type" value="Grass"/>
   </properties>
  </tile>
  <tile id="705">
   <properties>
    <property name="Type" value="Dirt"/>
   </properties>
  </tile>
  <tile id="706">
   <properties>
    <property name="Diggable" value="T"/>
    <property name="Type" value="Dirt"/>
   </properties>
  </tile>
  <tile id="707">
   <properties>
    <property name="Type" value="Grass"/>
   </properties>
  </tile>
  <tile id="729">
   <properties>
    <property name="Type" value="Wood"/>
   </properties>
  </tile>
  <tile id="730">
   <properties>
    <property name="Type" value="Wood"/>
   </properties>
  </tile>
  <tile id="734">
   <properties>
    <property name="Water" value="T"/>
   </properties>
  </tile>
  <tile id="754">
   <properties>
    <property name="Type" value="Wood"/>
   </properties>
  </tile>
  <tile id="755">
   <properties>
    <property name="Type" value="Wood"/>
   </properties>
  </tile>
  <tile id="759">
   <properties>
    <property name="Water" value="T"/>
   </properties>
  </tile>
  <tile id="779">
   <properties>
    <property name="Passable" value="T"/>
    <property name="Type" value="Wood"/>
   </properties>
  </tile>
  <tile id="780">
   <properties>
    <property name="Passable" value="T"/>
    <property name="Type" value="Wood"/>
   </properties>
  </tile>
  <tile id="781">
   <properties>
    <property name="Passable" value="T"/>
    <property name="Type" value="Wood"/>
   </properties>
  </tile>
  <tile id="782">
   <properties>
    <property name="Passable" value="T"/>
    <property name="Type" value="Wood"/>
   </properties>
  </tile>
  <tile id="809">
   <properties>
    <property name="Passable" value="T"/>
    <property name="Type" value="Wood"/>
   </properties>
  </tile>
  <tile id="812">
   <properties>
    <property name="Type" value="Stone"/>
   </properties>
  </tile>
  <tile id="813">
   <properties>
    <property name="Type" value="Stone"/>
   </properties>
  </tile>
  <tile id="834">
   <properties>
    <property name="Passable" value="T"/>
    <property name="Type" value="Wood"/>
   </properties>
  </tile>
  <tile id="838">
   <properties>
    <property name="Type" value="Stone"/>
   </properties>
  </tile>
  <tile id="859">
   <properties>
    <property name="Passable" value="T"/>
    <property name="Type" value="Wood"/>
   </properties>
  </tile>
  <tile id="884">
   <properties>
    <property name="Passable" value="T"/>
    <property name="Type" value="Wood"/>
   </properties>
  </tile>
  <tile id="947">
   <properties>
    <property name="Type" value="Stone"/>
   </properties>
  </tile>
  <tile id="948">
   <properties>
    <property name="Type" value="Stone"/>
   </properties>
  </tile>
  <tile id="949">
   <properties>
    <property name="Type" value="Stone"/>
   </properties>
  </tile>
  <tile id="972">
   <properties>
    <property name="Type" value="Stone"/>
   </properties>
  </tile>
  <tile id="973">
   <properties>
    <property name="Type" value="Stone"/>
   </properties>
  </tile>
  <tile id="974">
   <properties>
    <property name="Type" value="Stone"/>
   </properties>
  </tile>
  <tile id="998">
   <properties>
    <property name="Type" value="Stone"/>
   </properties>
  </tile>
  <tile id="999">
   <properties>
    <property name="Type" value="Stone"/>
   </properties>
  </tile>
  <tile id="1186">
   <properties>
    <property name="Water" value="T"/>
   </properties>
  </tile>
  <tile id="1187">
   <properties>
    <property name="Water" value="T"/>
   </properties>
  </tile>
  <tile id="1188">
   <properties>
    <property name="Water" value="T"/>
   </properties>
  </tile>
  <tile id="1211">
   <properties>
    <property name="Water" value="T"/>
   </properties>
  </tile>
  <tile id="1212">
   <properties>
    <property name="Water" value="T"/>
   </properties>
  </tile>
  <tile id="1213">
   <properties>
    <property name="Water" value="T"/>
   </properties>
  </tile>
  <tile id="1227">
   <properties>
    <property name="Water" value="T"/>
   </properties>
  </tile>
  <tile id="1228">
   <properties>
    <property name="Water" value="T"/>
   </properties>
  </tile>
  <tile id="1229">
   <properties>
    <property name="Water" value="T"/>
   </properties>
  </tile>
  <tile id="1230">
   <properties>
    <property name="Water" value="T"/>
   </properties>
  </tile>
  <tile id="1231">
   <properties>
    <property name="Water" value="T"/>
   </properties>
  </tile>
  <tile id="1237">
   <properties>
    <property name="Water" value="T"/>
   </properties>
  </tile>
  <tile id="1238">
   <properties>
    <property name="Water" value="T"/>
   </properties>
  </tile>
  <tile id="1239">
   <properties>
    <property name="Water" value="T"/>
   </properties>
  </tile>
  <tile id="1240">
   <properties>
    <property name="Water" value="T"/>
   </properties>
  </tile>
  <tile id="1241">
   <properties>
    <property name="Water" value="T"/>
   </properties>
  </tile>
  <tile id="1242">
   <properties>
    <property name="Water" value="T"/>
   </properties>
  </tile>
  <tile id="1243">
   <properties>
    <property name="Water" value="T"/>
   </properties>
  </tile>
  <tile id="1244">
   <properties>
    <property name="Water" value="T"/>
   </properties>
  </tile>
  <tile id="1245">
   <properties>
    <property name="Water" value="T"/>
   </properties>
  </tile>
  <tile id="1246">
   <properties>
    <property name="Passable" value="F"/>
    <property name="Water" value="T"/>
   </properties>
  </tile>
  <tile id="1247">
   <properties>
    <property name="Water" value="T"/>
   </properties>
  </tile>
  <tile id="1248">
   <properties>
    <property name="Water" value="T"/>
   </properties>
  </tile>
  <tile id="1249">
   <properties>
    <property name="Passable" value="F"/>
    <property name="Water" value="T"/>
   </properties>
  </tile>
  <tile id="1252">
   <properties>
    <property name="Water" value="T"/>
   </properties>
  </tile>
  <tile id="1253">
   <properties>
    <property name="Water" value="T"/>
   </properties>
  </tile>
  <tile id="1254">
   <properties>
    <property name="Water" value="T"/>
   </properties>
  </tile>
  <tile id="1255">
   <properties>
    <property name="Water" value="T"/>
   </properties>
  </tile>
  <tile id="1256">
   <properties>
    <property name="Water" value="T"/>
   </properties>
  </tile>
  <tile id="1263">
   <properties>
    <property name="Water" value="T"/>
   </properties>
  </tile>
  <tile id="1264">
   <properties>
    <property name="Water" value="T"/>
   </properties>
  </tile>
  <tile id="1265">
   <properties>
    <property name="Water" value="T"/>
   </properties>
  </tile>
  <tile id="1266">
   <properties>
    <property name="Passable" value="F"/>
    <property name="Water" value="T"/>
   </properties>
  </tile>
  <tile id="1267">
   <properties>
    <property name="Passable" value="F"/>
    <property name="Water" value="T"/>
   </properties>
  </tile>
  <tile id="1268">
   <properties>
    <property name="Water" value="T"/>
   </properties>
  </tile>
  <tile id="1269">
   <properties>
    <property name="Water" value="T"/>
   </properties>
  </tile>
  <tile id="1270">
   <properties>
    <property name="Water" value="T"/>
   </properties>
  </tile>
  <tile id="1271">
   <properties>
    <property name="Passable" value="F"/>
    <property name="Water" value="T"/>
   </properties>
  </tile>
  <tile id="1272">
   <properties>
    <property name="Water" value="T"/>
   </properties>
  </tile>
  <tile id="1273">
   <properties>
    <property name="Water" value="T"/>
   </properties>
  </tile>
  <tile id="1274">
   <properties>
    <property name="Water" value="T"/>
   </properties>
  </tile>
  <tile id="1277">
   <properties>
    <property name="Water" value="T"/>
   </properties>
  </tile>
  <tile id="1278">
   <properties>
    <property name="Water" value="T"/>
   </properties>
  </tile>
  <tile id="1279">
   <properties>
    <property name="Water" value="T"/>
   </properties>
  </tile>
  <tile id="1280">
   <properties>
    <property name="Water" value="T"/>
   </properties>
  </tile>
  <tile id="1281">
   <properties>
    <property name="Water" value="T"/>
   </properties>
  </tile>
  <tile id="1297">
   <properties>
    <property name="Water" value="T"/>
   </properties>
  </tile>
  <tile id="1298">
   <properties>
    <property name="Water" value="T"/>
   </properties>
  </tile>
  <tile id="1299">
   <properties>
    <property name="Passable" value="F"/>
    <property name="Water" value="T"/>
   </properties>
  </tile>
  <tile id="1302">
   <properties>
    <property name="Water" value="T"/>
   </properties>
  </tile>
  <tile id="1303">
   <properties>
    <property name="Water" value="T"/>
   </properties>
  </tile>
  <tile id="1304">
   <properties>
    <property name="Water" value="T"/>
   </properties>
  </tile>
  <tile id="1305">
   <properties>
    <property name="Water" value="T"/>
   </properties>
  </tile>
  <tile id="1306">
   <properties>
    <property name="Water" value="T"/>
   </properties>
  </tile>
  <tile id="1322">
   <properties>
    <property name="Water" value="T"/>
   </properties>
  </tile>
  <tile id="1323">
   <properties>
    <property name="Water" value="T"/>
   </properties>
  </tile>
  <tile id="1324">
   <properties>
    <property name="Water" value="T"/>
   </properties>
  </tile>
 </tileset>
 <tileset firstgid="12666" name="Town" tilewidth="16" tileheight="16" tilecount="2304" columns="32">
  <image source="spring_town" width="512" height="1152"/>
  <tile id="45">
   <animation>
    <frame tileid="45" duration="1000"/>
    <frame tileid="45" duration="1000"/>
    <frame tileid="45" duration="1000"/>
    <frame tileid="45" duration="1000"/>
    <frame tileid="45" duration="1000"/>
    <frame tileid="45" duration="1000"/>
    <frame tileid="45" duration="1000"/>
    <frame tileid="45" duration="1000"/>
    <frame tileid="45" duration="1000"/>
    <frame tileid="45" duration="1000"/>
    <frame tileid="45" duration="1000"/>
    <frame tileid="45" duration="1000"/>
    <frame tileid="45" duration="1000"/>
    <frame tileid="45" duration="1000"/>
    <frame tileid="45" duration="1000"/>
    <frame tileid="45" duration="1000"/>
    <frame tileid="45" duration="1000"/>
    <frame tileid="12" duration="1000"/>
   </animation>
  </tile>
  <tile id="159">
   <properties>
    <property name="Passable" value="T"/>
   </properties>
  </tile>
  <tile id="191">
   <properties>
    <property name="Passable" value="T"/>
   </properties>
  </tile>
  <tile id="223">
   <properties>
    <property name="Passable" value="T"/>
   </properties>
  </tile>
  <tile id="608">
   <properties>
    <property name="Type" value="Grass"/>
   </properties>
  </tile>
  <tile id="609">
   <properties>
    <property name="Type" value="Grass"/>
   </properties>
  </tile>
  <tile id="610">
   <properties>
    <property name="Type" value="Grass"/>
   </properties>
  </tile>
  <tile id="611">
   <properties>
    <property name="Type" value="Grass"/>
   </properties>
  </tile>
  <tile id="612">
   <properties>
    <property name="Type" value="Grass"/>
   </properties>
  </tile>
  <tile id="641">
   <properties>
    <property name="Type" value="Stone"/>
   </properties>
  </tile>
  <tile id="644">
   <properties>
    <property name="Type" value="Grass"/>
   </properties>
  </tile>
  <tile id="645">
   <properties>
    <property name="Type" value="Grass"/>
   </properties>
  </tile>
  <tile id="646">
   <properties>
    <property name="Type" value="Stone"/>
   </properties>
  </tile>
  <tile id="672">
   <properties>
    <property name="Type" value="Grass"/>
   </properties>
  </tile>
  <tile id="674">
   <properties>
    <property name="Type" value="Grass"/>
   </properties>
  </tile>
  <tile id="676">
   <properties>
    <property name="Type" value="Stone"/>
   </properties>
  </tile>
  <tile id="736">
   <properties>
    <property name="Type" value="Stone"/>
   </properties>
  </tile>
  <tile id="737">
   <properties>
    <property name="Type" value="Stone"/>
   </properties>
  </tile>
  <tile id="768">
   <properties>
    <property name="Type" value="Stone"/>
   </properties>
  </tile>
  <tile id="769">
   <properties>
    <property name="Type" value="Stone"/>
   </properties>
  </tile>
  <tile id="770">
   <properties>
    <property name="Type" value="Stone"/>
   </properties>
  </tile>
  <tile id="858">
   <properties>
    <property name="Type" value="Stone"/>
   </properties>
  </tile>
  <tile id="859">
   <properties>
    <property name="Type" value="Stone"/>
   </properties>
  </tile>
  <tile id="860">
   <properties>
    <property name="Type" value="Stone"/>
   </properties>
  </tile>
  <tile id="861">
   <properties>
    <property name="Type" value="Stone"/>
   </properties>
  </tile>
  <tile id="862">
   <properties>
    <property name="Type" value="Stone"/>
   </properties>
  </tile>
  <tile id="863">
   <properties>
    <property name="Type" value="Stone"/>
   </properties>
  </tile>
  <tile id="874">
   <properties>
    <property name="Type" value="Stone"/>
   </properties>
  </tile>
  <tile id="890">
   <properties>
    <property name="Type" value="Stone"/>
   </properties>
  </tile>
  <tile id="891">
   <properties>
    <property name="Type" value="Stone"/>
   </properties>
  </tile>
  <tile id="892">
   <properties>
    <property name="Type" value="Stone"/>
   </properties>
  </tile>
  <tile id="893">
   <properties>
    <property name="Type" value="Stone"/>
   </properties>
  </tile>
  <tile id="894">
   <properties>
    <property name="Type" value="Stone"/>
   </properties>
  </tile>
  <tile id="895">
   <properties>
    <property name="Type" value="Stone"/>
   </properties>
  </tile>
  <tile id="901">
   <properties>
    <property name="Type" value="Stone"/>
   </properties>
  </tile>
  <tile id="902">
   <properties>
    <property name="Type" value="Stone"/>
   </properties>
  </tile>
  <tile id="903">
   <properties>
    <property name="Type" value="Stone"/>
   </properties>
  </tile>
  <tile id="904">
   <properties>
    <property name="Type" value="Stone"/>
   </properties>
  </tile>
  <tile id="905">
   <properties>
    <property name="Passable" value="F"/>
   </properties>
  </tile>
  <tile id="909">
   <properties>
    <property name="Type" value="Stone"/>
   </properties>
  </tile>
  <tile id="916">
   <properties>
    <property name="Water" value="T"/>
   </properties>
  </tile>
  <tile id="917">
   <properties>
    <property name="Water" value="T"/>
   </properties>
  </tile>
  <tile id="918">
   <properties>
    <property name="Water" value="T"/>
   </properties>
  </tile>
  <tile id="919">
   <properties>
    <property name="Water" value="T"/>
   </properties>
  </tile>
  <tile id="922">
   <properties>
    <property name="Type" value="Stone"/>
   </properties>
  </tile>
  <tile id="923">
   <properties>
    <property name="Type" value="Stone"/>
   </properties>
  </tile>
  <tile id="924">
   <properties>
    <property name="Type" value="Stone"/>
   </properties>
  </tile>
  <tile id="925">
   <properties>
    <property name="Type" value="Stone"/>
   </properties>
  </tile>
  <tile id="926">
   <properties>
    <property name="Type" value="Stone"/>
   </properties>
  </tile>
  <tile id="927">
   <properties>
    <property name="Type" value="Stone"/>
   </properties>
  </tile>
  <tile id="931">
   <properties>
    <property name="Type" value="Stone"/>
   </properties>
  </tile>
  <tile id="932">
   <properties>
    <property name="Type" value="Stone"/>
   </properties>
  </tile>
  <tile id="933">
   <properties>
    <property name="Type" value="Stone"/>
   </properties>
  </tile>
  <tile id="934">
   <properties>
    <property name="Type" value="Stone"/>
   </properties>
  </tile>
  <tile id="935">
   <properties>
    <property name="Type" value="Stone"/>
   </properties>
  </tile>
  <tile id="936">
   <properties>
    <property name="Type" value="Stone"/>
   </properties>
  </tile>
  <tile id="950">
   <properties>
    <property name="Water" value="T"/>
   </properties>
  </tile>
  <tile id="954">
   <properties>
    <property name="Type" value="Stone"/>
   </properties>
  </tile>
  <tile id="955">
   <properties>
    <property name="Type" value="Stone"/>
   </properties>
  </tile>
  <tile id="956">
   <properties>
    <property name="Type" value="Stone"/>
   </properties>
  </tile>
  <tile id="957">
   <properties>
    <property name="Type" value="Stone"/>
   </properties>
  </tile>
  <tile id="958">
   <properties>
    <property name="Type" value="Stone"/>
   </properties>
  </tile>
  <tile id="959">
   <properties>
    <property name="Type" value="Stone"/>
   </properties>
  </tile>
  <tile id="963">
   <properties>
    <property name="Type" value="Stone"/>
   </properties>
  </tile>
  <tile id="964">
   <properties>
    <property name="Type" value="Stone"/>
   </properties>
  </tile>
  <tile id="965">
   <properties>
    <property name="Type" value="Stone"/>
   </properties>
  </tile>
  <tile id="966">
   <properties>
    <property name="Type" value="Stone"/>
   </properties>
  </tile>
  <tile id="967">
   <properties>
    <property name="Type" value="Stone"/>
   </properties>
  </tile>
  <tile id="968">
   <properties>
    <property name="Type" value="Stone"/>
   </properties>
  </tile>
  <tile id="969">
   <properties>
    <property name="Type" value="Stone"/>
   </properties>
  </tile>
  <tile id="970">
   <properties>
    <property name="Type" value="Stone"/>
   </properties>
  </tile>
  <tile id="986">
   <properties>
    <property name="Type" value="Stone"/>
   </properties>
  </tile>
  <tile id="987">
   <properties>
    <property name="Type" value="Stone"/>
   </properties>
  </tile>
  <tile id="988">
   <properties>
    <property name="Type" value="Stone"/>
   </properties>
  </tile>
  <tile id="989">
   <properties>
    <property name="Type" value="Stone"/>
   </properties>
  </tile>
  <tile id="990">
   <properties>
    <property name="Type" value="Stone"/>
   </properties>
  </tile>
  <tile id="991">
   <properties>
    <property name="Type" value="Stone"/>
   </properties>
  </tile>
  <tile id="993">
   <properties>
    <property name="Type" value="Stone"/>
   </properties>
  </tile>
  <tile id="994">
   <properties>
    <property name="Type" value="Stone"/>
   </properties>
  </tile>
  <tile id="995">
   <properties>
    <property name="Type" value="Stone"/>
   </properties>
  </tile>
  <tile id="996">
   <properties>
    <property name="Type" value="Stone"/>
   </properties>
  </tile>
  <tile id="997">
   <properties>
    <property name="Type" value="Stone"/>
   </properties>
  </tile>
  <tile id="998">
   <properties>
    <property name="Type" value="Stone"/>
   </properties>
  </tile>
  <tile id="999">
   <properties>
    <property name="Type" value="Stone"/>
   </properties>
  </tile>
  <tile id="1000">
   <properties>
    <property name="Type" value="Stone"/>
   </properties>
  </tile>
  <tile id="1007">
   <properties>
    <property name="Type" value="Stone"/>
   </properties>
  </tile>
  <tile id="1008">
   <properties>
    <property name="Type" value="Stone"/>
   </properties>
  </tile>
  <tile id="1018">
   <properties>
    <property name="Type" value="Stone"/>
   </properties>
  </tile>
  <tile id="1019">
   <properties>
    <property name="Type" value="Stone"/>
   </properties>
  </tile>
  <tile id="1020">
   <properties>
    <property name="Type" value="Stone"/>
   </properties>
  </tile>
  <tile id="1021">
   <properties>
    <property name="Type" value="Stone"/>
   </properties>
  </tile>
  <tile id="1022">
   <properties>
    <property name="Type" value="Stone"/>
   </properties>
  </tile>
  <tile id="1023">
   <properties>
    <property name="Type" value="Stone"/>
   </properties>
  </tile>
  <tile id="1031">
   <properties>
    <property name="Type" value="Dirt"/>
   </properties>
  </tile>
  <tile id="1032">
   <properties>
    <property name="Type" value="Dirt"/>
   </properties>
  </tile>
  <tile id="1033">
   <properties>
    <property name="Type" value="Dirt"/>
   </properties>
  </tile>
  <tile id="1037">
   <animation>
    <frame tileid="1037" duration="100"/>
    <frame tileid="1038" duration="100"/>
    <frame tileid="1039" duration="100"/>
    <frame tileid="1039" duration="100"/>
   </animation>
  </tile>
  <tile id="1063">
   <properties>
    <property name="Type" value="Dirt"/>
   </properties>
  </tile>
  <tile id="1064">
   <properties>
    <property name="Type" value="Dirt"/>
   </properties>
  </tile>
  <tile id="1065">
   <properties>
    <property name="Type" value="Dirt"/>
   </properties>
  </tile>
  <tile id="1070">
   <animation>
    <frame tileid="1070" duration="100"/>
    <frame tileid="1101" duration="100"/>
    <frame tileid="1102" duration="100"/>
    <frame tileid="1043" duration="100"/>
   </animation>
  </tile>
  <tile id="1095">
   <properties>
    <property name="Type" value="Dirt"/>
   </properties>
  </tile>
  <tile id="1096">
   <properties>
    <property name="Type" value="Dirt"/>
   </properties>
  </tile>
  <tile id="1097">
   <properties>
    <property name="Type" value="Dirt"/>
   </properties>
  </tile>
  <tile id="1201">
   <animation>
    <frame tileid="1201" duration="100"/>
    <frame tileid="1202" duration="100"/>
    <frame tileid="1203" duration="100"/>
    <frame tileid="1204" duration="100"/>
    <frame tileid="1205" duration="100"/>
    <frame tileid="1206" duration="100"/>
   </animation>
  </tile>
  <tile id="1233">
   <animation>
    <frame tileid="1233" duration="100"/>
    <frame tileid="1234" duration="100"/>
    <frame tileid="1235" duration="100"/>
    <frame tileid="1236" duration="100"/>
    <frame tileid="1237" duration="100"/>
    <frame tileid="1238" duration="100"/>
   </animation>
  </tile>
  <tile id="1249">
   <properties>
    <property name="Shadow" value="T"/>
   </properties>
  </tile>
  <tile id="1265">
   <animation>
    <frame tileid="1265" duration="100"/>
    <frame tileid="1266" duration="100"/>
    <frame tileid="1267" duration="100"/>
    <frame tileid="1268" duration="100"/>
    <frame tileid="1269" duration="100"/>
    <frame tileid="1270" duration="100"/>
   </animation>
  </tile>
  <tile id="1573">
   <properties>
    <property name="Type" value="Stone"/>
   </properties>
  </tile>
  <tile id="1574">
   <properties>
    <property name="Type" value="Stone"/>
   </properties>
  </tile>
  <tile id="1585">
   <properties>
    <property name="Type" value="Stone"/>
   </properties>
  </tile>
  <tile id="1586">
   <properties>
    <property name="Type" value="Stone"/>
   </properties>
  </tile>
  <tile id="1958">
   <properties>
    <property name="Shadow" value="T"/>
   </properties>
  </tile>
 </tileset>
 <layer id="1" name="Back" width="12" height="15">
  <data encoding="csv">
153,176,351,330,352,352,353,257,176,176,176,10866,
176,176,376,277,278,279,378,176,176,176,176,10866,
176,176,327,327,327,327,327,327,327,327,327,11017,
176,176,352,352,352,352,352,352,352,352,352,11042,
176,176,176,356,356,356,356,356,356,356,356,11046,
176,176,176,358,406,406,381,381,381,358,406,11096,
176,176,176,382,305,405,381,381,381,382,352,11095,
176,176,176,382,4870,330,381,381,381,383,356,11046,
176,176,176,422,176,351,352,355,333,381,381,11071,
176,422,176,176,326,329,352,380,381,381,381,11071,
326,327,327,327,329,352,355,333,381,381,381,11071,
262,352,352,352,352,352,380,381,381,381,381,11071,
287,352,352,352,352,352,380,381,157,381,381,11048,
312,352,352,352,352,352,405,381,381,381,381,11097,
351,405,352,406,406,406,406,406,406,406,407,11095
</data>
 </layer>
 <layer id="2" name="Back2" width="12" height="15">
  <properties>
   <property name="Draw" value="Back"/>
  </properties>
  <data encoding="csv">
0,0,0,0,0,0,0,0,0,0,0,0,
0,0,0,0,0,0,0,0,0,0,0,0,
0,0,0,0,0,0,0,0,0,0,0,0,
0,0,0,0,0,0,0,0,0,0,0,0,
0,0,0,0,0,0,0,0,0,0,0,0,
0,0,0,0,0,0,0,0,4366,0,0,0,
258,0,0,0,0,0,0,0,4867,0,0,0,
0,0,0,4869,0,0,0,0,4874,0,0,0,
0,0,4353,1965,1966,1967,4353,4353,4353,0,0,0,
0,0,0,0,0,0,0,0,0,0,0,0,
0,0,0,0,0,0,0,0,0,0,0,0,
0,0,0,0,0,7080,0,0,0,0,0,0,
0,0,0,0,0,0,0,0,0,0,0,0,
0,0,0,0,0,0,0,0,0,0,0,0,
0,0,0,0,0,0,0,0,0,0,0,0
</data>
 </layer>
 <layer id="3" name="Back3" width="12" height="15">
  <properties>
   <property name="Draw" value="Back"/>
  </properties>
  <data encoding="csv">
0,0,0,0,0,0,0,0,0,0,0,0,
0,0,0,0,0,0,0,0,0,0,0,0,
0,0,0,0,0,0,0,0,0,0,0,0,
0,0,0,0,0,0,0,0,0,0,0,0,
0,0,4383,0,0,0,0,0,0,0,0,0,
0,0,4387,0,0,0,0,0,0,0,0,0,
0,0,4387,0,0,0,0,0,8258,0,0,0,
0,0,4387,0,0,0,0,0,8290,0,0,0,
0,0,4369,4409,4409,4409,4409,4372,8322,0,0,0,
0,0,0,0,0,0,0,0,0,0,0,0,
0,0,0,0,0,0,0,0,0,0,0,0,
0,0,0,0,0,0,0,0,0,0,0,0,
0,0,0,0,0,0,0,0,0,0,0,0,
0,0,0,0,0,0,0,0,0,0,0,0,
0,0,0,0,0,0,0,0,0,0,0,0
</data>
 </layer>
 <layer id="4" name="Buildings" width="12" height="15">
  <data encoding="csv">
0,0,0,0,0,0,0,0,0,0,0,0,
0,0,0,0,0,0,0,0,0,0,0,0,
0,0,0,0,0,0,0,0,0,0,0,0,
0,0,0,0,0,0,0,0,0,0,0,0,
0,384,385,385,386,0,385,385,385,386,385,11075,
0,387,4854,4855,4856,4857,4858,4859,4860,8730,5771,11096,
0,387,4861,4862,4863,4864,4865,4866,0,2926,233,11095,
0,387,4868,0,0,4871,4872,4873,0,0,0,13609,
0,437,2081,0,0,0,149,1123,8500,0,0,13641,
0,0,0,0,0,0,0,0,0,308,381,11071,
0,0,0,0,0,0,0,5396,8628,0,381,11071,
0,387,8517,8518,6054,0,0,0,5428,5331,381,11071,
0,412,0,0,0,0,0,0,0,0,0,11048,
0,437,9234,9233,0,9378,9293,9294,0,0,2118,10817,
0,384,385,386,385,385,385,386,0,0,384,11075
</data>
 </layer>
 <layer id="5" name="Buildings2" width="12" height="15">
  <properties>
   <property name="Draw" value="Buildings"/>
  </properties>
  <data encoding="csv">
0,0,0,0,0,0,0,0,0,0,0,0,
0,0,0,0,0,0,0,0,0,0,0,0,
0,0,0,0,0,0,0,0,0,0,0,0,
0,0,0,0,0,0,0,0,0,0,0,0,
0,0,0,0,0,0,0,0,0,0,0,0,
0,0,0,0,0,0,0,0,0,0,0,0,
0,0,0,0,0,0,0,0,0,0,0,0,
0,0,0,0,0,0,0,0,0,0,0,0,
0,0,0,0,0,0,0,0,0,0,0,0,
0,0,0,0,0,0,0,0,0,0,0,0,
0,0,0,0,0,0,0,0,0,0,0,0,
0,0,0,0,0,0,0,0,0,0,0,0,
0,0,0,0,0,0,0,0,0,0,0,0,
0,0,0,0,0,0,0,0,0,0,0,0,
0,0,0,0,0,0,0,0,0,0,0,0
</data>
 </layer>
 <layer id="6" name="Paths" width="12" height="15">
  <data encoding="csv">
0,2011,0,0,2000,0,0,0,0,0,0,0,
0,0,0,0,0,0,0,0,0,0,0,0,
0,0,0,0,0,0,0,0,0,0,0,0,
0,0,0,0,0,0,0,0,0,0,0,0,
0,0,0,0,0,0,0,0,0,0,0,0,
0,0,0,1984,0,0,1984,1984,0,0,0,0,
0,0,0,0,0,0,1984,1984,0,0,0,0,
0,0,0,0,0,0,0,0,0,0,0,0,
0,0,0,0,0,0,0,0,0,0,0,0,
0,0,0,0,0,0,0,0,0,0,0,0,
0,0,0,0,0,0,0,0,0,0,0,0,
0,0,0,0,0,0,0,0,0,0,0,0,
0,0,0,0,0,0,0,0,0,0,0,0,
0,0,0,0,0,0,0,0,0,0,0,0,
0,0,0,0,0,0,0,0,0,0,0,0
</data>
 </layer>
 <layer id="7" name="Front" width="12" height="15">
  <data encoding="csv">
0,0,0,0,0,0,0,0,0,0,0,0,
0,0,0,0,0,0,0,0,0,0,0,0,
0,0,0,0,0,0,0,0,0,0,0,0,
0,359,359,360,361,360,360,360,360,361,360,0,
0,362,4847,4848,4849,4850,4851,4852,4853,8722,5740,0,
0,0,0,0,0,0,0,0,0,0,0,0,
0,0,0,0,0,0,0,0,0,0,0,13577,
0,0,2049,0,0,0,124,1098,8492,0,0,0,
0,0,0,0,0,0,0,0,0,0,0,0,
0,0,0,0,0,0,0,5364,8620,106,0,0,
0,362,8509,8510,0,0,0,0,0,5299,0,0,
0,0,0,0,0,0,0,0,0,0,0,0,
0,0,9230,9229,0,9370,9285,9286,0,0,2086,10792,
0,359,360,361,360,360,360,361,0,0,359,11050,
0,0,0,0,0,0,0,0,0,0,0,0
</data>
 </layer>
 <layer id="8" name="AlwaysFront" width="12" height="15">
  <data encoding="csv">
0,0,4819,4820,4821,4822,4823,4824,4825,0,0,10712,
0,0,4826,4827,4828,4829,4830,4831,4832,0,0,0,
0,0,4833,4834,4835,4836,4837,4838,4839,0,2822,13449,
0,0,4840,4841,4842,4843,4844,4845,4846,0,2854,13481,
0,0,7470,4848,4849,4850,4851,7441,7442,0,2886,13513,
0,0,7502,106,0,0,0,7473,7474,0,2918,13545,
0,17,0,0,0,0,0,2953,0,0,2950,13577,
0,0,0,0,0,0,0,0,0,0,0,0,
0,0,0,0,0,0,0,0,0,0,1,10692,
0,0,0,0,0,0,0,0,5550,0,26,10717,
0,0,0,0,0,0,0,0,0,0,51,10742,
0,0,0,0,0,0,0,0,0,0,76,10767,
0,0,0,0,0,0,0,0,0,0,0,10794,
0,0,0,0,0,0,0,0,0,0,0,0,
0,0,0,2065,2066,2067,2068,2069,0,0,0,0
</data>
 </layer>
 <objectgroup id="9" name="Back"/>
 <objectgroup id="10" name="Back2"/>
 <objectgroup id="11" name="Back3"/>
 <objectgroup id="12" name="Buildings">
  <object id="46" name="TileData" x="64" y="96" width="16" height="16">
   <properties>
    <property name="Action" value="LockedDoorWarp 7 13  Wem.Bundle.Tilly_TillyHouse 900 2000"/>
   </properties>
  </object>
  <object id="47" name="TileData" x="112" y="128" width="16" height="16">
   <properties>
    <property name="Action" value="Message &quot;Wem.Tilly_Ext1&quot;"/>
   </properties>
  </object>
  <object id="49" name="TileData" x="128" y="160" width="16" height="16">
   <properties>
    <property name="Action" value="Message &quot;Wem.Tilly_Ext2&quot;"/>
   </properties>
  </object>
  <object id="50" name="TileData" x="160" y="208" width="16" height="16">
   <properties>
    <property name="Action" value="Garbage Wem.Bundle.Tilly_Can"/>
   </properties>
  </object>
 </objectgroup>
 <objectgroup id="13" name="Buildings2"/>
 <objectgroup id="14" name="Paths"/>
 <objectgroup id="15" name="Front"/>
 <objectgroup id="16" name="AlwaysFront"/>
</map>
