<?xml version="1.0" encoding="UTF-8"?>
<map version="1.10" tiledversion="1.10.2" orientation="orthogonal" renderorder="right-down" compressionlevel="0" width="18" height="21" tilewidth="16" tileheight="16" infinite="0" nextlayerid="17" nextobjectid="62">
 <properties>
  <property name="BrookSounds" value="94 5 5"/>
  <property name="DayTiles" value="AlwaysFront 52 98 907 AlwaysFront 56 98 907 AlwaysFront 24 50 907 AlwaysFront 33 53 907 AlwaysFront 24 58 907 AlwaysFront 27 72 907 AlwaysFront 30 72 907 AlwaysFront 38 65 907 AlwaysFront 27 86 907 AlwaysFront 17 86 907 AlwaysFront 21 64 907 Buildings 92 79 186 Buildings 41 69 560 Buildings 71 67 720"/>
  <property name="Fall_Objects" value="T"/>
  <property name="Light" value="24 50 4 33 53 4 24 58 4 21 64 4 17 86 4 27 86 4 38 65 4 30 72 4 27 72 4 41 69 4 71 67 4 52 98 4 56 98 4 92 79 4"/>
  <property name="NightTiles" value="AlwaysFront 52 98 908 AlwaysFront 56 98 908 AlwaysFront 24 50 908 AlwaysFront 33 53 908 AlwaysFront 24 58 908 AlwaysFront 27 72 908 AlwaysFront 30 72 908 AlwaysFront 38 65 908 AlwaysFront 27 86 908 AlwaysFront 17 86 908 AlwaysFront 21 64 908 Buildings 92 79 190 Buildings 41 69 653 Buildings 71 67 726"/>
  <property name="Outdoors" value="T"/>
  <property name="Spring_Objects" value="T"/>
  <property name="Summer_Objects" value="T"/>
  <property name="Warp" value="-1 53 BusStop 42 23 -1 54 BusStop 42 23 -1 55 BusStop 42 24 53 110 Beach 38 0 81 -1 Mountain 15 40 79 -1 Mountain 15 40 80 -1 Mountain 15 40 82 -1 Mountain 15 40 83 -1 Mountain 15 40 -1 92 Forest 118 25 -1 90 Forest 118 25 -1 89 Forest 118 25 -1 91 Forest 118 25 54 110 Beach 38 0 55 110 Beach 38 0 90 -1 Mountain 57 40 98 -1 Mountain 85 40 94 110 Beach 67 0"/>
  <property name="Winter_Objects" value="T"/>
 </properties>
 <tileset firstgid="1" name="Landscape" tilewidth="16" tileheight="16" tilecount="1975" columns="25">
  <image source="spring_outdoorsTileSheet" width="400" height="1264"/>
  <tile id="150">
   <properties>
    <property name="Spawnable" value="T"/>
    <property name="Type" value="Grass"/>
   </properties>
   <animation>
    <frame tileid="150" duration="100"/>
    <frame tileid="420" duration="100"/>
    <frame tileid="421" duration="100"/>
    <frame tileid="422" duration="100"/>
    <frame tileid="423" duration="100"/>
    <frame tileid="420" duration="100"/>
    <frame tileid="150" duration="100"/>
    <frame tileid="150" duration="100"/>
    <frame tileid="150" duration="100"/>
    <frame tileid="150" duration="100"/>
    <frame tileid="150" duration="100"/>
    <frame tileid="150" duration="100"/>
    <frame tileid="150" duration="100"/>
    <frame tileid="150" duration="100"/>
    <frame tileid="150" duration="100"/>
    <frame tileid="150" duration="100"/>
    <frame tileid="150" duration="100"/>
    <frame tileid="150" duration="100"/>
    <frame tileid="150" duration="100"/>
    <frame tileid="150" duration="100"/>
    <frame tileid="150" duration="100"/>
    <frame tileid="150" duration="100"/>
    <frame tileid="150" duration="100"/>
    <frame tileid="150" duration="100"/>
    <frame tileid="150" duration="100"/>
    <frame tileid="150" duration="100"/>
    <frame tileid="150" duration="100"/>
    <frame tileid="150" duration="100"/>
    <frame tileid="150" duration="100"/>
    <frame tileid="150" duration="100"/>
    <frame tileid="150" duration="100"/>
   </animation>
  </tile>
  <tile id="151">
   <properties>
    <property name="Type" value="Grass"/>
   </properties>
   <animation>
    <frame tileid="151" duration="1000"/>
    <frame tileid="152" duration="1000"/>
   </animation>
  </tile>
  <tile id="152">
   <animation>
    <frame tileid="152" duration="1000"/>
    <frame tileid="151" duration="1000"/>
   </animation>
  </tile>
  <tile id="153">
   <properties>
    <property name="Diggable" value="T"/>
    <property name="Type" value="Dirt"/>
   </properties>
  </tile>
  <tile id="156">
   <properties>
    <property name="Spawnable" value="T"/>
    <property name="Type" value="Grass"/>
   </properties>
  </tile>
  <tile id="175">
   <properties>
    <property name="Spawnable" value="T"/>
    <property name="Type" value="Grass"/>
   </properties>
  </tile>
  <tile id="176">
   <properties>
    <property name="Diggable" value="T"/>
    <property name="Type" value="Dirt"/>
   </properties>
  </tile>
  <tile id="177">
   <properties>
    <property name="Type" value="Dirt"/>
   </properties>
  </tile>
  <tile id="178">
   <properties>
    <property name="Type" value="Dirt"/>
   </properties>
  </tile>
  <tile id="179">
   <properties>
    <property name="Type" value="Grass"/>
   </properties>
  </tile>
  <tile id="180">
   <properties>
    <property name="Spawnable" value="T"/>
    <property name="Type" value="Grass"/>
   </properties>
  </tile>
  <tile id="181">
   <properties>
    <property name="Type" value="Dirt"/>
   </properties>
  </tile>
  <tile id="182">
   <properties>
    <property name="Type" value="Dirt"/>
   </properties>
  </tile>
  <tile id="183">
   <animation>
    <frame tileid="183" duration="1000"/>
    <frame tileid="1182" duration="1000"/>
   </animation>
  </tile>
  <tile id="184">
   <animation>
    <frame tileid="184" duration="1000"/>
    <frame tileid="1183" duration="1000"/>
   </animation>
  </tile>
  <tile id="185">
   <animation>
    <frame tileid="185" duration="1000"/>
    <frame tileid="1184" duration="1000"/>
   </animation>
  </tile>
  <tile id="200">
   <properties>
    <property name="Spawnable" value="T"/>
    <property name="Type" value="Grass"/>
   </properties>
  </tile>
  <tile id="202">
   <properties>
    <property name="Type" value="Dirt"/>
   </properties>
  </tile>
  <tile id="203">
   <properties>
    <property name="Type" value="Grass"/>
   </properties>
  </tile>
  <tile id="204">
   <properties>
    <property name="Type" value="Grass"/>
   </properties>
  </tile>
  <tile id="205">
   <properties>
    <property name="Type" value="Grass"/>
   </properties>
  </tile>
  <tile id="206">
   <properties>
    <property name="Diggable" value="T"/>
    <property name="Type" value="Dirt"/>
   </properties>
  </tile>
  <tile id="207">
   <properties>
    <property name="Diggable" value="T"/>
    <property name="Type" value="Dirt"/>
   </properties>
  </tile>
  <tile id="208">
   <animation>
    <frame tileid="208" duration="1000"/>
    <frame tileid="1207" duration="1000"/>
   </animation>
  </tile>
  <tile id="209">
   <properties>
    <property name="Water" value="T"/>
   </properties>
   <animation>
    <frame tileid="209" duration="1000"/>
    <frame tileid="1208" duration="1000"/>
   </animation>
  </tile>
  <tile id="210">
   <animation>
    <frame tileid="210" duration="1000"/>
    <frame tileid="1209" duration="1000"/>
   </animation>
  </tile>
  <tile id="211">
   <animation>
    <frame tileid="211" duration="1000"/>
    <frame tileid="1210" duration="1000"/>
   </animation>
  </tile>
  <tile id="225">
   <properties>
    <property name="Type" value="Dirt"/>
   </properties>
  </tile>
  <tile id="226">
   <properties>
    <property name="Diggable" value="T"/>
    <property name="Type" value="Dirt"/>
   </properties>
  </tile>
  <tile id="227">
   <properties>
    <property name="Diggable" value="T"/>
    <property name="Type" value="Dirt"/>
   </properties>
  </tile>
  <tile id="228">
   <properties>
    <property name="Type" value="Dirt"/>
   </properties>
  </tile>
  <tile id="229">
   <properties>
    <property name="Type" value="Grass"/>
   </properties>
  </tile>
  <tile id="230">
   <properties>
    <property name="Type" value="Grass"/>
   </properties>
  </tile>
  <tile id="231">
   <properties>
    <property name="Diggable" value="T"/>
    <property name="Type" value="Dirt"/>
   </properties>
  </tile>
  <tile id="233">
   <animation>
    <frame tileid="233" duration="1000"/>
    <frame tileid="1232" duration="1000"/>
   </animation>
  </tile>
  <tile id="234">
   <properties>
    <property name="Water" value="T"/>
   </properties>
  </tile>
  <tile id="235">
   <animation>
    <frame tileid="235" duration="1000"/>
    <frame tileid="1290" duration="1000"/>
   </animation>
  </tile>
  <tile id="237">
   <animation>
    <frame tileid="237" duration="1000"/>
    <frame tileid="1291" duration="1000"/>
   </animation>
  </tile>
  <tile id="238">
   <animation>
    <frame tileid="238" duration="1000"/>
    <frame tileid="1292" duration="1000"/>
   </animation>
  </tile>
  <tile id="250">
   <properties>
    <property name="Type" value="Grass"/>
   </properties>
  </tile>
  <tile id="251">
   <properties>
    <property name="Type" value="Dirt"/>
   </properties>
  </tile>
  <tile id="252">
   <properties>
    <property name="Diggable" value="T"/>
    <property name="Type" value="Dirt"/>
   </properties>
  </tile>
  <tile id="253">
   <properties>
    <property name="Type" value="Grass"/>
   </properties>
  </tile>
  <tile id="254">
   <properties>
    <property name="Type" value="Grass"/>
   </properties>
  </tile>
  <tile id="255">
   <properties>
    <property name="Type" value="Grass"/>
   </properties>
  </tile>
  <tile id="256">
   <properties>
    <property name="Type" value="Grass"/>
   </properties>
  </tile>
  <tile id="258">
   <animation>
    <frame tileid="258" duration="1000"/>
    <frame tileid="1257" duration="1000"/>
   </animation>
  </tile>
  <tile id="260">
   <animation>
    <frame tileid="260" duration="1000"/>
    <frame tileid="1315" duration="1000"/>
   </animation>
  </tile>
  <tile id="261">
   <properties>
    <property name="Type" value="Grass"/>
   </properties>
  </tile>
  <tile id="265">
   <properties>
    <property name="Type" value="Dirt"/>
   </properties>
  </tile>
  <tile id="276">
   <properties>
    <property name="Type" value="Grass"/>
   </properties>
  </tile>
  <tile id="277">
   <properties>
    <property name="Type" value="Grass"/>
   </properties>
  </tile>
  <tile id="278">
   <properties>
    <property name="Type" value="Grass"/>
   </properties>
  </tile>
  <tile id="279">
   <properties>
    <property name="Type" value="Grass"/>
   </properties>
  </tile>
  <tile id="281">
   <properties>
    <property name="Type" value="Grass"/>
   </properties>
  </tile>
  <tile id="283">
   <animation>
    <frame tileid="283" duration="1000"/>
    <frame tileid="1312" duration="1000"/>
   </animation>
  </tile>
  <tile id="284">
   <animation>
    <frame tileid="284" duration="1000"/>
    <frame tileid="1313" duration="1000"/>
   </animation>
  </tile>
  <tile id="285">
   <properties>
    <property name="Water" value="T"/>
   </properties>
  </tile>
  <tile id="286">
   <properties>
    <property name="Type" value="Grass"/>
   </properties>
  </tile>
  <tile id="301">
   <properties>
    <property name="Type" value="Grass"/>
   </properties>
  </tile>
  <tile id="302">
   <properties>
    <property name="Type" value="Grass"/>
   </properties>
  </tile>
  <tile id="303">
   <properties>
    <property name="Type" value="Grass"/>
   </properties>
  </tile>
  <tile id="304">
   <properties>
    <property name="Type" value="Grass"/>
   </properties>
  </tile>
  <tile id="305">
   <properties>
    <property name="Type" value="Grass"/>
   </properties>
  </tile>
  <tile id="306">
   <properties>
    <property name="Type" value="Grass"/>
   </properties>
  </tile>
  <tile id="308">
   <properties>
    <property name="Water" value="T"/>
   </properties>
  </tile>
  <tile id="309">
   <properties>
    <property name="Water" value="T"/>
   </properties>
  </tile>
  <tile id="310">
   <properties>
    <property name="Water" value="T"/>
   </properties>
  </tile>
  <tile id="311">
   <properties>
    <property name="Type" value="Grass"/>
   </properties>
  </tile>
  <tile id="312">
   <properties>
    <property name="Type" value="Wood"/>
   </properties>
  </tile>
  <tile id="313">
   <properties>
    <property name="Type" value="Wood"/>
   </properties>
  </tile>
  <tile id="314">
   <properties>
    <property name="Type" value="Wood"/>
   </properties>
  </tile>
  <tile id="325">
   <properties>
    <property name="Type" value="Grass"/>
   </properties>
  </tile>
  <tile id="326">
   <properties>
    <property name="Type" value="Grass"/>
   </properties>
  </tile>
  <tile id="327">
   <properties>
    <property name="Type" value="Grass"/>
   </properties>
  </tile>
  <tile id="328">
   <properties>
    <property name="Type" value="Grass"/>
   </properties>
  </tile>
  <tile id="329">
   <properties>
    <property name="Type" value="Grass"/>
   </properties>
  </tile>
  <tile id="331">
   <properties>
    <property name="Type" value="Grass"/>
   </properties>
  </tile>
  <tile id="332">
   <properties>
    <property name="Type" value="Grass"/>
   </properties>
  </tile>
  <tile id="333">
   <properties>
    <property name="Water" value="T"/>
   </properties>
  </tile>
  <tile id="334">
   <properties>
    <property name="Water" value="T"/>
   </properties>
  </tile>
  <tile id="335">
   <properties>
    <property name="Water" value="T"/>
   </properties>
  </tile>
  <tile id="336">
   <properties>
    <property name="Water" value="T"/>
   </properties>
  </tile>
  <tile id="337">
   <properties>
    <property name="Type" value="Wood"/>
   </properties>
  </tile>
  <tile id="338">
   <properties>
    <property name="Type" value="Wood"/>
   </properties>
  </tile>
  <tile id="339">
   <properties>
    <property name="Type" value="Wood"/>
   </properties>
  </tile>
  <tile id="350">
   <properties>
    <property name="Type" value="Grass"/>
   </properties>
  </tile>
  <tile id="351">
   <properties>
    <property name="Spawnable" value="T"/>
    <property name="Type" value="Grass"/>
   </properties>
  </tile>
  <tile id="352">
   <properties>
    <property name="Type" value="Grass"/>
   </properties>
  </tile>
  <tile id="353">
   <properties>
    <property name="Type" value="Grass"/>
   </properties>
  </tile>
  <tile id="354">
   <properties>
    <property name="Type" value="Grass"/>
   </properties>
  </tile>
  <tile id="355">
   <properties>
    <property name="Type" value="Grass"/>
   </properties>
  </tile>
  <tile id="356">
   <properties>
    <property name="Type" value="Grass"/>
   </properties>
  </tile>
  <tile id="357">
   <properties>
    <property name="Type" value="Grass"/>
   </properties>
  </tile>
  <tile id="375">
   <properties>
    <property name="Type" value="Grass"/>
   </properties>
  </tile>
  <tile id="376">
   <properties>
    <property name="Type" value="Grass"/>
   </properties>
  </tile>
  <tile id="377">
   <properties>
    <property name="Type" value="Grass"/>
   </properties>
  </tile>
  <tile id="378">
   <properties>
    <property name="Type" value="Grass"/>
   </properties>
  </tile>
  <tile id="379">
   <properties>
    <property name="Type" value="Grass"/>
   </properties>
  </tile>
  <tile id="380">
   <properties>
    <property name="Spawnable" value="T"/>
    <property name="Type" value="Grass"/>
   </properties>
  </tile>
  <tile id="381">
   <properties>
    <property name="Type" value="Grass"/>
   </properties>
  </tile>
  <tile id="382">
   <properties>
    <property name="Type" value="Grass"/>
   </properties>
  </tile>
  <tile id="400">
   <properties>
    <property name="Type" value="Grass"/>
   </properties>
  </tile>
  <tile id="401">
   <properties>
    <property name="Type" value="Grass"/>
   </properties>
  </tile>
  <tile id="402">
   <properties>
    <property name="Type" value="Grass"/>
   </properties>
  </tile>
  <tile id="403">
   <properties>
    <property name="Spawnable" value="T"/>
    <property name="Type" value="Grass"/>
   </properties>
  </tile>
  <tile id="404">
   <properties>
    <property name="Type" value="Grass"/>
   </properties>
  </tile>
  <tile id="405">
   <properties>
    <property name="Type" value="Grass"/>
   </properties>
  </tile>
  <tile id="406">
   <properties>
    <property name="Type" value="Grass"/>
   </properties>
  </tile>
  <tile id="407">
   <properties>
    <property name="Type" value="Grass"/>
   </properties>
  </tile>
  <tile id="463">
   <properties>
    <property name="Type" value="Dirt"/>
   </properties>
  </tile>
  <tile id="488">
   <properties>
    <property name="Type" value="Dirt"/>
   </properties>
  </tile>
  <tile id="512">
   <properties>
    <property name="Type" value="Dirt"/>
   </properties>
  </tile>
  <tile id="513">
   <properties>
    <property name="Type" value="Dirt"/>
   </properties>
  </tile>
  <tile id="534">
   <properties>
    <property name="Type" value="Dirt"/>
   </properties>
  </tile>
  <tile id="536">
   <properties>
    <property name="Type" value="Dirt"/>
   </properties>
  </tile>
  <tile id="537">
   <properties>
    <property name="Type" value="Dirt"/>
   </properties>
  </tile>
  <tile id="538">
   <properties>
    <property name="Type" value="Dirt"/>
   </properties>
  </tile>
  <tile id="558">
   <properties>
    <property name="Diggable" value="T"/>
    <property name="Type" value="Dirt"/>
   </properties>
  </tile>
  <tile id="560">
   <properties>
    <property name="Diggable" value="T"/>
    <property name="Type" value="Dirt"/>
   </properties>
  </tile>
  <tile id="561">
   <properties>
    <property name="Type" value="Dirt"/>
   </properties>
  </tile>
  <tile id="562">
   <properties>
    <property name="Type" value="Dirt"/>
   </properties>
  </tile>
  <tile id="563">
   <properties>
    <property name="Type" value="Dirt"/>
   </properties>
  </tile>
  <tile id="564">
   <properties>
    <property name="Diggable" value="T"/>
    <property name="Type" value="Dirt"/>
   </properties>
  </tile>
  <tile id="565">
   <properties>
    <property name="Type" value="Dirt"/>
   </properties>
  </tile>
  <tile id="566">
   <properties>
    <property name="Type" value="Dirt"/>
   </properties>
  </tile>
  <tile id="567">
   <properties>
    <property name="Spawnable" value="T"/>
    <property name="Type" value="Grass"/>
   </properties>
  </tile>
  <tile id="568">
   <properties>
    <property name="Type" value="Grass"/>
   </properties>
  </tile>
  <tile id="569">
   <properties>
    <property name="Spawnable" value="T"/>
    <property name="Type" value="Grass"/>
   </properties>
  </tile>
  <tile id="570">
   <properties>
    <property name="Type" value="Grass"/>
   </properties>
  </tile>
  <tile id="583">
   <properties>
    <property name="Diggable" value="T"/>
    <property name="Type" value="Dirt"/>
   </properties>
  </tile>
  <tile id="585">
   <properties>
    <property name="Diggable" value="T"/>
    <property name="Type" value="Dirt"/>
   </properties>
  </tile>
  <tile id="586">
   <properties>
    <property name="Type" value="Dirt"/>
   </properties>
  </tile>
  <tile id="587">
   <properties>
    <property name="Diggable" value="T"/>
    <property name="Type" value="Dirt"/>
   </properties>
  </tile>
  <tile id="588">
   <properties>
    <property name="Type" value="Dirt"/>
   </properties>
  </tile>
  <tile id="589">
   <properties>
    <property name="Diggable" value="T"/>
    <property name="Type" value="Dirt"/>
   </properties>
  </tile>
  <tile id="590">
   <properties>
    <property name="Type" value="Dirt"/>
   </properties>
  </tile>
  <tile id="591">
   <properties>
    <property name="Type" value="Dirt"/>
   </properties>
  </tile>
  <tile id="592">
   <properties>
    <property name="Type" value="Grass"/>
   </properties>
  </tile>
  <tile id="593">
   <properties>
    <property name="Type" value="Grass"/>
   </properties>
  </tile>
  <tile id="594">
   <properties>
    <property name="Type" value="Grass"/>
   </properties>
  </tile>
  <tile id="595">
   <properties>
    <property name="Type" value="Grass"/>
   </properties>
  </tile>
  <tile id="596">
   <properties>
    <property name="Type" value="Dirt"/>
   </properties>
  </tile>
  <tile id="597">
   <properties>
    <property name="Type" value="Dirt"/>
   </properties>
  </tile>
  <tile id="598">
   <properties>
    <property name="Type" value="Stone"/>
   </properties>
  </tile>
  <tile id="599">
   <properties>
    <property name="Type" value="Stone"/>
   </properties>
  </tile>
  <tile id="606">
   <properties>
    <property name="Diggable" value="T"/>
    <property name="Type" value="Dirt"/>
   </properties>
  </tile>
  <tile id="607">
   <properties>
    <property name="Diggable" value="T"/>
    <property name="Type" value="Dirt"/>
   </properties>
  </tile>
  <tile id="608">
   <properties>
    <property name="Diggable" value="T"/>
    <property name="Type" value="Dirt"/>
   </properties>
  </tile>
  <tile id="610">
   <properties>
    <property name="Diggable" value="T"/>
    <property name="Type" value="Dirt"/>
   </properties>
  </tile>
  <tile id="611">
   <properties>
    <property name="Type" value="Dirt"/>
   </properties>
  </tile>
  <tile id="612">
   <properties>
    <property name="Type" value="Dirt"/>
   </properties>
  </tile>
  <tile id="613">
   <properties>
    <property name="Type" value="Dirt"/>
   </properties>
  </tile>
  <tile id="614">
   <properties>
    <property name="Diggable" value="T"/>
    <property name="Type" value="Dirt"/>
   </properties>
  </tile>
  <tile id="615">
   <properties>
    <property name="Type" value="Dirt"/>
   </properties>
  </tile>
  <tile id="616">
   <properties>
    <property name="Type" value="Dirt"/>
   </properties>
  </tile>
  <tile id="617">
   <properties>
    <property name="Type" value="Dirt"/>
   </properties>
  </tile>
  <tile id="618">
   <properties>
    <property name="Type" value="Dirt"/>
   </properties>
  </tile>
  <tile id="619">
   <properties>
    <property name="Type" value="Grass"/>
   </properties>
  </tile>
  <tile id="620">
   <properties>
    <property name="Type" value="Dirt"/>
   </properties>
  </tile>
  <tile id="621">
   <properties>
    <property name="Type" value="Dirt"/>
   </properties>
  </tile>
  <tile id="622">
   <properties>
    <property name="Type" value="Dirt"/>
   </properties>
  </tile>
  <tile id="623">
   <properties>
    <property name="Type" value="Stone"/>
   </properties>
  </tile>
  <tile id="628">
   <properties>
    <property name="Water" value="T"/>
   </properties>
  </tile>
  <tile id="629">
   <properties>
    <property name="Water" value="T"/>
   </properties>
  </tile>
  <tile id="630">
   <properties>
    <property name="Diggable" value="T"/>
    <property name="Type" value="Dirt"/>
   </properties>
  </tile>
  <tile id="631">
   <properties>
    <property name="Type" value="Dirt"/>
   </properties>
  </tile>
  <tile id="632">
   <properties>
    <property name="Diggable" value="T"/>
    <property name="Type" value="Dirt"/>
   </properties>
  </tile>
  <tile id="633">
   <properties>
    <property name="Type" value="Grass"/>
   </properties>
  </tile>
  <tile id="634">
   <properties>
    <property name="Spawnable" value="T"/>
    <property name="Type" value="Grass"/>
   </properties>
  </tile>
  <tile id="635">
   <properties>
    <property name="Type" value="Dirt"/>
   </properties>
  </tile>
  <tile id="636">
   <properties>
    <property name="Type" value="Dirt"/>
   </properties>
  </tile>
  <tile id="653">
   <properties>
    <property name="Water" value="T"/>
   </properties>
  </tile>
  <tile id="654">
   <properties>
    <property name="Type" value="Grass"/>
   </properties>
  </tile>
  <tile id="655">
   <properties>
    <property name="Type" value="Dirt"/>
   </properties>
  </tile>
  <tile id="656">
   <properties>
    <property name="Type" value="Dirt"/>
   </properties>
  </tile>
  <tile id="657">
   <properties>
    <property name="Type" value="Grass"/>
   </properties>
  </tile>
  <tile id="658">
   <properties>
    <property name="Type" value="Grass"/>
   </properties>
  </tile>
  <tile id="659">
   <properties>
    <property name="Type" value="Grass"/>
   </properties>
  </tile>
  <tile id="679">
   <properties>
    <property name="Type" value="Dirt"/>
   </properties>
  </tile>
  <tile id="680">
   <properties>
    <property name="Diggable" value="T"/>
    <property name="Type" value="Dirt"/>
   </properties>
  </tile>
  <tile id="681">
   <properties>
    <property name="Diggable" value="T"/>
    <property name="Type" value="Dirt"/>
   </properties>
  </tile>
  <tile id="682">
   <properties>
    <property name="Type" value="Dirt"/>
   </properties>
  </tile>
  <tile id="683">
   <properties>
    <property name="Type" value="Grass"/>
   </properties>
  </tile>
  <tile id="684">
   <properties>
    <property name="Type" value="Grass"/>
   </properties>
  </tile>
  <tile id="685">
   <properties>
    <property name="Diggable" value="T"/>
    <property name="Type" value="Dirt"/>
   </properties>
  </tile>
  <tile id="704">
   <properties>
    <property name="Type" value="Grass"/>
   </properties>
  </tile>
  <tile id="705">
   <properties>
    <property name="Type" value="Dirt"/>
   </properties>
  </tile>
  <tile id="706">
   <properties>
    <property name="Diggable" value="T"/>
    <property name="Type" value="Dirt"/>
   </properties>
  </tile>
  <tile id="707">
   <properties>
    <property name="Type" value="Grass"/>
   </properties>
  </tile>
  <tile id="729">
   <properties>
    <property name="Type" value="Wood"/>
   </properties>
  </tile>
  <tile id="730">
   <properties>
    <property name="Type" value="Wood"/>
   </properties>
  </tile>
  <tile id="734">
   <properties>
    <property name="Water" value="T"/>
   </properties>
  </tile>
  <tile id="754">
   <properties>
    <property name="Type" value="Wood"/>
   </properties>
  </tile>
  <tile id="755">
   <properties>
    <property name="Type" value="Wood"/>
   </properties>
  </tile>
  <tile id="759">
   <properties>
    <property name="Water" value="T"/>
   </properties>
  </tile>
  <tile id="779">
   <properties>
    <property name="Passable" value="T"/>
    <property name="Type" value="Wood"/>
   </properties>
  </tile>
  <tile id="780">
   <properties>
    <property name="Passable" value="T"/>
    <property name="Type" value="Wood"/>
   </properties>
  </tile>
  <tile id="781">
   <properties>
    <property name="Passable" value="T"/>
    <property name="Type" value="Wood"/>
   </properties>
  </tile>
  <tile id="782">
   <properties>
    <property name="Passable" value="T"/>
    <property name="Type" value="Wood"/>
   </properties>
  </tile>
  <tile id="809">
   <properties>
    <property name="Passable" value="T"/>
    <property name="Type" value="Wood"/>
   </properties>
  </tile>
  <tile id="812">
   <properties>
    <property name="Type" value="Stone"/>
   </properties>
  </tile>
  <tile id="813">
   <properties>
    <property name="Type" value="Stone"/>
   </properties>
  </tile>
  <tile id="834">
   <properties>
    <property name="Passable" value="T"/>
    <property name="Type" value="Wood"/>
   </properties>
  </tile>
  <tile id="838">
   <properties>
    <property name="Type" value="Stone"/>
   </properties>
  </tile>
  <tile id="859">
   <properties>
    <property name="Passable" value="T"/>
    <property name="Type" value="Wood"/>
   </properties>
  </tile>
  <tile id="884">
   <properties>
    <property name="Passable" value="T"/>
    <property name="Type" value="Wood"/>
   </properties>
  </tile>
  <tile id="947">
   <properties>
    <property name="Type" value="Stone"/>
   </properties>
  </tile>
  <tile id="948">
   <properties>
    <property name="Type" value="Stone"/>
   </properties>
  </tile>
  <tile id="949">
   <properties>
    <property name="Type" value="Stone"/>
   </properties>
  </tile>
  <tile id="972">
   <properties>
    <property name="Type" value="Stone"/>
   </properties>
  </tile>
  <tile id="973">
   <properties>
    <property name="Type" value="Stone"/>
   </properties>
  </tile>
  <tile id="974">
   <properties>
    <property name="Type" value="Stone"/>
   </properties>
  </tile>
  <tile id="998">
   <properties>
    <property name="Type" value="Stone"/>
   </properties>
  </tile>
  <tile id="999">
   <properties>
    <property name="Type" value="Stone"/>
   </properties>
  </tile>
  <tile id="1186">
   <properties>
    <property name="Water" value="T"/>
   </properties>
  </tile>
  <tile id="1187">
   <properties>
    <property name="Water" value="T"/>
   </properties>
  </tile>
  <tile id="1188">
   <properties>
    <property name="Water" value="T"/>
   </properties>
  </tile>
  <tile id="1211">
   <properties>
    <property name="Water" value="T"/>
   </properties>
  </tile>
  <tile id="1212">
   <properties>
    <property name="Water" value="T"/>
   </properties>
  </tile>
  <tile id="1213">
   <properties>
    <property name="Water" value="T"/>
   </properties>
  </tile>
  <tile id="1227">
   <properties>
    <property name="Water" value="T"/>
   </properties>
  </tile>
  <tile id="1228">
   <properties>
    <property name="Water" value="T"/>
   </properties>
  </tile>
  <tile id="1229">
   <properties>
    <property name="Water" value="T"/>
   </properties>
  </tile>
  <tile id="1230">
   <properties>
    <property name="Water" value="T"/>
   </properties>
  </tile>
  <tile id="1231">
   <properties>
    <property name="Water" value="T"/>
   </properties>
  </tile>
  <tile id="1237">
   <properties>
    <property name="Water" value="T"/>
   </properties>
  </tile>
  <tile id="1238">
   <properties>
    <property name="Water" value="T"/>
   </properties>
  </tile>
  <tile id="1239">
   <properties>
    <property name="Water" value="T"/>
   </properties>
  </tile>
  <tile id="1240">
   <properties>
    <property name="Water" value="T"/>
   </properties>
  </tile>
  <tile id="1241">
   <properties>
    <property name="Water" value="T"/>
   </properties>
  </tile>
  <tile id="1242">
   <properties>
    <property name="Water" value="T"/>
   </properties>
  </tile>
  <tile id="1243">
   <properties>
    <property name="Water" value="T"/>
   </properties>
  </tile>
  <tile id="1244">
   <properties>
    <property name="Water" value="T"/>
   </properties>
  </tile>
  <tile id="1245">
   <properties>
    <property name="Water" value="T"/>
   </properties>
  </tile>
  <tile id="1246">
   <properties>
    <property name="Passable" value="F"/>
    <property name="Water" value="T"/>
   </properties>
  </tile>
  <tile id="1247">
   <properties>
    <property name="Water" value="T"/>
   </properties>
  </tile>
  <tile id="1248">
   <properties>
    <property name="Water" value="T"/>
   </properties>
  </tile>
  <tile id="1249">
   <properties>
    <property name="Passable" value="F"/>
    <property name="Water" value="T"/>
   </properties>
  </tile>
  <tile id="1252">
   <properties>
    <property name="Water" value="T"/>
   </properties>
  </tile>
  <tile id="1253">
   <properties>
    <property name="Water" value="T"/>
   </properties>
  </tile>
  <tile id="1254">
   <properties>
    <property name="Water" value="T"/>
   </properties>
  </tile>
  <tile id="1255">
   <properties>
    <property name="Water" value="T"/>
   </properties>
  </tile>
  <tile id="1256">
   <properties>
    <property name="Water" value="T"/>
   </properties>
  </tile>
  <tile id="1263">
   <properties>
    <property name="Water" value="T"/>
   </properties>
  </tile>
  <tile id="1264">
   <properties>
    <property name="Water" value="T"/>
   </properties>
  </tile>
  <tile id="1265">
   <properties>
    <property name="Water" value="T"/>
   </properties>
  </tile>
  <tile id="1266">
   <properties>
    <property name="Passable" value="F"/>
    <property name="Water" value="T"/>
   </properties>
  </tile>
  <tile id="1267">
   <properties>
    <property name="Passable" value="F"/>
    <property name="Water" value="T"/>
   </properties>
  </tile>
  <tile id="1268">
   <properties>
    <property name="Water" value="T"/>
   </properties>
  </tile>
  <tile id="1269">
   <properties>
    <property name="Water" value="T"/>
   </properties>
  </tile>
  <tile id="1270">
   <properties>
    <property name="Water" value="T"/>
   </properties>
  </tile>
  <tile id="1271">
   <properties>
    <property name="Passable" value="F"/>
    <property name="Water" value="T"/>
   </properties>
  </tile>
  <tile id="1272">
   <properties>
    <property name="Water" value="T"/>
   </properties>
  </tile>
  <tile id="1273">
   <properties>
    <property name="Water" value="T"/>
   </properties>
  </tile>
  <tile id="1274">
   <properties>
    <property name="Water" value="T"/>
   </properties>
  </tile>
  <tile id="1277">
   <properties>
    <property name="Water" value="T"/>
   </properties>
  </tile>
  <tile id="1278">
   <properties>
    <property name="Water" value="T"/>
   </properties>
  </tile>
  <tile id="1279">
   <properties>
    <property name="Water" value="T"/>
   </properties>
  </tile>
  <tile id="1280">
   <properties>
    <property name="Water" value="T"/>
   </properties>
  </tile>
  <tile id="1281">
   <properties>
    <property name="Water" value="T"/>
   </properties>
  </tile>
  <tile id="1297">
   <properties>
    <property name="Water" value="T"/>
   </properties>
  </tile>
  <tile id="1298">
   <properties>
    <property name="Water" value="T"/>
   </properties>
  </tile>
  <tile id="1299">
   <properties>
    <property name="Passable" value="F"/>
    <property name="Water" value="T"/>
   </properties>
  </tile>
  <tile id="1302">
   <properties>
    <property name="Water" value="T"/>
   </properties>
  </tile>
  <tile id="1303">
   <properties>
    <property name="Water" value="T"/>
   </properties>
  </tile>
  <tile id="1304">
   <properties>
    <property name="Water" value="T"/>
   </properties>
  </tile>
  <tile id="1305">
   <properties>
    <property name="Water" value="T"/>
   </properties>
  </tile>
  <tile id="1306">
   <properties>
    <property name="Water" value="T"/>
   </properties>
  </tile>
  <tile id="1322">
   <properties>
    <property name="Water" value="T"/>
   </properties>
  </tile>
  <tile id="1323">
   <properties>
    <property name="Water" value="T"/>
   </properties>
  </tile>
  <tile id="1324">
   <properties>
    <property name="Water" value="T"/>
   </properties>
  </tile>
 </tileset>
 <tileset firstgid="1976" name="Paths" tilewidth="16" tileheight="16" tilecount="64" columns="4">
  <image source="paths" width="64" height="256"/>
  <tile id="35">
   <properties>
    <property name="GreenRain" value="??"/>
   </properties>
  </tile>
 </tileset>
 <tileset firstgid="2040" name="Town" tilewidth="16" tileheight="16" tilecount="2304" columns="32">
  <image source="spring_town" width="512" height="1152"/>
  <tile id="45">
   <animation>
    <frame tileid="45" duration="1000"/>
    <frame tileid="45" duration="1000"/>
    <frame tileid="45" duration="1000"/>
    <frame tileid="45" duration="1000"/>
    <frame tileid="45" duration="1000"/>
    <frame tileid="45" duration="1000"/>
    <frame tileid="45" duration="1000"/>
    <frame tileid="45" duration="1000"/>
    <frame tileid="45" duration="1000"/>
    <frame tileid="45" duration="1000"/>
    <frame tileid="45" duration="1000"/>
    <frame tileid="45" duration="1000"/>
    <frame tileid="45" duration="1000"/>
    <frame tileid="45" duration="1000"/>
    <frame tileid="45" duration="1000"/>
    <frame tileid="45" duration="1000"/>
    <frame tileid="45" duration="1000"/>
    <frame tileid="12" duration="1000"/>
   </animation>
  </tile>
  <tile id="159">
   <properties>
    <property name="Passable" value="T"/>
   </properties>
  </tile>
  <tile id="191">
   <properties>
    <property name="Passable" value="T"/>
   </properties>
  </tile>
  <tile id="223">
   <properties>
    <property name="Passable" value="T"/>
   </properties>
  </tile>
  <tile id="608">
   <properties>
    <property name="Type" value="Grass"/>
   </properties>
  </tile>
  <tile id="609">
   <properties>
    <property name="Type" value="Grass"/>
   </properties>
  </tile>
  <tile id="610">
   <properties>
    <property name="Type" value="Grass"/>
   </properties>
  </tile>
  <tile id="611">
   <properties>
    <property name="Type" value="Grass"/>
   </properties>
  </tile>
  <tile id="612">
   <properties>
    <property name="Type" value="Grass"/>
   </properties>
  </tile>
  <tile id="641">
   <properties>
    <property name="Type" value="Stone"/>
   </properties>
  </tile>
  <tile id="644">
   <properties>
    <property name="Type" value="Grass"/>
   </properties>
  </tile>
  <tile id="645">
   <properties>
    <property name="Type" value="Grass"/>
   </properties>
  </tile>
  <tile id="646">
   <properties>
    <property name="Type" value="Stone"/>
   </properties>
  </tile>
  <tile id="672">
   <properties>
    <property name="Type" value="Grass"/>
   </properties>
  </tile>
  <tile id="674">
   <properties>
    <property name="Type" value="Grass"/>
   </properties>
  </tile>
  <tile id="676">
   <properties>
    <property name="Type" value="Stone"/>
   </properties>
  </tile>
  <tile id="736">
   <properties>
    <property name="Type" value="Stone"/>
   </properties>
  </tile>
  <tile id="737">
   <properties>
    <property name="Type" value="Stone"/>
   </properties>
  </tile>
  <tile id="768">
   <properties>
    <property name="Type" value="Stone"/>
   </properties>
  </tile>
  <tile id="769">
   <properties>
    <property name="Type" value="Stone"/>
   </properties>
  </tile>
  <tile id="770">
   <properties>
    <property name="Type" value="Stone"/>
   </properties>
  </tile>
  <tile id="858">
   <properties>
    <property name="Type" value="Stone"/>
   </properties>
  </tile>
  <tile id="859">
   <properties>
    <property name="Type" value="Stone"/>
   </properties>
  </tile>
  <tile id="860">
   <properties>
    <property name="Type" value="Stone"/>
   </properties>
  </tile>
  <tile id="861">
   <properties>
    <property name="Type" value="Stone"/>
   </properties>
  </tile>
  <tile id="862">
   <properties>
    <property name="Type" value="Stone"/>
   </properties>
  </tile>
  <tile id="863">
   <properties>
    <property name="Type" value="Stone"/>
   </properties>
  </tile>
  <tile id="874">
   <properties>
    <property name="Type" value="Stone"/>
   </properties>
  </tile>
  <tile id="890">
   <properties>
    <property name="Type" value="Stone"/>
   </properties>
  </tile>
  <tile id="891">
   <properties>
    <property name="Type" value="Stone"/>
   </properties>
  </tile>
  <tile id="892">
   <properties>
    <property name="Type" value="Stone"/>
   </properties>
  </tile>
  <tile id="893">
   <properties>
    <property name="Type" value="Stone"/>
   </properties>
  </tile>
  <tile id="894">
   <properties>
    <property name="Type" value="Stone"/>
   </properties>
  </tile>
  <tile id="895">
   <properties>
    <property name="Type" value="Stone"/>
   </properties>
  </tile>
  <tile id="901">
   <properties>
    <property name="Type" value="Stone"/>
   </properties>
  </tile>
  <tile id="902">
   <properties>
    <property name="Type" value="Stone"/>
   </properties>
  </tile>
  <tile id="903">
   <properties>
    <property name="Type" value="Stone"/>
   </properties>
  </tile>
  <tile id="904">
   <properties>
    <property name="Type" value="Stone"/>
   </properties>
  </tile>
  <tile id="905">
   <properties>
    <property name="Passable" value="F"/>
   </properties>
  </tile>
  <tile id="909">
   <properties>
    <property name="Type" value="Stone"/>
   </properties>
  </tile>
  <tile id="916">
   <properties>
    <property name="Water" value="T"/>
   </properties>
  </tile>
  <tile id="917">
   <properties>
    <property name="Water" value="T"/>
   </properties>
  </tile>
  <tile id="918">
   <properties>
    <property name="Water" value="T"/>
   </properties>
  </tile>
  <tile id="919">
   <properties>
    <property name="Water" value="T"/>
   </properties>
  </tile>
  <tile id="922">
   <properties>
    <property name="Type" value="Stone"/>
   </properties>
  </tile>
  <tile id="923">
   <properties>
    <property name="Type" value="Stone"/>
   </properties>
  </tile>
  <tile id="924">
   <properties>
    <property name="Type" value="Stone"/>
   </properties>
  </tile>
  <tile id="925">
   <properties>
    <property name="Type" value="Stone"/>
   </properties>
  </tile>
  <tile id="926">
   <properties>
    <property name="Type" value="Stone"/>
   </properties>
  </tile>
  <tile id="927">
   <properties>
    <property name="Type" value="Stone"/>
   </properties>
  </tile>
  <tile id="931">
   <properties>
    <property name="Type" value="Stone"/>
   </properties>
  </tile>
  <tile id="932">
   <properties>
    <property name="Type" value="Stone"/>
   </properties>
  </tile>
  <tile id="933">
   <properties>
    <property name="Type" value="Stone"/>
   </properties>
  </tile>
  <tile id="934">
   <properties>
    <property name="Type" value="Stone"/>
   </properties>
  </tile>
  <tile id="935">
   <properties>
    <property name="Type" value="Stone"/>
   </properties>
  </tile>
  <tile id="936">
   <properties>
    <property name="Type" value="Stone"/>
   </properties>
  </tile>
  <tile id="950">
   <properties>
    <property name="Water" value="T"/>
   </properties>
  </tile>
  <tile id="954">
   <properties>
    <property name="Type" value="Stone"/>
   </properties>
  </tile>
  <tile id="955">
   <properties>
    <property name="Type" value="Stone"/>
   </properties>
  </tile>
  <tile id="956">
   <properties>
    <property name="Type" value="Stone"/>
   </properties>
  </tile>
  <tile id="957">
   <properties>
    <property name="Type" value="Stone"/>
   </properties>
  </tile>
  <tile id="958">
   <properties>
    <property name="Type" value="Stone"/>
   </properties>
  </tile>
  <tile id="959">
   <properties>
    <property name="Type" value="Stone"/>
   </properties>
  </tile>
  <tile id="963">
   <properties>
    <property name="Type" value="Stone"/>
   </properties>
  </tile>
  <tile id="964">
   <properties>
    <property name="Type" value="Stone"/>
   </properties>
  </tile>
  <tile id="965">
   <properties>
    <property name="Type" value="Stone"/>
   </properties>
  </tile>
  <tile id="966">
   <properties>
    <property name="Type" value="Stone"/>
   </properties>
  </tile>
  <tile id="967">
   <properties>
    <property name="Type" value="Stone"/>
   </properties>
  </tile>
  <tile id="968">
   <properties>
    <property name="Type" value="Stone"/>
   </properties>
  </tile>
  <tile id="969">
   <properties>
    <property name="Type" value="Stone"/>
   </properties>
  </tile>
  <tile id="970">
   <properties>
    <property name="Type" value="Stone"/>
   </properties>
  </tile>
  <tile id="986">
   <properties>
    <property name="Type" value="Stone"/>
   </properties>
  </tile>
  <tile id="987">
   <properties>
    <property name="Type" value="Stone"/>
   </properties>
  </tile>
  <tile id="988">
   <properties>
    <property name="Type" value="Stone"/>
   </properties>
  </tile>
  <tile id="989">
   <properties>
    <property name="Type" value="Stone"/>
   </properties>
  </tile>
  <tile id="990">
   <properties>
    <property name="Type" value="Stone"/>
   </properties>
  </tile>
  <tile id="991">
   <properties>
    <property name="Type" value="Stone"/>
   </properties>
  </tile>
  <tile id="993">
   <properties>
    <property name="Type" value="Stone"/>
   </properties>
  </tile>
  <tile id="994">
   <properties>
    <property name="Type" value="Stone"/>
   </properties>
  </tile>
  <tile id="995">
   <properties>
    <property name="Type" value="Stone"/>
   </properties>
  </tile>
  <tile id="996">
   <properties>
    <property name="Type" value="Stone"/>
   </properties>
  </tile>
  <tile id="997">
   <properties>
    <property name="Type" value="Stone"/>
   </properties>
  </tile>
  <tile id="998">
   <properties>
    <property name="Type" value="Stone"/>
   </properties>
  </tile>
  <tile id="999">
   <properties>
    <property name="Type" value="Stone"/>
   </properties>
  </tile>
  <tile id="1000">
   <properties>
    <property name="Type" value="Stone"/>
   </properties>
  </tile>
  <tile id="1007">
   <properties>
    <property name="Type" value="Stone"/>
   </properties>
  </tile>
  <tile id="1008">
   <properties>
    <property name="Type" value="Stone"/>
   </properties>
  </tile>
  <tile id="1018">
   <properties>
    <property name="Type" value="Stone"/>
   </properties>
  </tile>
  <tile id="1019">
   <properties>
    <property name="Type" value="Stone"/>
   </properties>
  </tile>
  <tile id="1020">
   <properties>
    <property name="Type" value="Stone"/>
   </properties>
  </tile>
  <tile id="1021">
   <properties>
    <property name="Type" value="Stone"/>
   </properties>
  </tile>
  <tile id="1022">
   <properties>
    <property name="Type" value="Stone"/>
   </properties>
  </tile>
  <tile id="1023">
   <properties>
    <property name="Type" value="Stone"/>
   </properties>
  </tile>
  <tile id="1031">
   <properties>
    <property name="Type" value="Dirt"/>
   </properties>
  </tile>
  <tile id="1032">
   <properties>
    <property name="Type" value="Dirt"/>
   </properties>
  </tile>
  <tile id="1033">
   <properties>
    <property name="Type" value="Dirt"/>
   </properties>
  </tile>
  <tile id="1037">
   <animation>
    <frame tileid="1037" duration="100"/>
    <frame tileid="1038" duration="100"/>
    <frame tileid="1039" duration="100"/>
    <frame tileid="1039" duration="100"/>
   </animation>
  </tile>
  <tile id="1063">
   <properties>
    <property name="Type" value="Dirt"/>
   </properties>
  </tile>
  <tile id="1064">
   <properties>
    <property name="Type" value="Dirt"/>
   </properties>
  </tile>
  <tile id="1065">
   <properties>
    <property name="Type" value="Dirt"/>
   </properties>
  </tile>
  <tile id="1070">
   <animation>
    <frame tileid="1070" duration="100"/>
    <frame tileid="1101" duration="100"/>
    <frame tileid="1102" duration="100"/>
    <frame tileid="1043" duration="100"/>
   </animation>
  </tile>
  <tile id="1095">
   <properties>
    <property name="Type" value="Dirt"/>
   </properties>
  </tile>
  <tile id="1096">
   <properties>
    <property name="Type" value="Dirt"/>
   </properties>
  </tile>
  <tile id="1097">
   <properties>
    <property name="Type" value="Dirt"/>
   </properties>
  </tile>
  <tile id="1201">
   <animation>
    <frame tileid="1201" duration="100"/>
    <frame tileid="1202" duration="100"/>
    <frame tileid="1203" duration="100"/>
    <frame tileid="1204" duration="100"/>
    <frame tileid="1205" duration="100"/>
    <frame tileid="1206" duration="100"/>
   </animation>
  </tile>
  <tile id="1233">
   <animation>
    <frame tileid="1233" duration="100"/>
    <frame tileid="1234" duration="100"/>
    <frame tileid="1235" duration="100"/>
    <frame tileid="1236" duration="100"/>
    <frame tileid="1237" duration="100"/>
    <frame tileid="1238" duration="100"/>
   </animation>
  </tile>
  <tile id="1249">
   <properties>
    <property name="Shadow" value="T"/>
   </properties>
  </tile>
  <tile id="1265">
   <animation>
    <frame tileid="1265" duration="100"/>
    <frame tileid="1266" duration="100"/>
    <frame tileid="1267" duration="100"/>
    <frame tileid="1268" duration="100"/>
    <frame tileid="1269" duration="100"/>
    <frame tileid="1270" duration="100"/>
   </animation>
  </tile>
  <tile id="1573">
   <properties>
    <property name="Type" value="Stone"/>
   </properties>
  </tile>
  <tile id="1574">
   <properties>
    <property name="Type" value="Stone"/>
   </properties>
  </tile>
  <tile id="1585">
   <properties>
    <property name="Type" value="Stone"/>
   </properties>
  </tile>
  <tile id="1586">
   <properties>
    <property name="Type" value="Stone"/>
   </properties>
  </tile>
  <tile id="1958">
   <properties>
    <property name="Shadow" value="T"/>
   </properties>
  </tile>
 </tileset>
 <tileset firstgid="4344" name="v16_landscape2" tilewidth="16" tileheight="16" tilecount="1120" columns="16">
  <image source="spring_outdoorsTileSheet2" width="256" height="1120"/>
  <tile id="568">
   <animation>
    <frame tileid="568" duration="1000"/>
    <frame tileid="572" duration="1000"/>
   </animation>
  </tile>
  <tile id="570">
   <animation>
    <frame tileid="570" duration="1000"/>
    <frame tileid="574" duration="1000"/>
   </animation>
  </tile>
  <tile id="736">
   <properties>
    <property name="Type" value="Wood"/>
   </properties>
  </tile>
  <tile id="737">
   <properties>
    <property name="Type" value="Wood"/>
   </properties>
  </tile>
  <tile id="738">
   <properties>
    <property name="Type" value="Wood"/>
   </properties>
  </tile>
  <tile id="739">
   <properties>
    <property name="Type" value="Wood"/>
   </properties>
  </tile>
  <tile id="740">
   <properties>
    <property name="Type" value="Grass"/>
   </properties>
  </tile>
  <tile id="741">
   <properties>
    <property name="Type" value="Grass"/>
   </properties>
  </tile>
  <tile id="752">
   <properties>
    <property name="Type" value="Wood"/>
   </properties>
  </tile>
  <tile id="753">
   <properties>
    <property name="Type" value="Wood"/>
   </properties>
  </tile>
  <tile id="754">
   <properties>
    <property name="Type" value="Wood"/>
   </properties>
  </tile>
  <tile id="755">
   <properties>
    <property name="Type" value="Wood"/>
   </properties>
  </tile>
  <tile id="756">
   <properties>
    <property name="Type" value="Grass"/>
   </properties>
  </tile>
  <tile id="757">
   <properties>
    <property name="Type" value="Grass"/>
   </properties>
  </tile>
  <tile id="772">
   <properties>
    <property name="Type" value="Grass"/>
   </properties>
  </tile>
  <tile id="773">
   <properties>
    <property name="Type" value="Grass"/>
   </properties>
  </tile>
  <tile id="816">
   <properties>
    <property name="Water" value="T"/>
   </properties>
  </tile>
  <tile id="817">
   <properties>
    <property name="Water" value="T"/>
   </properties>
  </tile>
  <tile id="820">
   <properties>
    <property name="Water" value="T"/>
   </properties>
  </tile>
  <tile id="821">
   <properties>
    <property name="Water" value="T"/>
   </properties>
  </tile>
  <tile id="822">
   <properties>
    <property name="Water" value="T"/>
   </properties>
  </tile>
  <tile id="832">
   <properties>
    <property name="Water" value="T"/>
   </properties>
  </tile>
  <tile id="833">
   <properties>
    <property name="Water" value="T"/>
   </properties>
  </tile>
  <tile id="834">
   <properties>
    <property name="Water" value="T"/>
   </properties>
  </tile>
  <tile id="835">
   <properties>
    <property name="Water" value="T"/>
   </properties>
  </tile>
  <tile id="836">
   <properties>
    <property name="Water" value="T"/>
   </properties>
  </tile>
  <tile id="837">
   <properties>
    <property name="Water" value="T"/>
   </properties>
  </tile>
  <tile id="838">
   <properties>
    <property name="Water" value="T"/>
   </properties>
  </tile>
  <tile id="848">
   <properties>
    <property name="Water" value="T"/>
   </properties>
  </tile>
  <tile id="849">
   <properties>
    <property name="Water" value="T"/>
   </properties>
  </tile>
  <tile id="850">
   <properties>
    <property name="Water" value="T"/>
   </properties>
  </tile>
  <tile id="851">
   <properties>
    <property name="Water" value="T"/>
   </properties>
  </tile>
  <tile id="852">
   <properties>
    <property name="Water" value="T"/>
   </properties>
  </tile>
  <tile id="853">
   <properties>
    <property name="Water" value="T"/>
   </properties>
  </tile>
  <tile id="854">
   <properties>
    <property name="Water" value="T"/>
   </properties>
  </tile>
  <tile id="864">
   <properties>
    <property name="Water" value="T"/>
   </properties>
  </tile>
  <tile id="865">
   <properties>
    <property name="Water" value="T"/>
   </properties>
  </tile>
  <tile id="866">
   <properties>
    <property name="Water" value="T"/>
   </properties>
  </tile>
  <tile id="867">
   <properties>
    <property name="Water" value="T"/>
   </properties>
  </tile>
  <tile id="868">
   <properties>
    <property name="Water" value="T"/>
   </properties>
  </tile>
  <tile id="869">
   <properties>
    <property name="Water" value="T"/>
   </properties>
  </tile>
  <tile id="870">
   <properties>
    <property name="Water" value="T"/>
   </properties>
  </tile>
  <tile id="880">
   <properties>
    <property name="Water" value="T"/>
   </properties>
  </tile>
  <tile id="881">
   <properties>
    <property name="Water" value="T"/>
   </properties>
  </tile>
  <tile id="882">
   <properties>
    <property name="Water" value="T"/>
   </properties>
  </tile>
  <tile id="883">
   <properties>
    <property name="Water" value="T"/>
   </properties>
  </tile>
  <tile id="897">
   <animation>
    <frame tileid="897" duration="1000"/>
    <frame tileid="929" duration="1000"/>
   </animation>
  </tile>
  <tile id="912">
   <animation>
    <frame tileid="912" duration="1000"/>
    <frame tileid="944" duration="1000"/>
   </animation>
  </tile>
  <tile id="913">
   <animation>
    <frame tileid="913" duration="1000"/>
    <frame tileid="945" duration="1000"/>
   </animation>
  </tile>
  <tile id="914">
   <animation>
    <frame tileid="914" duration="1000"/>
    <frame tileid="915" duration="1000"/>
   </animation>
  </tile>
  <tile id="930">
   <animation>
    <frame tileid="930" duration="1000"/>
    <frame tileid="931" duration="1000"/>
   </animation>
  </tile>
  <tile id="960">
   <animation>
    <frame tileid="960" duration="1000"/>
    <frame tileid="992" duration="1000"/>
   </animation>
  </tile>
  <tile id="962">
   <animation>
    <frame tileid="962" duration="1000"/>
    <frame tileid="963" duration="1000"/>
   </animation>
  </tile>
  <tile id="976">
   <animation>
    <frame tileid="976" duration="1000"/>
    <frame tileid="1008" duration="1000"/>
   </animation>
  </tile>
  <tile id="977">
   <animation>
    <frame tileid="977" duration="1000"/>
    <frame tileid="1009" duration="1000"/>
   </animation>
  </tile>
  <tile id="978">
   <animation>
    <frame tileid="978" duration="1000"/>
    <frame tileid="979" duration="1000"/>
   </animation>
  </tile>
  <tile id="1056">
   <animation>
    <frame tileid="1056" duration="1000"/>
    <frame tileid="1057" duration="1000"/>
   </animation>
  </tile>
  <tile id="1058">
   <animation>
    <frame tileid="1058" duration="1000"/>
    <frame tileid="1059" duration="1000"/>
   </animation>
  </tile>
 </tileset>
 <tileset firstgid="5464" name="v16_Shadows" tilewidth="16" tileheight="16" tilecount="475" columns="19">
  <image source="spring_Shadows" width="304" height="400"/>
 </tileset>
 <tileset firstgid="5939" name="bushes" tilewidth="16" tileheight="16" tilecount="176" columns="8">
  <image source="bushes.png" width="128" height="352"/>
 </tileset>
 <tileset firstgid="6115" name="Landscape" tilewidth="16" tileheight="16" tilecount="1975" columns="25">
  <image source="spring_outdoorsTileSheet.png" width="400" height="1264"/>
  <tile id="150">
   <properties>
    <property name="Spawnable" value="T"/>
    <property name="Type" value="Grass"/>
   </properties>
   <animation>
    <frame tileid="150" duration="100"/>
    <frame tileid="420" duration="100"/>
    <frame tileid="421" duration="100"/>
    <frame tileid="422" duration="100"/>
    <frame tileid="423" duration="100"/>
    <frame tileid="420" duration="100"/>
    <frame tileid="150" duration="100"/>
    <frame tileid="150" duration="100"/>
    <frame tileid="150" duration="100"/>
    <frame tileid="150" duration="100"/>
    <frame tileid="150" duration="100"/>
    <frame tileid="150" duration="100"/>
    <frame tileid="150" duration="100"/>
    <frame tileid="150" duration="100"/>
    <frame tileid="150" duration="100"/>
    <frame tileid="150" duration="100"/>
    <frame tileid="150" duration="100"/>
    <frame tileid="150" duration="100"/>
    <frame tileid="150" duration="100"/>
    <frame tileid="150" duration="100"/>
    <frame tileid="150" duration="100"/>
    <frame tileid="150" duration="100"/>
    <frame tileid="150" duration="100"/>
    <frame tileid="150" duration="100"/>
    <frame tileid="150" duration="100"/>
    <frame tileid="150" duration="100"/>
    <frame tileid="150" duration="100"/>
    <frame tileid="150" duration="100"/>
    <frame tileid="150" duration="100"/>
    <frame tileid="150" duration="100"/>
    <frame tileid="150" duration="100"/>
   </animation>
  </tile>
  <tile id="151">
   <properties>
    <property name="Type" value="Grass"/>
   </properties>
   <animation>
    <frame tileid="151" duration="1000"/>
    <frame tileid="152" duration="1000"/>
   </animation>
  </tile>
  <tile id="152">
   <animation>
    <frame tileid="152" duration="1000"/>
    <frame tileid="151" duration="1000"/>
   </animation>
  </tile>
  <tile id="153">
   <properties>
    <property name="Diggable" value="T"/>
    <property name="Type" value="Dirt"/>
   </properties>
  </tile>
  <tile id="156">
   <properties>
    <property name="Spawnable" value="T"/>
    <property name="Type" value="Grass"/>
   </properties>
  </tile>
  <tile id="175">
   <properties>
    <property name="Spawnable" value="T"/>
    <property name="Type" value="Grass"/>
   </properties>
  </tile>
  <tile id="176">
   <properties>
    <property name="Diggable" value="T"/>
    <property name="Type" value="Dirt"/>
   </properties>
  </tile>
  <tile id="177">
   <properties>
    <property name="Type" value="Dirt"/>
   </properties>
  </tile>
  <tile id="178">
   <properties>
    <property name="Type" value="Dirt"/>
   </properties>
  </tile>
  <tile id="179">
   <properties>
    <property name="Type" value="Grass"/>
   </properties>
  </tile>
  <tile id="180">
   <properties>
    <property name="Spawnable" value="T"/>
    <property name="Type" value="Grass"/>
   </properties>
  </tile>
  <tile id="181">
   <properties>
    <property name="Type" value="Dirt"/>
   </properties>
  </tile>
  <tile id="182">
   <properties>
    <property name="Type" value="Dirt"/>
   </properties>
  </tile>
  <tile id="183">
   <animation>
    <frame tileid="183" duration="1000"/>
    <frame tileid="1182" duration="1000"/>
   </animation>
  </tile>
  <tile id="184">
   <animation>
    <frame tileid="184" duration="1000"/>
    <frame tileid="1183" duration="1000"/>
   </animation>
  </tile>
  <tile id="185">
   <animation>
    <frame tileid="185" duration="1000"/>
    <frame tileid="1184" duration="1000"/>
   </animation>
  </tile>
  <tile id="200">
   <properties>
    <property name="Spawnable" value="T"/>
    <property name="Type" value="Grass"/>
   </properties>
  </tile>
  <tile id="202">
   <properties>
    <property name="Type" value="Dirt"/>
   </properties>
  </tile>
  <tile id="203">
   <properties>
    <property name="Type" value="Grass"/>
   </properties>
  </tile>
  <tile id="204">
   <properties>
    <property name="Type" value="Grass"/>
   </properties>
  </tile>
  <tile id="205">
   <properties>
    <property name="Type" value="Grass"/>
   </properties>
  </tile>
  <tile id="206">
   <properties>
    <property name="Diggable" value="T"/>
    <property name="Type" value="Dirt"/>
   </properties>
  </tile>
  <tile id="207">
   <properties>
    <property name="Diggable" value="T"/>
    <property name="Type" value="Dirt"/>
   </properties>
  </tile>
  <tile id="208">
   <animation>
    <frame tileid="208" duration="1000"/>
    <frame tileid="1207" duration="1000"/>
   </animation>
  </tile>
  <tile id="209">
   <properties>
    <property name="Water" value="T"/>
   </properties>
   <animation>
    <frame tileid="209" duration="1000"/>
    <frame tileid="1208" duration="1000"/>
   </animation>
  </tile>
  <tile id="210">
   <animation>
    <frame tileid="210" duration="1000"/>
    <frame tileid="1209" duration="1000"/>
   </animation>
  </tile>
  <tile id="211">
   <animation>
    <frame tileid="211" duration="1000"/>
    <frame tileid="1210" duration="1000"/>
   </animation>
  </tile>
  <tile id="225">
   <properties>
    <property name="Type" value="Dirt"/>
   </properties>
  </tile>
  <tile id="226">
   <properties>
    <property name="Diggable" value="T"/>
    <property name="Type" value="Dirt"/>
   </properties>
  </tile>
  <tile id="227">
   <properties>
    <property name="Diggable" value="T"/>
    <property name="Type" value="Dirt"/>
   </properties>
  </tile>
  <tile id="228">
   <properties>
    <property name="Type" value="Dirt"/>
   </properties>
  </tile>
  <tile id="229">
   <properties>
    <property name="Type" value="Grass"/>
   </properties>
  </tile>
  <tile id="230">
   <properties>
    <property name="Type" value="Grass"/>
   </properties>
  </tile>
  <tile id="231">
   <properties>
    <property name="Diggable" value="T"/>
    <property name="Type" value="Dirt"/>
   </properties>
  </tile>
  <tile id="233">
   <animation>
    <frame tileid="233" duration="1000"/>
    <frame tileid="1232" duration="1000"/>
   </animation>
  </tile>
  <tile id="234">
   <properties>
    <property name="Water" value="T"/>
   </properties>
  </tile>
  <tile id="235">
   <animation>
    <frame tileid="235" duration="1000"/>
    <frame tileid="1290" duration="1000"/>
   </animation>
  </tile>
  <tile id="237">
   <animation>
    <frame tileid="237" duration="1000"/>
    <frame tileid="1291" duration="1000"/>
   </animation>
  </tile>
  <tile id="238">
   <animation>
    <frame tileid="238" duration="1000"/>
    <frame tileid="1292" duration="1000"/>
   </animation>
  </tile>
  <tile id="250">
   <properties>
    <property name="Type" value="Grass"/>
   </properties>
  </tile>
  <tile id="251">
   <properties>
    <property name="Type" value="Dirt"/>
   </properties>
  </tile>
  <tile id="252">
   <properties>
    <property name="Diggable" value="T"/>
    <property name="Type" value="Dirt"/>
   </properties>
  </tile>
  <tile id="253">
   <properties>
    <property name="Type" value="Grass"/>
   </properties>
  </tile>
  <tile id="254">
   <properties>
    <property name="Type" value="Grass"/>
   </properties>
  </tile>
  <tile id="255">
   <properties>
    <property name="Type" value="Grass"/>
   </properties>
  </tile>
  <tile id="256">
   <properties>
    <property name="Type" value="Grass"/>
   </properties>
  </tile>
  <tile id="258">
   <animation>
    <frame tileid="258" duration="1000"/>
    <frame tileid="1257" duration="1000"/>
   </animation>
  </tile>
  <tile id="260">
   <animation>
    <frame tileid="260" duration="1000"/>
    <frame tileid="1315" duration="1000"/>
   </animation>
  </tile>
  <tile id="261">
   <properties>
    <property name="Type" value="Grass"/>
   </properties>
  </tile>
  <tile id="265">
   <properties>
    <property name="Type" value="Dirt"/>
   </properties>
  </tile>
  <tile id="276">
   <properties>
    <property name="Type" value="Grass"/>
   </properties>
  </tile>
  <tile id="277">
   <properties>
    <property name="Type" value="Grass"/>
   </properties>
  </tile>
  <tile id="278">
   <properties>
    <property name="Type" value="Grass"/>
   </properties>
  </tile>
  <tile id="279">
   <properties>
    <property name="Type" value="Grass"/>
   </properties>
  </tile>
  <tile id="281">
   <properties>
    <property name="Type" value="Grass"/>
   </properties>
  </tile>
  <tile id="283">
   <animation>
    <frame tileid="283" duration="1000"/>
    <frame tileid="1312" duration="1000"/>
   </animation>
  </tile>
  <tile id="284">
   <animation>
    <frame tileid="284" duration="1000"/>
    <frame tileid="1313" duration="1000"/>
   </animation>
  </tile>
  <tile id="285">
   <properties>
    <property name="Water" value="T"/>
   </properties>
  </tile>
  <tile id="286">
   <properties>
    <property name="Type" value="Grass"/>
   </properties>
  </tile>
  <tile id="301">
   <properties>
    <property name="Type" value="Grass"/>
   </properties>
  </tile>
  <tile id="302">
   <properties>
    <property name="Type" value="Grass"/>
   </properties>
  </tile>
  <tile id="303">
   <properties>
    <property name="Type" value="Grass"/>
   </properties>
  </tile>
  <tile id="304">
   <properties>
    <property name="Type" value="Grass"/>
   </properties>
  </tile>
  <tile id="305">
   <properties>
    <property name="Type" value="Grass"/>
   </properties>
  </tile>
  <tile id="306">
   <properties>
    <property name="Type" value="Grass"/>
   </properties>
  </tile>
  <tile id="308">
   <properties>
    <property name="Water" value="T"/>
   </properties>
  </tile>
  <tile id="309">
   <properties>
    <property name="Water" value="T"/>
   </properties>
  </tile>
  <tile id="310">
   <properties>
    <property name="Water" value="T"/>
   </properties>
  </tile>
  <tile id="311">
   <properties>
    <property name="Type" value="Grass"/>
   </properties>
  </tile>
  <tile id="312">
   <properties>
    <property name="Type" value="Wood"/>
   </properties>
  </tile>
  <tile id="313">
   <properties>
    <property name="Type" value="Wood"/>
   </properties>
  </tile>
  <tile id="314">
   <properties>
    <property name="Type" value="Wood"/>
   </properties>
  </tile>
  <tile id="325">
   <properties>
    <property name="Type" value="Grass"/>
   </properties>
  </tile>
  <tile id="326">
   <properties>
    <property name="Type" value="Grass"/>
   </properties>
  </tile>
  <tile id="327">
   <properties>
    <property name="Type" value="Grass"/>
   </properties>
  </tile>
  <tile id="328">
   <properties>
    <property name="Type" value="Grass"/>
   </properties>
  </tile>
  <tile id="329">
   <properties>
    <property name="Type" value="Grass"/>
   </properties>
  </tile>
  <tile id="331">
   <properties>
    <property name="Type" value="Grass"/>
   </properties>
  </tile>
  <tile id="332">
   <properties>
    <property name="Type" value="Grass"/>
   </properties>
  </tile>
  <tile id="333">
   <properties>
    <property name="Water" value="T"/>
   </properties>
  </tile>
  <tile id="334">
   <properties>
    <property name="Water" value="T"/>
   </properties>
  </tile>
  <tile id="335">
   <properties>
    <property name="Water" value="T"/>
   </properties>
  </tile>
  <tile id="336">
   <properties>
    <property name="Water" value="T"/>
   </properties>
  </tile>
  <tile id="337">
   <properties>
    <property name="Type" value="Wood"/>
   </properties>
  </tile>
  <tile id="338">
   <properties>
    <property name="Type" value="Wood"/>
   </properties>
  </tile>
  <tile id="339">
   <properties>
    <property name="Type" value="Wood"/>
   </properties>
  </tile>
  <tile id="350">
   <properties>
    <property name="Type" value="Grass"/>
   </properties>
  </tile>
  <tile id="351">
   <properties>
    <property name="Spawnable" value="T"/>
    <property name="Type" value="Grass"/>
   </properties>
  </tile>
  <tile id="352">
   <properties>
    <property name="Type" value="Grass"/>
   </properties>
  </tile>
  <tile id="353">
   <properties>
    <property name="Type" value="Grass"/>
   </properties>
  </tile>
  <tile id="354">
   <properties>
    <property name="Type" value="Grass"/>
   </properties>
  </tile>
  <tile id="355">
   <properties>
    <property name="Type" value="Grass"/>
   </properties>
  </tile>
  <tile id="356">
   <properties>
    <property name="Type" value="Grass"/>
   </properties>
  </tile>
  <tile id="357">
   <properties>
    <property name="Type" value="Grass"/>
   </properties>
  </tile>
  <tile id="375">
   <properties>
    <property name="Type" value="Grass"/>
   </properties>
  </tile>
  <tile id="376">
   <properties>
    <property name="Type" value="Grass"/>
   </properties>
  </tile>
  <tile id="377">
   <properties>
    <property name="Type" value="Grass"/>
   </properties>
  </tile>
  <tile id="378">
   <properties>
    <property name="Type" value="Grass"/>
   </properties>
  </tile>
  <tile id="379">
   <properties>
    <property name="Type" value="Grass"/>
   </properties>
  </tile>
  <tile id="380">
   <properties>
    <property name="Spawnable" value="T"/>
    <property name="Type" value="Grass"/>
   </properties>
  </tile>
  <tile id="381">
   <properties>
    <property name="Type" value="Grass"/>
   </properties>
  </tile>
  <tile id="382">
   <properties>
    <property name="Type" value="Grass"/>
   </properties>
  </tile>
  <tile id="400">
   <properties>
    <property name="Type" value="Grass"/>
   </properties>
  </tile>
  <tile id="401">
   <properties>
    <property name="Type" value="Grass"/>
   </properties>
  </tile>
  <tile id="402">
   <properties>
    <property name="Type" value="Grass"/>
   </properties>
  </tile>
  <tile id="403">
   <properties>
    <property name="Spawnable" value="T"/>
    <property name="Type" value="Grass"/>
   </properties>
  </tile>
  <tile id="404">
   <properties>
    <property name="Type" value="Grass"/>
   </properties>
  </tile>
  <tile id="405">
   <properties>
    <property name="Type" value="Grass"/>
   </properties>
  </tile>
  <tile id="406">
   <properties>
    <property name="Type" value="Grass"/>
   </properties>
  </tile>
  <tile id="407">
   <properties>
    <property name="Type" value="Grass"/>
   </properties>
  </tile>
  <tile id="463">
   <properties>
    <property name="Type" value="Dirt"/>
   </properties>
  </tile>
  <tile id="488">
   <properties>
    <property name="Type" value="Dirt"/>
   </properties>
  </tile>
  <tile id="512">
   <properties>
    <property name="Type" value="Dirt"/>
   </properties>
  </tile>
  <tile id="513">
   <properties>
    <property name="Type" value="Dirt"/>
   </properties>
  </tile>
  <tile id="534">
   <properties>
    <property name="Type" value="Dirt"/>
   </properties>
  </tile>
  <tile id="536">
   <properties>
    <property name="Type" value="Dirt"/>
   </properties>
  </tile>
  <tile id="537">
   <properties>
    <property name="Type" value="Dirt"/>
   </properties>
  </tile>
  <tile id="538">
   <properties>
    <property name="Type" value="Dirt"/>
   </properties>
  </tile>
  <tile id="558">
   <properties>
    <property name="Diggable" value="T"/>
    <property name="Type" value="Dirt"/>
   </properties>
  </tile>
  <tile id="560">
   <properties>
    <property name="Diggable" value="T"/>
    <property name="Type" value="Dirt"/>
   </properties>
  </tile>
  <tile id="561">
   <properties>
    <property name="Type" value="Dirt"/>
   </properties>
  </tile>
  <tile id="562">
   <properties>
    <property name="Type" value="Dirt"/>
   </properties>
  </tile>
  <tile id="563">
   <properties>
    <property name="Type" value="Dirt"/>
   </properties>
  </tile>
  <tile id="564">
   <properties>
    <property name="Diggable" value="T"/>
    <property name="Type" value="Dirt"/>
   </properties>
  </tile>
  <tile id="565">
   <properties>
    <property name="Type" value="Dirt"/>
   </properties>
  </tile>
  <tile id="566">
   <properties>
    <property name="Type" value="Dirt"/>
   </properties>
  </tile>
  <tile id="567">
   <properties>
    <property name="Spawnable" value="T"/>
    <property name="Type" value="Grass"/>
   </properties>
  </tile>
  <tile id="568">
   <properties>
    <property name="Type" value="Grass"/>
   </properties>
  </tile>
  <tile id="569">
   <properties>
    <property name="Spawnable" value="T"/>
    <property name="Type" value="Grass"/>
   </properties>
  </tile>
  <tile id="570">
   <properties>
    <property name="Type" value="Grass"/>
   </properties>
  </tile>
  <tile id="583">
   <properties>
    <property name="Diggable" value="T"/>
    <property name="Type" value="Dirt"/>
   </properties>
  </tile>
  <tile id="585">
   <properties>
    <property name="Diggable" value="T"/>
    <property name="Type" value="Dirt"/>
   </properties>
  </tile>
  <tile id="586">
   <properties>
    <property name="Type" value="Dirt"/>
   </properties>
  </tile>
  <tile id="587">
   <properties>
    <property name="Diggable" value="T"/>
    <property name="Type" value="Dirt"/>
   </properties>
  </tile>
  <tile id="588">
   <properties>
    <property name="Type" value="Dirt"/>
   </properties>
  </tile>
  <tile id="589">
   <properties>
    <property name="Diggable" value="T"/>
    <property name="Type" value="Dirt"/>
   </properties>
  </tile>
  <tile id="590">
   <properties>
    <property name="Type" value="Dirt"/>
   </properties>
  </tile>
  <tile id="591">
   <properties>
    <property name="Type" value="Dirt"/>
   </properties>
  </tile>
  <tile id="592">
   <properties>
    <property name="Type" value="Grass"/>
   </properties>
  </tile>
  <tile id="593">
   <properties>
    <property name="Type" value="Grass"/>
   </properties>
  </tile>
  <tile id="594">
   <properties>
    <property name="Type" value="Grass"/>
   </properties>
  </tile>
  <tile id="595">
   <properties>
    <property name="Type" value="Grass"/>
   </properties>
  </tile>
  <tile id="596">
   <properties>
    <property name="Type" value="Dirt"/>
   </properties>
  </tile>
  <tile id="597">
   <properties>
    <property name="Type" value="Dirt"/>
   </properties>
  </tile>
  <tile id="598">
   <properties>
    <property name="Type" value="Stone"/>
   </properties>
  </tile>
  <tile id="599">
   <properties>
    <property name="Type" value="Stone"/>
   </properties>
  </tile>
  <tile id="606">
   <properties>
    <property name="Diggable" value="T"/>
    <property name="Type" value="Dirt"/>
   </properties>
  </tile>
  <tile id="607">
   <properties>
    <property name="Diggable" value="T"/>
    <property name="Type" value="Dirt"/>
   </properties>
  </tile>
  <tile id="608">
   <properties>
    <property name="Diggable" value="T"/>
    <property name="Type" value="Dirt"/>
   </properties>
  </tile>
  <tile id="610">
   <properties>
    <property name="Diggable" value="T"/>
    <property name="Type" value="Dirt"/>
   </properties>
  </tile>
  <tile id="611">
   <properties>
    <property name="Type" value="Dirt"/>
   </properties>
  </tile>
  <tile id="612">
   <properties>
    <property name="Type" value="Dirt"/>
   </properties>
  </tile>
  <tile id="613">
   <properties>
    <property name="Type" value="Dirt"/>
   </properties>
  </tile>
  <tile id="614">
   <properties>
    <property name="Diggable" value="T"/>
    <property name="Type" value="Dirt"/>
   </properties>
  </tile>
  <tile id="615">
   <properties>
    <property name="Type" value="Dirt"/>
   </properties>
  </tile>
  <tile id="616">
   <properties>
    <property name="Type" value="Dirt"/>
   </properties>
  </tile>
  <tile id="617">
   <properties>
    <property name="Type" value="Dirt"/>
   </properties>
  </tile>
  <tile id="618">
   <properties>
    <property name="Type" value="Dirt"/>
   </properties>
  </tile>
  <tile id="619">
   <properties>
    <property name="Type" value="Grass"/>
   </properties>
  </tile>
  <tile id="620">
   <properties>
    <property name="Type" value="Dirt"/>
   </properties>
  </tile>
  <tile id="621">
   <properties>
    <property name="Type" value="Dirt"/>
   </properties>
  </tile>
  <tile id="622">
   <properties>
    <property name="Type" value="Dirt"/>
   </properties>
  </tile>
  <tile id="623">
   <properties>
    <property name="Type" value="Stone"/>
   </properties>
  </tile>
  <tile id="628">
   <properties>
    <property name="Water" value="T"/>
   </properties>
  </tile>
  <tile id="629">
   <properties>
    <property name="Water" value="T"/>
   </properties>
  </tile>
  <tile id="630">
   <properties>
    <property name="Diggable" value="T"/>
    <property name="Type" value="Dirt"/>
   </properties>
  </tile>
  <tile id="631">
   <properties>
    <property name="Type" value="Dirt"/>
   </properties>
  </tile>
  <tile id="632">
   <properties>
    <property name="Diggable" value="T"/>
    <property name="Type" value="Dirt"/>
   </properties>
  </tile>
  <tile id="633">
   <properties>
    <property name="Type" value="Grass"/>
   </properties>
  </tile>
  <tile id="634">
   <properties>
    <property name="Spawnable" value="T"/>
    <property name="Type" value="Grass"/>
   </properties>
  </tile>
  <tile id="635">
   <properties>
    <property name="Type" value="Dirt"/>
   </properties>
  </tile>
  <tile id="636">
   <properties>
    <property name="Type" value="Dirt"/>
   </properties>
  </tile>
  <tile id="653">
   <properties>
    <property name="Water" value="T"/>
   </properties>
  </tile>
  <tile id="654">
   <properties>
    <property name="Type" value="Grass"/>
   </properties>
  </tile>
  <tile id="655">
   <properties>
    <property name="Type" value="Dirt"/>
   </properties>
  </tile>
  <tile id="656">
   <properties>
    <property name="Type" value="Dirt"/>
   </properties>
  </tile>
  <tile id="657">
   <properties>
    <property name="Type" value="Grass"/>
   </properties>
  </tile>
  <tile id="658">
   <properties>
    <property name="Type" value="Grass"/>
   </properties>
  </tile>
  <tile id="659">
   <properties>
    <property name="Type" value="Grass"/>
   </properties>
  </tile>
  <tile id="679">
   <properties>
    <property name="Type" value="Dirt"/>
   </properties>
  </tile>
  <tile id="680">
   <properties>
    <property name="Diggable" value="T"/>
    <property name="Type" value="Dirt"/>
   </properties>
  </tile>
  <tile id="681">
   <properties>
    <property name="Diggable" value="T"/>
    <property name="Type" value="Dirt"/>
   </properties>
  </tile>
  <tile id="682">
   <properties>
    <property name="Type" value="Dirt"/>
   </properties>
  </tile>
  <tile id="683">
   <properties>
    <property name="Type" value="Grass"/>
   </properties>
  </tile>
  <tile id="684">
   <properties>
    <property name="Type" value="Grass"/>
   </properties>
  </tile>
  <tile id="685">
   <properties>
    <property name="Diggable" value="T"/>
    <property name="Type" value="Dirt"/>
   </properties>
  </tile>
  <tile id="704">
   <properties>
    <property name="Type" value="Grass"/>
   </properties>
  </tile>
  <tile id="705">
   <properties>
    <property name="Type" value="Dirt"/>
   </properties>
  </tile>
  <tile id="706">
   <properties>
    <property name="Diggable" value="T"/>
    <property name="Type" value="Dirt"/>
   </properties>
  </tile>
  <tile id="707">
   <properties>
    <property name="Type" value="Grass"/>
   </properties>
  </tile>
  <tile id="729">
   <properties>
    <property name="Type" value="Wood"/>
   </properties>
  </tile>
  <tile id="730">
   <properties>
    <property name="Type" value="Wood"/>
   </properties>
  </tile>
  <tile id="734">
   <properties>
    <property name="Water" value="T"/>
   </properties>
  </tile>
  <tile id="754">
   <properties>
    <property name="Type" value="Wood"/>
   </properties>
  </tile>
  <tile id="755">
   <properties>
    <property name="Type" value="Wood"/>
   </properties>
  </tile>
  <tile id="759">
   <properties>
    <property name="Water" value="T"/>
   </properties>
  </tile>
  <tile id="779">
   <properties>
    <property name="Passable" value="T"/>
    <property name="Type" value="Wood"/>
   </properties>
  </tile>
  <tile id="780">
   <properties>
    <property name="Passable" value="T"/>
    <property name="Type" value="Wood"/>
   </properties>
  </tile>
  <tile id="781">
   <properties>
    <property name="Passable" value="T"/>
    <property name="Type" value="Wood"/>
   </properties>
  </tile>
  <tile id="782">
   <properties>
    <property name="Passable" value="T"/>
    <property name="Type" value="Wood"/>
   </properties>
  </tile>
  <tile id="809">
   <properties>
    <property name="Passable" value="T"/>
    <property name="Type" value="Wood"/>
   </properties>
  </tile>
  <tile id="812">
   <properties>
    <property name="Type" value="Stone"/>
   </properties>
  </tile>
  <tile id="813">
   <properties>
    <property name="Type" value="Stone"/>
   </properties>
  </tile>
  <tile id="834">
   <properties>
    <property name="Passable" value="T"/>
    <property name="Type" value="Wood"/>
   </properties>
  </tile>
  <tile id="838">
   <properties>
    <property name="Type" value="Stone"/>
   </properties>
  </tile>
  <tile id="859">
   <properties>
    <property name="Passable" value="T"/>
    <property name="Type" value="Wood"/>
   </properties>
  </tile>
  <tile id="884">
   <properties>
    <property name="Passable" value="T"/>
    <property name="Type" value="Wood"/>
   </properties>
  </tile>
  <tile id="947">
   <properties>
    <property name="Type" value="Stone"/>
   </properties>
  </tile>
  <tile id="948">
   <properties>
    <property name="Type" value="Stone"/>
   </properties>
  </tile>
  <tile id="949">
   <properties>
    <property name="Type" value="Stone"/>
   </properties>
  </tile>
  <tile id="972">
   <properties>
    <property name="Type" value="Stone"/>
   </properties>
  </tile>
  <tile id="973">
   <properties>
    <property name="Type" value="Stone"/>
   </properties>
  </tile>
  <tile id="974">
   <properties>
    <property name="Type" value="Stone"/>
   </properties>
  </tile>
  <tile id="998">
   <properties>
    <property name="Type" value="Stone"/>
   </properties>
  </tile>
  <tile id="999">
   <properties>
    <property name="Type" value="Stone"/>
   </properties>
  </tile>
  <tile id="1186">
   <properties>
    <property name="Water" value="T"/>
   </properties>
  </tile>
  <tile id="1187">
   <properties>
    <property name="Water" value="T"/>
   </properties>
  </tile>
  <tile id="1188">
   <properties>
    <property name="Water" value="T"/>
   </properties>
  </tile>
  <tile id="1211">
   <properties>
    <property name="Water" value="T"/>
   </properties>
  </tile>
  <tile id="1212">
   <properties>
    <property name="Water" value="T"/>
   </properties>
  </tile>
  <tile id="1213">
   <properties>
    <property name="Water" value="T"/>
   </properties>
  </tile>
  <tile id="1227">
   <properties>
    <property name="Water" value="T"/>
   </properties>
  </tile>
  <tile id="1228">
   <properties>
    <property name="Water" value="T"/>
   </properties>
  </tile>
  <tile id="1229">
   <properties>
    <property name="Water" value="T"/>
   </properties>
  </tile>
  <tile id="1230">
   <properties>
    <property name="Water" value="T"/>
   </properties>
  </tile>
  <tile id="1231">
   <properties>
    <property name="Water" value="T"/>
   </properties>
  </tile>
  <tile id="1237">
   <properties>
    <property name="Water" value="T"/>
   </properties>
  </tile>
  <tile id="1238">
   <properties>
    <property name="Water" value="T"/>
   </properties>
  </tile>
  <tile id="1239">
   <properties>
    <property name="Water" value="T"/>
   </properties>
  </tile>
  <tile id="1240">
   <properties>
    <property name="Water" value="T"/>
   </properties>
  </tile>
  <tile id="1241">
   <properties>
    <property name="Water" value="T"/>
   </properties>
  </tile>
  <tile id="1242">
   <properties>
    <property name="Water" value="T"/>
   </properties>
  </tile>
  <tile id="1243">
   <properties>
    <property name="Water" value="T"/>
   </properties>
  </tile>
  <tile id="1244">
   <properties>
    <property name="Water" value="T"/>
   </properties>
  </tile>
  <tile id="1245">
   <properties>
    <property name="Water" value="T"/>
   </properties>
  </tile>
  <tile id="1246">
   <properties>
    <property name="Passable" value="F"/>
    <property name="Water" value="T"/>
   </properties>
  </tile>
  <tile id="1247">
   <properties>
    <property name="Water" value="T"/>
   </properties>
  </tile>
  <tile id="1248">
   <properties>
    <property name="Water" value="T"/>
   </properties>
  </tile>
  <tile id="1249">
   <properties>
    <property name="Passable" value="F"/>
    <property name="Water" value="T"/>
   </properties>
  </tile>
  <tile id="1252">
   <properties>
    <property name="Water" value="T"/>
   </properties>
  </tile>
  <tile id="1253">
   <properties>
    <property name="Water" value="T"/>
   </properties>
  </tile>
  <tile id="1254">
   <properties>
    <property name="Water" value="T"/>
   </properties>
  </tile>
  <tile id="1255">
   <properties>
    <property name="Water" value="T"/>
   </properties>
  </tile>
  <tile id="1256">
   <properties>
    <property name="Water" value="T"/>
   </properties>
  </tile>
  <tile id="1263">
   <properties>
    <property name="Water" value="T"/>
   </properties>
  </tile>
  <tile id="1264">
   <properties>
    <property name="Water" value="T"/>
   </properties>
  </tile>
  <tile id="1265">
   <properties>
    <property name="Water" value="T"/>
   </properties>
  </tile>
  <tile id="1266">
   <properties>
    <property name="Passable" value="F"/>
    <property name="Water" value="T"/>
   </properties>
  </tile>
  <tile id="1267">
   <properties>
    <property name="Passable" value="F"/>
    <property name="Water" value="T"/>
   </properties>
  </tile>
  <tile id="1268">
   <properties>
    <property name="Water" value="T"/>
   </properties>
  </tile>
  <tile id="1269">
   <properties>
    <property name="Water" value="T"/>
   </properties>
  </tile>
  <tile id="1270">
   <properties>
    <property name="Water" value="T"/>
   </properties>
  </tile>
  <tile id="1271">
   <properties>
    <property name="Passable" value="F"/>
    <property name="Water" value="T"/>
   </properties>
  </tile>
  <tile id="1272">
   <properties>
    <property name="Water" value="T"/>
   </properties>
  </tile>
  <tile id="1273">
   <properties>
    <property name="Water" value="T"/>
   </properties>
  </tile>
  <tile id="1274">
   <properties>
    <property name="Water" value="T"/>
   </properties>
  </tile>
  <tile id="1277">
   <properties>
    <property name="Water" value="T"/>
   </properties>
  </tile>
  <tile id="1278">
   <properties>
    <property name="Water" value="T"/>
   </properties>
  </tile>
  <tile id="1279">
   <properties>
    <property name="Water" value="T"/>
   </properties>
  </tile>
  <tile id="1280">
   <properties>
    <property name="Water" value="T"/>
   </properties>
  </tile>
  <tile id="1281">
   <properties>
    <property name="Water" value="T"/>
   </properties>
  </tile>
  <tile id="1297">
   <properties>
    <property name="Water" value="T"/>
   </properties>
  </tile>
  <tile id="1298">
   <properties>
    <property name="Water" value="T"/>
   </properties>
  </tile>
  <tile id="1299">
   <properties>
    <property name="Passable" value="F"/>
    <property name="Water" value="T"/>
   </properties>
  </tile>
  <tile id="1302">
   <properties>
    <property name="Water" value="T"/>
   </properties>
  </tile>
  <tile id="1303">
   <properties>
    <property name="Water" value="T"/>
   </properties>
  </tile>
  <tile id="1304">
   <properties>
    <property name="Water" value="T"/>
   </properties>
  </tile>
  <tile id="1305">
   <properties>
    <property name="Water" value="T"/>
   </properties>
  </tile>
  <tile id="1306">
   <properties>
    <property name="Water" value="T"/>
   </properties>
  </tile>
  <tile id="1322">
   <properties>
    <property name="Water" value="T"/>
   </properties>
  </tile>
  <tile id="1323">
   <properties>
    <property name="Water" value="T"/>
   </properties>
  </tile>
  <tile id="1324">
   <properties>
    <property name="Water" value="T"/>
   </properties>
  </tile>
 </tileset>
 <tileset firstgid="8090" name="Craftables" tilewidth="16" tileheight="16" tilecount="736" columns="8">
  <image source="Craftables.png" width="128" height="1472"/>
 </tileset>
 <tileset firstgid="8826" name="CarolineGreenhouseTiles" tilewidth="16" tileheight="16" tilecount="128" columns="8">
  <image source="CarolineGreenhouseTiles.png" width="128" height="256"/>
 </tileset>
 <tileset firstgid="8954" name="editedcrops" tilewidth="16" tileheight="16" tilecount="8" columns="4">
  <image source="editedcrops.png" width="64" height="32"/>
 </tileset>
 <tileset firstgid="8962" name="v16_Shadows" tilewidth="16" tileheight="16" tilecount="475" columns="19">
  <image source="spring_Shadows.png" width="304" height="400"/>
 </tileset>
 <tileset firstgid="9437" name="Paths" tilewidth="16" tileheight="16" tilecount="64" columns="4">
  <image source="paths.png" width="64" height="256"/>
  <tile id="35">
   <properties>
    <property name="GreenRain" value="??"/>
   </properties>
  </tile>
 </tileset>
 <tileset firstgid="9501" name="townInterior" tilewidth="16" tileheight="16" tilecount="2176" columns="32">
  <image source="townInterior.png" width="512" height="1088"/>
 </tileset>
 <tileset firstgid="11677" name="Town" tilewidth="16" tileheight="16" tilecount="2304" columns="32">
  <image source="spring_town.png" width="512" height="1152"/>
  <tile id="45">
   <animation>
    <frame tileid="45" duration="1000"/>
    <frame tileid="45" duration="1000"/>
    <frame tileid="45" duration="1000"/>
    <frame tileid="45" duration="1000"/>
    <frame tileid="45" duration="1000"/>
    <frame tileid="45" duration="1000"/>
    <frame tileid="45" duration="1000"/>
    <frame tileid="45" duration="1000"/>
    <frame tileid="45" duration="1000"/>
    <frame tileid="45" duration="1000"/>
    <frame tileid="45" duration="1000"/>
    <frame tileid="45" duration="1000"/>
    <frame tileid="45" duration="1000"/>
    <frame tileid="45" duration="1000"/>
    <frame tileid="45" duration="1000"/>
    <frame tileid="45" duration="1000"/>
    <frame tileid="45" duration="1000"/>
    <frame tileid="12" duration="1000"/>
   </animation>
  </tile>
  <tile id="159">
   <properties>
    <property name="Passable" value="T"/>
   </properties>
  </tile>
  <tile id="191">
   <properties>
    <property name="Passable" value="T"/>
   </properties>
  </tile>
  <tile id="223">
   <properties>
    <property name="Passable" value="T"/>
   </properties>
  </tile>
  <tile id="608">
   <properties>
    <property name="Type" value="Grass"/>
   </properties>
  </tile>
  <tile id="609">
   <properties>
    <property name="Type" value="Grass"/>
   </properties>
  </tile>
  <tile id="610">
   <properties>
    <property name="Type" value="Grass"/>
   </properties>
  </tile>
  <tile id="611">
   <properties>
    <property name="Type" value="Grass"/>
   </properties>
  </tile>
  <tile id="612">
   <properties>
    <property name="Type" value="Grass"/>
   </properties>
  </tile>
  <tile id="641">
   <properties>
    <property name="Type" value="Stone"/>
   </properties>
  </tile>
  <tile id="644">
   <properties>
    <property name="Type" value="Grass"/>
   </properties>
  </tile>
  <tile id="645">
   <properties>
    <property name="Type" value="Grass"/>
   </properties>
  </tile>
  <tile id="646">
   <properties>
    <property name="Type" value="Stone"/>
   </properties>
  </tile>
  <tile id="672">
   <properties>
    <property name="Type" value="Grass"/>
   </properties>
  </tile>
  <tile id="674">
   <properties>
    <property name="Type" value="Grass"/>
   </properties>
  </tile>
  <tile id="676">
   <properties>
    <property name="Type" value="Stone"/>
   </properties>
  </tile>
  <tile id="736">
   <properties>
    <property name="Type" value="Stone"/>
   </properties>
  </tile>
  <tile id="737">
   <properties>
    <property name="Type" value="Stone"/>
   </properties>
  </tile>
  <tile id="768">
   <properties>
    <property name="Type" value="Stone"/>
   </properties>
  </tile>
  <tile id="769">
   <properties>
    <property name="Type" value="Stone"/>
   </properties>
  </tile>
  <tile id="770">
   <properties>
    <property name="Type" value="Stone"/>
   </properties>
  </tile>
  <tile id="858">
   <properties>
    <property name="Type" value="Stone"/>
   </properties>
  </tile>
  <tile id="859">
   <properties>
    <property name="Type" value="Stone"/>
   </properties>
  </tile>
  <tile id="860">
   <properties>
    <property name="Type" value="Stone"/>
   </properties>
  </tile>
  <tile id="861">
   <properties>
    <property name="Type" value="Stone"/>
   </properties>
  </tile>
  <tile id="862">
   <properties>
    <property name="Type" value="Stone"/>
   </properties>
  </tile>
  <tile id="863">
   <properties>
    <property name="Type" value="Stone"/>
   </properties>
  </tile>
  <tile id="874">
   <properties>
    <property name="Type" value="Stone"/>
   </properties>
  </tile>
  <tile id="890">
   <properties>
    <property name="Type" value="Stone"/>
   </properties>
  </tile>
  <tile id="891">
   <properties>
    <property name="Type" value="Stone"/>
   </properties>
  </tile>
  <tile id="892">
   <properties>
    <property name="Type" value="Stone"/>
   </properties>
  </tile>
  <tile id="893">
   <properties>
    <property name="Type" value="Stone"/>
   </properties>
  </tile>
  <tile id="894">
   <properties>
    <property name="Type" value="Stone"/>
   </properties>
  </tile>
  <tile id="895">
   <properties>
    <property name="Type" value="Stone"/>
   </properties>
  </tile>
  <tile id="901">
   <properties>
    <property name="Type" value="Stone"/>
   </properties>
  </tile>
  <tile id="902">
   <properties>
    <property name="Type" value="Stone"/>
   </properties>
  </tile>
  <tile id="903">
   <properties>
    <property name="Type" value="Stone"/>
   </properties>
  </tile>
  <tile id="904">
   <properties>
    <property name="Type" value="Stone"/>
   </properties>
  </tile>
  <tile id="905">
   <properties>
    <property name="Passable" value="F"/>
   </properties>
  </tile>
  <tile id="909">
   <properties>
    <property name="Type" value="Stone"/>
   </properties>
  </tile>
  <tile id="916">
   <properties>
    <property name="Water" value="T"/>
   </properties>
  </tile>
  <tile id="917">
   <properties>
    <property name="Water" value="T"/>
   </properties>
  </tile>
  <tile id="918">
   <properties>
    <property name="Water" value="T"/>
   </properties>
  </tile>
  <tile id="919">
   <properties>
    <property name="Water" value="T"/>
   </properties>
  </tile>
  <tile id="922">
   <properties>
    <property name="Type" value="Stone"/>
   </properties>
  </tile>
  <tile id="923">
   <properties>
    <property name="Type" value="Stone"/>
   </properties>
  </tile>
  <tile id="924">
   <properties>
    <property name="Type" value="Stone"/>
   </properties>
  </tile>
  <tile id="925">
   <properties>
    <property name="Type" value="Stone"/>
   </properties>
  </tile>
  <tile id="926">
   <properties>
    <property name="Type" value="Stone"/>
   </properties>
  </tile>
  <tile id="927">
   <properties>
    <property name="Type" value="Stone"/>
   </properties>
  </tile>
  <tile id="931">
   <properties>
    <property name="Type" value="Stone"/>
   </properties>
  </tile>
  <tile id="932">
   <properties>
    <property name="Type" value="Stone"/>
   </properties>
  </tile>
  <tile id="933">
   <properties>
    <property name="Type" value="Stone"/>
   </properties>
  </tile>
  <tile id="934">
   <properties>
    <property name="Type" value="Stone"/>
   </properties>
  </tile>
  <tile id="935">
   <properties>
    <property name="Type" value="Stone"/>
   </properties>
  </tile>
  <tile id="936">
   <properties>
    <property name="Type" value="Stone"/>
   </properties>
  </tile>
  <tile id="950">
   <properties>
    <property name="Water" value="T"/>
   </properties>
  </tile>
  <tile id="954">
   <properties>
    <property name="Type" value="Stone"/>
   </properties>
  </tile>
  <tile id="955">
   <properties>
    <property name="Type" value="Stone"/>
   </properties>
  </tile>
  <tile id="956">
   <properties>
    <property name="Type" value="Stone"/>
   </properties>
  </tile>
  <tile id="957">
   <properties>
    <property name="Type" value="Stone"/>
   </properties>
  </tile>
  <tile id="958">
   <properties>
    <property name="Type" value="Stone"/>
   </properties>
  </tile>
  <tile id="959">
   <properties>
    <property name="Type" value="Stone"/>
   </properties>
  </tile>
  <tile id="963">
   <properties>
    <property name="Type" value="Stone"/>
   </properties>
  </tile>
  <tile id="964">
   <properties>
    <property name="Type" value="Stone"/>
   </properties>
  </tile>
  <tile id="965">
   <properties>
    <property name="Type" value="Stone"/>
   </properties>
  </tile>
  <tile id="966">
   <properties>
    <property name="Type" value="Stone"/>
   </properties>
  </tile>
  <tile id="967">
   <properties>
    <property name="Type" value="Stone"/>
   </properties>
  </tile>
  <tile id="968">
   <properties>
    <property name="Type" value="Stone"/>
   </properties>
  </tile>
  <tile id="969">
   <properties>
    <property name="Type" value="Stone"/>
   </properties>
  </tile>
  <tile id="970">
   <properties>
    <property name="Type" value="Stone"/>
   </properties>
  </tile>
  <tile id="986">
   <properties>
    <property name="Type" value="Stone"/>
   </properties>
  </tile>
  <tile id="987">
   <properties>
    <property name="Type" value="Stone"/>
   </properties>
  </tile>
  <tile id="988">
   <properties>
    <property name="Type" value="Stone"/>
   </properties>
  </tile>
  <tile id="989">
   <properties>
    <property name="Type" value="Stone"/>
   </properties>
  </tile>
  <tile id="990">
   <properties>
    <property name="Type" value="Stone"/>
   </properties>
  </tile>
  <tile id="991">
   <properties>
    <property name="Type" value="Stone"/>
   </properties>
  </tile>
  <tile id="993">
   <properties>
    <property name="Type" value="Stone"/>
   </properties>
  </tile>
  <tile id="994">
   <properties>
    <property name="Type" value="Stone"/>
   </properties>
  </tile>
  <tile id="995">
   <properties>
    <property name="Type" value="Stone"/>
   </properties>
  </tile>
  <tile id="996">
   <properties>
    <property name="Type" value="Stone"/>
   </properties>
  </tile>
  <tile id="997">
   <properties>
    <property name="Type" value="Stone"/>
   </properties>
  </tile>
  <tile id="998">
   <properties>
    <property name="Type" value="Stone"/>
   </properties>
  </tile>
  <tile id="999">
   <properties>
    <property name="Type" value="Stone"/>
   </properties>
  </tile>
  <tile id="1000">
   <properties>
    <property name="Type" value="Stone"/>
   </properties>
  </tile>
  <tile id="1007">
   <properties>
    <property name="Type" value="Stone"/>
   </properties>
  </tile>
  <tile id="1008">
   <properties>
    <property name="Type" value="Stone"/>
   </properties>
  </tile>
  <tile id="1018">
   <properties>
    <property name="Type" value="Stone"/>
   </properties>
  </tile>
  <tile id="1019">
   <properties>
    <property name="Type" value="Stone"/>
   </properties>
  </tile>
  <tile id="1020">
   <properties>
    <property name="Type" value="Stone"/>
   </properties>
  </tile>
  <tile id="1021">
   <properties>
    <property name="Type" value="Stone"/>
   </properties>
  </tile>
  <tile id="1022">
   <properties>
    <property name="Type" value="Stone"/>
   </properties>
  </tile>
  <tile id="1023">
   <properties>
    <property name="Type" value="Stone"/>
   </properties>
  </tile>
  <tile id="1031">
   <properties>
    <property name="Type" value="Dirt"/>
   </properties>
  </tile>
  <tile id="1032">
   <properties>
    <property name="Type" value="Dirt"/>
   </properties>
  </tile>
  <tile id="1033">
   <properties>
    <property name="Type" value="Dirt"/>
   </properties>
  </tile>
  <tile id="1037">
   <animation>
    <frame tileid="1037" duration="100"/>
    <frame tileid="1038" duration="100"/>
    <frame tileid="1039" duration="100"/>
    <frame tileid="1039" duration="100"/>
   </animation>
  </tile>
  <tile id="1063">
   <properties>
    <property name="Type" value="Dirt"/>
   </properties>
  </tile>
  <tile id="1064">
   <properties>
    <property name="Type" value="Dirt"/>
   </properties>
  </tile>
  <tile id="1065">
   <properties>
    <property name="Type" value="Dirt"/>
   </properties>
  </tile>
  <tile id="1070">
   <animation>
    <frame tileid="1070" duration="100"/>
    <frame tileid="1101" duration="100"/>
    <frame tileid="1102" duration="100"/>
    <frame tileid="1043" duration="100"/>
   </animation>
  </tile>
  <tile id="1095">
   <properties>
    <property name="Type" value="Dirt"/>
   </properties>
  </tile>
  <tile id="1096">
   <properties>
    <property name="Type" value="Dirt"/>
   </properties>
  </tile>
  <tile id="1097">
   <properties>
    <property name="Type" value="Dirt"/>
   </properties>
  </tile>
  <tile id="1201">
   <animation>
    <frame tileid="1201" duration="100"/>
    <frame tileid="1202" duration="100"/>
    <frame tileid="1203" duration="100"/>
    <frame tileid="1204" duration="100"/>
    <frame tileid="1205" duration="100"/>
    <frame tileid="1206" duration="100"/>
   </animation>
  </tile>
  <tile id="1233">
   <animation>
    <frame tileid="1233" duration="100"/>
    <frame tileid="1234" duration="100"/>
    <frame tileid="1235" duration="100"/>
    <frame tileid="1236" duration="100"/>
    <frame tileid="1237" duration="100"/>
    <frame tileid="1238" duration="100"/>
   </animation>
  </tile>
  <tile id="1249">
   <properties>
    <property name="Shadow" value="T"/>
   </properties>
  </tile>
  <tile id="1265">
   <animation>
    <frame tileid="1265" duration="100"/>
    <frame tileid="1266" duration="100"/>
    <frame tileid="1267" duration="100"/>
    <frame tileid="1268" duration="100"/>
    <frame tileid="1269" duration="100"/>
    <frame tileid="1270" duration="100"/>
   </animation>
  </tile>
  <tile id="1573">
   <properties>
    <property name="Type" value="Stone"/>
   </properties>
  </tile>
  <tile id="1574">
   <properties>
    <property name="Type" value="Stone"/>
   </properties>
  </tile>
  <tile id="1585">
   <properties>
    <property name="Type" value="Stone"/>
   </properties>
  </tile>
  <tile id="1586">
   <properties>
    <property name="Type" value="Stone"/>
   </properties>
  </tile>
  <tile id="1958">
   <properties>
    <property name="Shadow" value="T"/>
   </properties>
  </tile>
 </tileset>
 <tileset firstgid="13981" name="TillyShopSheet" tilewidth="16" tileheight="16" tilecount="300" columns="15">
  <image source="TillyShopSheet.png" width="240" height="320"/>
 </tileset>
 <layer id="1" name="Back" width="18" height="21">
  <data encoding="csv">
353,176,176,176,176,251,252,252,253,1230,1230,1230,1230,1275,1230,5210,229,176,
353,176,176,176,326,327,327,328,226,228,1230,1230,1275,1275,1230,5226,178,204,
353,201,202,204,351,354,377,378,226,590,5211,1230,1230,1230,1323,1230,228,229,
378,226,599,229,376,378,201,202,203,228,5208,1230,1230,1275,1230,1230,228,229,
202,203,227,178,202,202,203,227,228,228,228,228,228,228,228,228,183,229,
227,228,228,182,228,228,514,2147483901,230,231,205,230,231,231,231,205,252,254,
228,227,2147483901,252,252,252,252,254,176,176,176,176,176,176,176,176,176,176,
228,228,229,176,176,176,176,176,176,176,176,176,176,176,176,176,176,176,
228,228,229,176,176,176,176,176,176,176,176,326,327,328,176,176,176,176,
228,2147483901,254,176,326,327,327,328,176,176,326,329,352,353,201,176,176,176,
2147484234,229,176,176,351,352,352,353,256,176,351,352,352,353,176,176,176,176,
2147483876,229,176,176,351,352,352,353,176,176,351,352,354,378,176,176,256,176,
2147483875,5084,176,176,351,352,306,379,328,401,176,176,176,176,176,176,176,326,
2147483875,5116,176,176,351,352,352,352,379,328,176,176,176,176,176,255,176,351,
2147483875,229,176,176,376,404,352,352,305,282,176,176,176,176,176,176,176,376,
2147483875,229,176,176,176,376,377,377,377,378,176,176,176,176,226,176,176,176,
228,229,176,181,206,202,202,180,181,206,176,402,176,176,176,176,176,176,
228,178,180,181,206,202,202,180,181,202,204,176,256,176,176,176,176,401,
228,228,228,228,228,182,228,228,228,228,229,176,176,326,327,327,327,328,
1272,1272,1272,1323,1230,1232,5226,228,228,228,178,204,176,351,352,352,352,379,
1272,1273,1272,1272,1323,1232,5178,1245,514,228,208,178,204,376,404,352,352,305
</data>
 </layer>
 <layer id="2" name="Back2" width="18" height="21">
  <properties>
   <property name="Draw" value="Back"/>
  </properties>
  <data encoding="csv">
5526,5526,5526,5526,5526,5526,5506,0,0,0,0,0,0,0,0,0,0,0,
5559,5559,5559,5559,5559,5559,5506,0,0,0,0,0,0,0,0,0,0,0,
5559,5559,5559,5559,5559,5559,5528,0,0,0,0,0,0,0,0,0,0,0,
5525,5525,5525,5525,5525,5529,5509,0,0,0,0,0,0,0,0,0,0,0,
0,0,0,0,0,0,0,0,0,0,0,0,0,0,0,0,0,0,
0,0,0,0,0,0,0,0,0,0,0,0,0,0,0,0,0,0,
0,0,0,0,0,0,0,0,0,0,0,0,0,0,0,0,0,0,
0,0,0,0,0,0,0,0,0,6499,0,0,0,0,0,0,0,0,
0,0,0,0,0,0,0,0,0,0,8984,0,0,0,0,0,0,0,
0,0,0,0,0,0,0,0,0,0,0,0,0,0,0,0,0,0,
0,0,0,0,0,0,0,0,0,0,0,14133,0,0,0,0,0,0,
0,0,0,0,0,0,0,0,0,0,8079,8080,8081,0,0,0,0,0,
0,0,0,0,0,0,0,0,0,0,0,0,0,0,0,0,0,0,
0,0,0,0,0,0,0,0,0,0,0,0,0,0,0,0,0,0,
0,0,0,0,0,0,0,8855,0,0,0,0,0,0,0,0,0,0,
0,0,0,0,0,0,0,0,0,0,0,0,0,0,0,0,0,0,
0,0,0,0,0,0,0,0,0,0,0,0,0,0,0,0,0,0,
0,0,0,0,0,0,0,0,0,0,0,0,0,0,0,0,0,0,
0,0,0,0,0,0,0,0,0,0,0,0,0,0,0,0,0,0,
0,0,0,0,0,0,0,0,0,0,0,0,0,0,0,0,0,0,
0,0,0,0,0,0,0,0,0,0,0,0,0,0,0,0,0,0
</data>
 </layer>
 <layer id="3" name="Back3" width="18" height="21">
  <properties>
   <property name="Draw" value="Back"/>
  </properties>
  <data encoding="csv">
0,0,0,0,0,0,0,0,0,0,0,0,0,0,0,0,0,0,
0,0,0,0,0,0,0,0,0,0,0,0,0,0,0,0,0,0,
0,0,0,0,0,0,0,0,0,0,0,0,0,0,0,0,0,0,
0,0,0,0,0,0,0,0,0,0,0,0,0,0,0,0,0,0,
0,0,0,0,0,0,0,0,0,0,0,0,0,0,0,0,0,0,
0,0,0,0,0,0,0,0,0,0,0,0,0,0,0,0,0,0,
0,0,0,0,0,0,0,0,0,0,0,0,0,0,0,0,0,0,
0,0,0,0,0,0,0,0,0,9001,0,0,0,0,0,0,0,0,
0,0,0,0,0,0,0,0,0,9001,0,0,0,0,0,0,0,0,
0,0,0,0,0,0,0,0,0,9001,0,0,0,0,0,0,0,0,
0,0,0,0,0,0,0,0,0,9001,0,0,0,0,0,0,0,0,
0,0,0,0,0,0,0,0,0,8987,9027,9027,9027,9027,0,0,0,0,
0,0,0,0,0,0,0,0,0,0,0,0,0,0,0,0,0,0,
0,0,0,0,0,0,0,0,0,0,0,0,0,0,0,0,0,0,
0,0,0,0,0,0,0,0,0,0,0,0,0,0,0,0,0,0,
0,0,0,0,0,0,0,0,0,0,0,0,0,0,0,0,0,0,
0,0,0,0,0,0,0,0,0,0,0,0,0,0,0,0,0,0,
0,0,0,0,0,0,0,0,0,0,0,0,0,0,0,0,0,0,
0,0,0,0,0,0,0,0,0,0,0,0,0,0,0,0,0,0,
0,0,0,0,0,0,0,0,0,0,0,0,0,0,0,0,0,0,
0,0,0,0,0,0,0,0,0,0,0,0,0,0,0,0,0,0
</data>
 </layer>
 <layer id="4" name="Buildings" width="18" height="21">
  <data encoding="csv">
2727,2728,2729,2730,2731,2732,2733,0,0,213,0,0,0,0,0,5322,0,0,
2759,2760,2761,2762,2763,2764,2765,0,0,0,5228,0,0,0,0,236,0,0,
2791,2792,2793,2794,2795,2796,2797,0,0,0,5274,0,0,0,0,236,0,0,
0,0,0,0,3214,3213,0,0,0,0,259,260,260,260,260,261,0,0,
0,0,0,0,0,0,0,0,0,0,0,0,0,0,0,0,0,0,
0,0,0,0,2055,0,0,0,0,0,0,0,0,0,0,0,0,0,
0,0,0,0,0,0,0,0,0,14071,14072,14073,14074,14075,14076,14077,0,0,
0,0,0,6498,6499,6499,6500,385,6499,14086,14087,14088,14089,14090,14091,14092,0,0,
0,0,0,6501,8116,8117,0,8116,8117,14101,14102,14103,14104,14105,14106,14107,0,0,
0,0,0,6501,0,0,0,0,0,14116,14117,14118,14119,14120,14121,14122,0,0,
0,0,0,6501,8116,8117,0,0,0,14131,14132,0,14134,14135,14136,14137,0,0,
0,0,0,6551,0,0,0,0,0,11718,0,0,0,6263,7237,8099,0,0,
0,0,0,0,0,0,0,0,0,0,0,0,0,0,0,0,0,0,
0,0,0,0,0,0,0,0,0,0,0,0,0,0,0,0,0,0,
0,0,0,6501,8116,8117,10680,0,0,0,0,10022,8227,103,0,0,0,0,
0,0,0,6526,0,0,0,0,0,0,0,0,10054,9957,0,0,0,0,
0,0,0,6551,8116,8117,0,6082,5997,5998,0,0,0,0,0,0,0,0,
0,0,0,6498,6499,6500,6499,6499,6499,6500,0,0,0,0,0,0,0,0,
0,0,0,0,0,0,0,0,0,11755,0,0,0,0,0,0,0,0,
184,185,185,185,185,185,186,0,0,0,0,0,0,0,0,2983,2984,0,
259,0,0,0,0,0,285,186,0,0,0,0,0,0,0,3015,3016,0
</data>
 </layer>
 <layer id="5" name="Buildings2" width="18" height="21">
  <properties>
   <property name="Draw" value="Buildings"/>
  </properties>
  <data encoding="csv">
0,0,0,0,0,0,0,0,0,0,0,0,0,0,0,0,0,0,
0,0,0,0,0,0,0,0,0,0,0,0,0,0,0,0,0,0,
0,0,0,0,0,0,0,0,0,0,0,0,0,0,0,0,0,0,
0,0,0,0,0,0,0,0,0,0,0,0,0,0,0,0,0,0,
0,0,0,0,0,0,0,0,0,0,0,0,0,0,0,0,0,0,
0,0,0,0,0,0,0,0,0,0,0,0,0,0,0,0,0,0,
0,0,0,0,0,0,0,0,0,0,0,0,0,0,0,0,0,0,
0,0,0,0,0,0,0,0,0,0,0,0,0,0,0,0,0,0,
0,0,0,0,0,0,0,0,0,0,0,0,0,0,0,0,0,0,
0,0,0,0,0,0,0,0,0,0,0,0,0,0,0,0,0,0,
0,0,0,0,0,0,0,0,0,0,0,0,0,0,0,0,0,0,
0,0,0,0,0,0,0,0,0,0,0,0,0,0,0,0,0,0,
0,0,0,0,0,0,0,0,0,0,0,0,0,0,0,0,0,0,
0,0,0,0,0,0,0,0,0,0,0,0,0,0,0,0,0,0,
0,0,0,0,0,0,0,0,0,0,0,0,0,0,0,0,0,0,
0,0,0,0,0,0,0,0,0,0,0,0,0,0,0,0,0,0,
0,0,0,0,0,0,0,0,0,0,0,0,0,0,0,0,0,0,
0,0,0,0,0,0,0,0,0,0,0,0,0,0,0,0,0,0,
0,0,0,0,0,0,0,0,0,0,0,0,0,0,0,0,0,0,
0,0,0,0,0,0,0,0,0,0,0,0,0,0,0,0,0,0,
0,0,0,0,0,0,0,0,0,0,0,0,0,0,0,0,0,0
</data>
 </layer>
 <layer id="6" name="Paths" width="18" height="21">
  <data encoding="csv">
0,0,0,0,0,0,0,0,0,0,0,0,0,0,0,0,0,0,
0,0,0,0,0,0,0,0,0,0,0,0,2003,0,0,0,0,0,
0,0,0,0,0,0,0,0,0,0,0,0,0,0,0,0,0,0,
0,0,0,0,0,0,0,0,0,0,0,0,0,0,0,0,0,0,
0,0,0,0,0,0,0,0,0,0,0,0,0,0,0,0,0,0,
0,0,0,0,0,0,0,0,0,0,0,0,0,0,0,0,0,0,
0,0,0,0,0,0,0,0,0,0,0,0,0,0,0,0,0,0,
0,0,0,0,0,0,0,0,0,0,0,0,0,0,0,0,0,0,
0,0,0,0,0,0,0,0,0,0,9445,0,0,9445,9445,0,0,0,
0,0,0,0,0,0,0,0,0,0,0,0,0,9445,9445,0,0,0,
0,0,0,0,0,0,0,0,0,0,0,0,0,0,0,0,0,0,
0,0,0,0,0,0,0,0,0,0,0,0,0,0,0,0,0,0,
0,0,0,0,0,0,0,0,0,0,0,0,0,0,0,0,0,0,
0,0,0,0,0,0,0,0,0,0,0,0,0,0,0,0,0,0,
0,0,0,0,0,0,0,0,0,0,0,0,0,0,0,0,0,0,
0,0,0,0,0,0,0,0,0,0,0,0,0,0,0,0,0,0,
0,0,0,0,0,0,0,0,0,0,0,0,0,0,0,0,0,0,
0,0,0,0,0,0,0,0,0,0,0,0,0,0,0,0,0,0,
0,0,0,0,0,0,0,0,0,0,0,0,0,0,0,0,0,0,
0,0,0,0,0,0,0,0,0,0,0,0,0,0,0,0,0,0,
0,0,0,0,2003,0,0,0,0,0,0,0,0,0,0,0,0,0
</data>
 </layer>
 <layer id="7" name="Front" width="18" height="21">
  <data encoding="csv">
2727,2728,2729,2730,2731,2732,2733,0,0,0,0,0,0,0,0,0,0,0,
0,0,0,0,0,0,0,0,0,0,0,0,0,0,0,0,0,0,
0,0,0,0,3182,3181,0,0,0,0,0,0,0,0,0,0,0,0,
0,0,0,0,0,0,0,0,0,0,0,0,0,0,0,0,0,0,
0,0,0,0,0,0,0,0,0,0,0,0,0,0,0,0,0,0,
0,0,0,0,0,0,0,0,0,0,0,0,0,0,0,0,0,0,
0,0,0,6473,6474,6474,6475,6474,6474,6474,6473,6474,6475,0,0,0,0,0,
0,0,0,6476,8108,8109,0,8108,8109,0,0,0,0,0,0,0,0,0,
0,0,0,0,0,0,0,0,0,0,0,0,0,0,0,0,0,0,
0,0,0,0,8108,8109,0,0,0,0,0,0,0,0,0,0,0,0,
0,0,0,0,0,0,0,0,0,11686,0,0,0,6238,7212,8091,0,0,
0,0,0,0,0,0,0,0,0,0,0,0,0,0,0,0,0,0,
0,0,0,0,0,0,0,0,0,0,0,6220,0,0,0,0,0,0,
0,0,0,6476,8108,8109,0,0,0,0,0,9990,8219,6220,0,0,0,0,
0,0,0,0,0,0,0,0,0,0,0,0,0,9925,0,0,0,0,
0,0,0,0,8108,8109,0,6074,5989,5990,0,0,0,0,0,0,0,0,
0,0,0,6473,6474,6475,6474,6474,6474,6475,0,0,0,0,0,0,0,0,
0,0,0,0,0,0,0,0,0,11723,0,0,0,0,0,0,0,0,
0,0,0,0,0,0,0,0,0,0,0,0,0,0,0,2951,2952,0,
0,0,0,0,0,0,0,0,0,0,0,0,0,0,0,0,0,0,
2908,0,0,0,0,0,0,0,0,0,0,0,0,0,0,2330,2331,0
</data>
 </layer>
 <layer id="8" name="AlwaysFront" width="18" height="21">
  <data encoding="csv">
0,0,0,0,0,0,0,0,0,13981,13982,13983,13984,13985,13986,13987,0,0,
0,0,0,0,0,0,0,0,0,13996,13997,13998,13999,14000,14001,14002,0,0,
0,0,0,0,0,0,0,0,0,14011,14012,14013,14014,14015,14016,14017,0,0,
0,0,0,0,0,0,0,0,0,14026,14027,14028,14029,14030,14031,14032,0,0,
0,0,0,0,0,0,0,0,0,14041,14042,14043,14044,14045,14046,14047,0,0,
0,0,0,0,0,0,0,0,0,14056,14057,14058,14059,14060,14061,14062,0,0,
0,0,0,0,0,0,0,0,0,14071,14072,14073,14074,14075,14076,14077,0,0,
0,0,0,0,0,0,0,0,0,0,0,0,0,0,0,0,0,0,
0,0,0,0,0,0,0,0,0,0,0,0,0,0,0,0,0,0,
0,0,0,0,0,0,0,0,0,0,0,0,0,0,0,0,0,0,
0,0,0,0,0,0,0,0,0,0,0,0,0,0,0,0,0,0,
0,0,0,0,0,0,0,0,0,0,0,0,0,0,0,0,0,0,
0,0,0,0,0,0,0,0,0,0,0,0,0,0,0,0,0,0,
0,0,0,0,0,0,0,0,0,0,0,0,10176,0,0,0,0,0,
0,0,0,0,0,0,0,0,0,0,0,0,0,0,2822,2823,2824,2825,
0,0,0,0,0,0,0,0,0,0,0,0,0,0,2854,2855,2856,2857,
0,0,0,0,0,0,0,0,0,0,0,0,0,0,2886,2887,2888,2889,
0,0,0,0,0,0,0,0,0,0,0,0,0,0,2918,2919,2920,2921,
0,0,0,0,0,0,0,0,0,0,0,0,0,0,0,0,0,0,
0,0,0,0,0,0,0,0,0,0,0,0,0,0,0,0,0,0,
0,0,0,0,0,0,0,0,0,0,0,0,0,0,0,0,0,0
</data>
 </layer>
 <objectgroup id="9" name="Back"/>
 <objectgroup id="10" name="Back2"/>
 <objectgroup id="11" name="Back3"/>
 <objectgroup id="12" name="Buildings">
  <object id="45" name="TileData" x="176" y="144" width="16" height="16">
   <properties>
    <property name="Action" value="LockedDoorWarp 7 15  Wem.Bundle.Tilly_TillyShop 900 2000"/>
   </properties>
  </object>
  <object id="46" name="TileData" x="224" y="176" width="16" height="16">
   <properties>
    <property name="Action" value="Message &quot;Wem.Tilly_Ext1&quot;"/>
   </properties>
  </object>
  <object id="47" name="TileData" x="192" y="224" width="16" height="16">
   <properties>
    <property name="Action" value="Message &quot;Wem.Tilly_Ext2&quot;"/>
   </properties>
  </object>
  <object id="48" name="TileData" x="144" y="288" width="16" height="16">
   <properties>
    <property name="Action" value="Garbage Wem.Bundle.Tilly_Can"/>
   </properties>
  </object>
  <object id="49" name="TileData" x="80" y="128" width="16" height="16">
   <properties>
    <property name="Action" value="Message &quot;Wem.Tilly_Shop8&quot;"/>
   </properties>
  </object>
  <object id="50" name="TileData" x="64" y="128" width="16" height="16">
   <properties>
    <property name="Action" value="Message &quot;Wem.Tilly_Shop7&quot;"/>
   </properties>
  </object>
  <object id="51" name="TileData" x="128" y="128" width="16" height="16">
   <properties>
    <property name="Action" value="Message &quot;Wem.Tilly_Shop8&quot;"/>
   </properties>
  </object>
  <object id="52" name="TileData" x="112" y="128" width="16" height="16">
   <properties>
    <property name="Action" value="Message &quot;Wem.Tilly_Shop7&quot;"/>
   </properties>
  </object>
  <object id="53" name="TileData" x="80" y="160" width="16" height="16">
   <properties>
    <property name="Action" value="Message &quot;Wem.Tilly_Shop8&quot;"/>
   </properties>
  </object>
  <object id="54" name="TileData" x="64" y="160" width="16" height="16">
   <properties>
    <property name="Action" value="Message &quot;Wem.Tilly_Shop7&quot;"/>
   </properties>
  </object>
  <object id="55" name="TileData" x="80" y="224" width="16" height="16">
   <properties>
    <property name="Action" value="Message &quot;Wem.Tilly_Shop8&quot;"/>
   </properties>
  </object>
  <object id="56" name="TileData" x="64" y="224" width="16" height="16">
   <properties>
    <property name="Action" value="Message &quot;Wem.Tilly_Shop7&quot;"/>
   </properties>
  </object>
  <object id="59" name="TileData" x="80" y="256" width="16" height="16">
   <properties>
    <property name="Action" value="Message &quot;Wem.Tilly_Shop8&quot;"/>
   </properties>
  </object>
  <object id="60" name="TileData" x="64" y="256" width="16" height="16">
   <properties>
    <property name="Action" value="Message &quot;Wem.Tilly_Shop7&quot;"/>
   </properties>
  </object>
  <object id="61" name="TileData" x="32" y="32" width="16" height="16">
   <properties>
    <property name="Action" value="LockedDoorWarp 12 9 Trailer 900 2000"/>
   </properties>
  </object>
 </objectgroup>
 <objectgroup id="13" name="Buildings2"/>
 <objectgroup id="14" name="Paths"/>
 <objectgroup id="15" name="Front"/>
 <objectgroup id="16" name="AlwaysFront"/>
</map>
