<?xml version="1.0" encoding="UTF-8"?>
<map version="1.10" tiledversion="1.10.2" orientation="orthogonal" renderorder="right-down" compressionlevel="0" width="23" height="16" tilewidth="16" tileheight="16" infinite="0" nextlayerid="15" nextobjectid="36">
 <properties>
  <property name="DayTiles" value="Front 5 1 256 Front 5 2 288 "/>
  <property name="NightTiles" value="Front 5 1 256 Front 5 2 288"/>
  <property name="Warp" value="3 15 Wem.Bundle.Tilly_TillyShop 4 3"/>
 </properties>
 <tileset firstgid="1" name="p" tilewidth="16" tileheight="16" tilecount="64" columns="4">
  <image source="paths.png" width="64" height="256"/>
 </tileset>
 <tileset firstgid="65" name="untitled tile sheet" tilewidth="16" tileheight="16" tilecount="2176" columns="32">
  <image source="townInterior.png" width="512" height="1088"/>
 </tileset>
 <tileset firstgid="2241" name="v15_TownInterior2" tilewidth="16" tileheight="16" tilecount="1312" columns="32">
  <image source="townInterior_2.png" width="512" height="656"/>
 </tileset>
 <tileset firstgid="3553" name="wizard_furniture" tilewidth="16" tileheight="16" tilecount="351" columns="13">
  <image source="wizard_furniture.png" width="208" height="432"/>
 </tileset>
 <tileset firstgid="3904" name="springobjects" tilewidth="16" tileheight="16" tilecount="936" columns="24">
  <image source="springobjects.png" width="384" height="624"/>
 </tileset>
 <tileset firstgid="4840" name="CarolineGreenhouseTiles" tilewidth="16" tileheight="16" tilecount="128" columns="8">
  <image source="CarolineGreenhouseTiles.png" width="128" height="256"/>
 </tileset>
 <tileset firstgid="4968" name="bushes" tilewidth="16" tileheight="16" tilecount="176" columns="8">
  <image source="bushes.png" width="128" height="352"/>
 </tileset>
 <tileset firstgid="5144" name="furniture" tilewidth="16" tileheight="16" tilecount="2976" columns="32">
  <image source="furniture.png" width="512" height="1488"/>
 </tileset>
 <tileset firstgid="8120" name="Craftables" tilewidth="16" tileheight="16" tilecount="736" columns="8">
  <image source="Craftables.png" width="128" height="1472"/>
 </tileset>
 <tileset firstgid="8856" name="tomatobird" tilewidth="16" tileheight="16" tilecount="2" columns="1">
  <image source="tomatobird.png" width="16" height="42"/>
 </tileset>
 <tileset firstgid="8858" name="MidnightsMisc" tilewidth="16" tileheight="16" tilecount="480" columns="12">
  <image source="MidnightsMisc.png" width="192" height="640"/>
 </tileset>
 <tileset firstgid="9338" name="walls_and_floors" tilewidth="16" tileheight="16" tilecount="688" columns="16">
  <image source="walls_and_floors.png" width="256" height="688"/>
 </tileset>
 <layer id="1" name="Back" width="23" height="16">
  <data encoding="csv">
0,0,0,0,0,0,0,0,0,0,0,0,0,0,0,0,0,0,0,0,0,0,0,
0,3315,3315,3315,3315,3315,3315,3315,3315,3315,3315,3315,3315,3315,3316,0,0,0,0,0,0,0,0,
0,3347,3347,3347,3347,3347,3347,3347,3378,3378,3378,3378,3378,3347,3348,0,0,0,0,0,0,0,0,
0,3378,177,3378,177,3378,3378,3378,3378,3378,3378,3378,3378,3378,3380,0,0,0,3220,3220,0,0,0,
0,1337,1338,1337,1338,1337,1338,1337,1338,1337,1338,1337,1338,1337,1338,0,0,1468,1469,1468,1469,1468,0,
0,1369,1370,1369,1370,1369,1370,1369,1370,2143,1370,1369,1370,1369,1370,3315,3315,1500,1501,1500,1501,1500,0,
0,1401,1402,1401,1402,2143,1402,1401,1402,1401,1402,1401,1402,1401,1402,3347,3347,1532,1533,1532,1533,1532,0,
0,1369,2143,1369,1370,1369,1370,1369,1370,1369,1370,1369,1370,1369,1370,3378,3378,359,359,359,359,359,0,
2570,1402,1401,1402,1402,1401,1402,1401,1402,1401,1402,1401,1402,1401,1402,1338,1338,9962,9963,9962,9963,9962,9963,
296,9962,9963,9962,9963,9962,9963,1369,1369,1369,1369,1401,1402,1401,1402,1402,0,9978,9979,9978,9979,9978,9979,
328,9978,9979,9978,9979,9978,9979,1401,2143,1369,1370,1369,1370,1369,2143,1369,0,9962,9963,9962,9963,9962,9963,
10008,9962,9963,9962,9963,9962,9963,1369,1402,1401,1402,1401,1402,2143,1402,65,0,9978,9979,9978,9979,9978,9979,
10024,9978,9979,9978,9979,9978,9979,1369,1370,1370,1370,1370,1370,1370,1370,65,0,9962,9963,9962,9963,9962,9963,
296,2175,1369,9962,9963,9867,2175,1402,1402,1402,2143,1402,1402,1402,1402,65,0,9978,9979,9978,9979,9978,9979,
328,2175,1369,9978,9979,9883,0,1401,1402,1401,1402,1401,1402,1401,1402,65,0,0,0,0,0,0,0,
0,2175,2175,2175,2175,2175,2175,0,1370,2143,1370,1369,1369,1369,2143,297,0,0,0,0,0,0,0
</data>
 </layer>
 <layer id="2" name="Back2" width="23" height="16">
  <properties>
   <property name="Draw" value="Back"/>
  </properties>
  <data encoding="csv">
0,0,0,0,0,0,0,0,0,0,0,0,0,0,0,0,0,0,0,0,0,0,0,
0,0,0,0,0,0,0,0,0,0,0,0,0,0,3387,0,0,0,0,0,0,0,0,
0,0,145,145,0,0,0,0,0,2605,2606,0,0,0,3419,0,0,0,0,0,0,0,0,
0,0,553,177,0,0,0,551,552,2637,2638,0,0,0,0,0,0,0,0,0,0,0,0,
0,0,2524,2525,2526,2527,0,0,0,0,0,0,0,0,0,0,0,0,0,0,0,0,0,
0,0,2556,2557,2558,2559,0,0,0,0,2524,2525,2525,2527,0,0,0,0,0,0,0,0,0,
0,0,2588,2589,2590,2591,0,0,0,0,2556,2557,2557,2559,0,0,0,0,0,0,0,0,0,
0,0,0,0,0,0,0,0,0,0,2556,2557,2557,2559,0,0,0,0,0,0,0,0,0,
0,6657,2147484402,753,753,754,560,0,0,0,2588,2589,2589,2591,0,0,0,0,0,0,0,0,0,
0,0,0,0,0,0,2147486430,0,0,2355,2356,0,0,0,0,0,0,0,0,0,0,0,0,
0,0,0,0,0,0,2147486462,0,0,0,0,2386,2387,0,0,0,0,0,0,0,0,0,0,
0,0,0,0,0,0,2147486430,0,3268,0,0,2418,2419,0,0,0,0,0,0,0,0,0,0,
0,0,0,0,0,0,2147486462,0,0,0,0,0,0,0,0,0,0,0,0,0,0,0,0,
0,0,145,0,145,145,145,0,0,0,0,0,0,0,0,0,0,0,0,0,0,0,0,
0,0,0,0,0,0,0,0,0,0,0,0,0,0,0,0,0,0,0,0,0,0,0,
0,0,0,0,0,0,0,0,0,0,0,0,0,0,0,0,0,0,0,0,0,0,0
</data>
 </layer>
 <layer id="3" name="Buildings" width="23" height="16">
  <data encoding="csv">
65,65,65,65,65,65,65,65,65,65,65,67,67,65,0,65,65,65,65,65,65,65,65,
65,2530,2531,0,0,0,0,0,0,0,0,0,0,0,0,65,65,65,65,65,65,65,65,
65,145,0,0,145,145,145,145,145,0,0,0,0,145,146,65,65,65,65,65,65,65,65,
65,177,0,421,422,177,177,0,0,0,0,827,828,177,178,65,65,65,65,65,65,65,65,
65,3754,585,0,0,0,1208,583,584,2669,2670,859,860,599,210,65,0,2913,2914,0,0,0,65,
65,0,0,385,934,0,0,0,0,0,0,0,0,0,2585,219,220,2945,2946,0,0,2950,65,
65,0,0,0,0,0,0,0,3796,3797,952,953,0,2147484464,2147484463,251,252,3105,3106,2980,2981,2982,65,
65,0,0,0,0,0,0,0,0,586,0,0,0,2147484496,2147484495,283,284,3137,3138,3012,3013,3014,65,
65,145,145,145,145,145,145,0,0,0,0,0,0,0,0,0,0,0,1244,0,0,0,65,
65,2585,2586,0,0,0,0,0,0,0,0,0,0,1554,1555,65,65,0,0,0,0,0,65,
65,2868,0,0,0,0,0,0,0,720,721,722,0,0,0,65,65,0,618,490,492,521,65,
65,2900,0,0,0,0,0,0,0,720,721,722,0,0,6484,65,65,0,0,522,524,0,65,
65,0,2829,0,0,8624,2307,0,0,752,753,754,618,0,599,65,65,428,0,0,587,6657,65,
65,65,65,0,65,65,65,65,65,65,65,65,65,65,65,65,65,65,65,65,65,65,65,
65,65,65,0,65,65,65,65,65,65,65,65,65,65,65,65,65,65,65,65,65,65,65,
65,65,65,65,65,65,65,65,65,65,65,65,65,65,65,65,65,65,65,65,65,65,65
</data>
 </layer>
 <objectgroup id="9" name="Buildings" visible="0">
  <object id="11" name="TileData" x="144" y="64" width="16" height="16">
   <properties>
    <property name="Action" value="Message &quot;Wem.Tilly_House1&quot;"/>
   </properties>
  </object>
  <object id="13" name="TileData" x="96" y="64" width="16" height="16">
   <properties>
    <property name="Action" value="Message &quot;Wem.Tilly_House2&quot;"/>
   </properties>
  </object>
  <object id="15" name="TileData" x="208" y="144" width="16" height="16">
   <properties>
    <property name="Action" value="Message &quot;Wem.Tilly_House4&quot;"/>
   </properties>
  </object>
  <object id="16" name="TileData" x="224" y="176" width="16" height="16">
   <properties>
    <property name="Action" value="Message &quot;Wem.Tilly_House5&quot;"/>
   </properties>
  </object>
  <object id="17" name="TileData" x="176" y="176" width="16" height="16">
   <properties>
    <property name="Action" value="Message &quot;Wem.Tilly_House6&quot;"/>
   </properties>
  </object>
  <object id="18" name="TileData" x="160" y="160" width="16" height="16">
   <properties>
    <property name="Action" value="Message &quot;Wem.Tilly_House7&quot;"/>
   </properties>
  </object>
  <object id="19" name="TileData" x="32" y="64" width="16" height="16">
   <properties>
    <property name="Action" value="Message &quot;Wem.Tilly_House8&quot;"/>
   </properties>
  </object>
  <object id="25" name="TileData" x="112" y="64" width="16" height="16">
   <properties>
    <property name="Action" value="Message &quot;Wem.Tilly_House14&quot;"/>
   </properties>
  </object>
  <object id="26" name="TileData" x="128" y="64" width="16" height="16">
   <properties>
    <property name="Action" value="Message &quot;Wem.Tilly_House15&quot;"/>
   </properties>
  </object>
  <object id="29" name="TileData" x="176" y="96" width="16" height="16">
   <properties>
    <property name="Action" value="Message &quot;Wem.Tilly_House3&quot;"/>
   </properties>
  </object>
  <object id="32" name="TileData" x="288" y="128" width="16" height="16">
   <properties>
    <property name="Action" value="Message &quot;Wem.Tilly_House17&quot;"/>
   </properties>
  </object>
  <object id="33" name="TileData" x="272" y="112" width="16" height="16">
   <properties>
    <property name="Action" value="Message &quot;Wem.Tilly_House18&quot;"/>
   </properties>
  </object>
  <object id="34" name="TileData" x="336" y="112" width="16" height="16">
   <properties>
    <property name="Action" value="Message &quot;Wem.Tilly_House19&quot;"/>
   </properties>
  </object>
  <object id="35" name="TileData" x="80" y="192" width="16" height="16">
   <properties>
    <property name="Action" value="DropBox TillyBin"/>
   </properties>
  </object>
 </objectgroup>
 <layer id="4" name="Front" width="23" height="16">
  <data encoding="csv">
74,75,75,75,75,75,75,75,75,75,75,731,732,75,68,0,0,0,0,0,0,0,0,
129,0,0,1409,6546,321,7100,0,0,0,0,763,764,2254,108,101,0,0,0,0,0,0,0,
129,0,0,389,6578,353,7132,374,373,0,0,795,796,2286,0,133,0,0,0,0,0,0,0,
129,3741,0,483,484,0,1176,0,0,0,0,0,0,567,0,133,0,0,0,0,0,0,0,
129,0,0,515,516,0,0,0,0,0,0,0,0,0,2553,133,0,0,0,1320,2921,2921,0,
129,0,0,0,0,0,0,0,3783,3784,920,921,0,2147484432,2147484431,0,0,0,0,1321,2953,2953,0,
129,6593,0,0,0,0,0,0,0,0,0,0,0,0,0,0,0,772,740,0,0,0,0,
129,6625,2864,2865,2865,2866,528,0,0,0,0,0,0,0,0,0,0,0,0,0,0,0,0,
129,2553,2554,0,0,0,0,0,0,0,0,0,0,1522,1523,0,0,0,0,0,0,0,0,
129,2836,0,0,0,0,0,0,0,688,689,690,0,0,0,133,0,0,0,458,460,489,0,
129,0,2765,0,0,0,2243,0,0,1556,282,0,0,0,6452,133,0,0,0,397,398,6593,0,
129,0,2797,0,0,8616,2275,0,0,0,0,281,0,0,567,133,0,396,0,0,555,6625,0,
225,0,0,0,0,230,227,0,228,230,230,230,230,230,231,232,0,0,0,0,0,0,0,
0,0,0,0,0,0,0,0,0,0,0,0,0,0,0,0,0,0,0,0,0,0,0,
0,0,0,0,0,0,0,0,0,0,0,0,0,0,0,0,0,0,0,0,0,0,0,
0,0,0,0,0,0,0,0,0,0,0,0,0,0,0,0,0,0,0,0,0,0,0
</data>
 </layer>
 <layer id="5" name="Front2" width="23" height="16">
  <properties>
   <property name="Draw" value="Front"/>
  </properties>
  <data encoding="csv">
0,0,0,0,0,0,0,0,0,0,0,0,0,0,0,0,0,0,0,0,0,0,0,
0,1453,4244,0,0,0,0,0,2503,2504,2532,0,0,0,0,0,0,0,0,0,0,0,0,
0,2562,2563,0,390,0,0,0,2535,2536,2564,0,0,0,0,0,0,0,0,0,0,0,0,
0,0,609,0,0,0,0,577,899,0,0,0,0,0,0,0,0,0,0,0,0,0,0,
0,0,0,0,0,0,0,0,0,0,0,0,0,0,0,0,0,0,0,0,0,0,0,
0,0,0,0,0,0,0,0,0,0,0,4245,0,0,0,0,0,0,0,0,0,0,0,
0,0,0,0,0,0,0,0,0,554,0,0,0,0,0,0,0,0,0,0,0,0,0,
0,0,499,6511,432,8948,0,0,0,0,0,0,0,0,0,0,0,0,0,0,0,0,0,
0,0,0,0,0,0,0,0,0,0,0,0,0,0,0,0,0,0,0,0,0,0,0,
0,0,0,0,0,0,0,0,0,0,0,0,0,0,0,0,0,0,0,0,0,0,0,
0,0,0,0,0,0,0,0,0,0,0,809,0,0,0,0,0,0,0,0,0,0,0,
0,0,0,0,0,0,0,0,0,0,4519,0,0,0,0,0,0,0,0,0,0,0,0,
0,0,0,0,0,0,0,0,0,0,0,0,0,0,0,0,0,0,0,0,0,0,0,
0,0,0,0,0,0,0,0,0,0,0,0,0,0,0,0,0,0,0,0,0,0,0,
0,0,0,0,0,0,0,0,0,0,0,0,0,0,0,0,0,0,0,0,0,0,0,
0,0,0,0,0,0,0,0,0,0,0,0,0,0,0,0,0,0,0,0,0,0,0
</data>
 </layer>
 <layer id="6" name="Paths" width="23" height="16" visible="0">
  <data encoding="csv">
0,0,0,0,0,0,0,0,0,0,0,0,0,0,0,0,0,0,0,0,0,0,0,
0,0,0,0,0,0,0,0,0,0,0,0,0,0,0,0,0,0,0,0,0,0,0,
0,0,0,0,0,0,0,0,0,0,0,0,0,0,0,0,0,0,0,0,0,0,0,
0,0,0,0,0,0,0,0,0,0,0,0,0,0,0,0,0,0,0,0,0,0,0,
0,0,0,0,0,9,0,0,0,0,0,0,0,9,0,0,0,9,9,9,9,9,0,
0,0,9,0,0,0,0,9,0,0,0,0,0,0,0,0,0,9,9,9,9,9,0,
0,0,0,0,0,0,0,0,0,0,0,0,9,0,0,0,0,9,9,9,9,9,0,
0,0,9,0,0,0,0,0,0,0,0,0,0,0,0,0,0,9,9,9,9,0,0,
0,0,0,0,0,0,0,0,0,0,0,0,0,0,0,0,0,0,0,9,0,0,0,
0,9,9,9,9,9,9,0,0,0,0,0,0,0,0,0,0,0,0,0,0,0,0,
0,9,9,9,9,9,9,0,9,0,0,0,0,0,0,0,0,0,9,9,9,9,0,
0,9,9,9,9,9,9,0,0,0,0,0,9,0,0,0,0,0,9,9,9,9,0,
0,9,9,9,9,0,9,0,0,0,0,0,0,0,0,0,0,0,0,0,0,0,0,
0,0,0,0,0,0,0,0,0,0,0,0,0,0,0,0,0,0,0,0,0,0,0,
0,0,0,0,0,0,0,0,0,0,0,0,0,0,0,0,0,0,0,0,0,0,0,
0,0,0,0,0,0,0,0,0,0,0,0,0,0,0,0,0,0,0,0,0,0,0
</data>
 </layer>
 <layer id="13" name="AlwaysFront" width="23" height="16">
  <data encoding="csv">
74,67,67,67,67,67,67,67,67,67,67,0,0,67,68,0,0,0,0,0,0,0,0,
2147483781,0,0,0,0,0,0,0,0,0,0,0,0,0,108,101,0,0,0,0,0,0,0,
2147483781,0,0,0,0,0,0,0,0,0,0,0,0,0,0,133,0,0,0,0,0,0,0,
2147483781,0,0,0,0,0,0,0,0,0,0,0,0,0,0,133,74,75,75,75,75,75,76,
2147483781,0,0,0,0,0,0,0,0,0,0,0,0,0,0,258,259,0,0,0,0,0,133,
2147483781,0,0,0,0,0,0,0,0,0,0,0,0,0,0,0,0,0,0,0,0,0,133,
2147483781,0,0,0,0,0,0,0,0,0,0,0,0,0,0,0,0,0,0,0,0,0,133,
2147483781,0,0,0,0,0,0,0,0,0,0,0,0,0,0,0,0,0,0,0,0,0,133,
2147483781,0,0,0,0,0,0,0,0,0,0,0,0,0,0,228,227,0,0,0,0,0,133,
2147483781,0,0,0,0,0,0,0,0,0,0,0,0,0,0,133,129,0,0,0,0,0,133,
2147483781,0,0,0,0,0,0,0,0,0,0,0,0,0,0,133,129,0,0,0,0,0,133,
2147483781,0,0,0,0,0,0,0,0,0,0,0,0,0,0,133,129,0,0,0,0,0,133,
225,2147483879,227,0,228,230,230,230,230,230,230,230,230,230,231,232,225,226,230,230,230,231,232,
0,0,129,0,133,0,0,0,0,0,0,0,0,0,0,0,0,0,0,0,0,0,0,
0,0,161,230,2147483809,0,0,0,0,0,0,0,0,0,0,0,0,0,0,0,0,0,0,
0,0,0,0,0,0,0,0,0,0,0,0,0,0,0,0,0,0,0,0,0,0,0
</data>
 </layer>
 <objectgroup id="7" name="Back"/>
 <objectgroup id="8" name="Back2"/>
 <objectgroup id="10" name="Front"/>
 <objectgroup id="11" name="Front2"/>
 <objectgroup id="12" name="Paths"/>
</map>
