<?xml version="1.0" encoding="UTF-8"?>
<map version="1.10" tiledversion="1.10.2" orientation="orthogonal" renderorder="right-down" compressionlevel="0" width="23" height="18" tilewidth="16" tileheight="16" infinite="0" nextlayerid="15" nextobjectid="58">
 <properties>
  <property name="DayTiles" value="Back3 2 3 256 Back3 2 4 288 Back3 8 3 256 Back3 8 4 288"/>
  <property name="NightTiles" value="Back3 2 3 1253 Back3 2 4 1285 Back3 8 3 1253 Back3 8 4 1285"/>
  <property name="Warp" value="4 1 Wem.Bundle.Tilly_TillyHouse 3 13"/>
 </properties>
 <tileset firstgid="1" name="p" tilewidth="16" tileheight="16" tilecount="64" columns="4">
  <image source="paths.png" width="64" height="256"/>
 </tileset>
 <tileset firstgid="65" name="untitled tile sheet" tilewidth="16" tileheight="16" tilecount="2176" columns="32">
  <image source="townInterior.png" width="512" height="1088"/>
 </tileset>
 <tileset firstgid="2241" name="v15_TownInterior2" tilewidth="16" tileheight="16" tilecount="1312" columns="32">
  <image source="townInterior_2.png" width="512" height="656"/>
 </tileset>
 <tileset firstgid="3553" name="wizard_furniture" tilewidth="16" tileheight="16" tilecount="351" columns="13">
  <image source="wizard_furniture.png" width="208" height="432"/>
 </tileset>
 <tileset firstgid="3904" name="springobjects" tilewidth="16" tileheight="16" tilecount="936" columns="24">
  <image source="springobjects.png" width="384" height="624"/>
 </tileset>
 <tileset firstgid="4840" name="furniture" tilewidth="16" tileheight="16" tilecount="2976" columns="32">
  <image source="furniture.png" width="512" height="1488"/>
 </tileset>
 <tileset firstgid="7816" name="Craftables" tilewidth="16" tileheight="16" tilecount="736" columns="8">
  <image source="Craftables.png" width="128" height="1472"/>
 </tileset>
 <tileset firstgid="8552" name="CarolineGreenhouseTiles" tilewidth="16" tileheight="16" tilecount="128" columns="8">
  <image source="CarolineGreenhouseTiles.png" width="128" height="256"/>
 </tileset>
 <tileset firstgid="8680" name="bushes" tilewidth="16" tileheight="16" tilecount="176" columns="8">
  <image source="bushes.png" width="128" height="352"/>
 </tileset>
 <tileset firstgid="8856" name="editedcrops" tilewidth="16" tileheight="16" tilecount="8" columns="4">
  <image source="editedcrops.png" width="64" height="32"/>
 </tileset>
 <tileset firstgid="8864" name="furniture_3" tilewidth="16" tileheight="16" tilecount="351" columns="13">
  <image source="furniture_3.png" width="208" height="432"/>
 </tileset>
 <tileset firstgid="9215" name="walls_and_floors" tilewidth="16" tileheight="16" tilecount="688" columns="16">
  <image source="walls_and_floors.png" width="256" height="688"/>
 </tileset>
 <tileset firstgid="9903" name="TillyShopSheet" tilewidth="16" tileheight="16" tilecount="300" columns="15">
  <image source="TillyShopSheet.png" width="240" height="320"/>
 </tileset>
 <layer id="1" name="Back" width="23" height="18">
  <data encoding="csv">
0,0,0,0,0,0,0,0,0,0,0,0,0,0,0,0,0,0,0,0,0,0,0,
0,0,0,0,0,0,0,0,0,0,0,0,0,0,0,0,0,0,0,0,0,0,0,
0,0,0,1108,1108,0,0,0,0,0,0,0,0,0,0,0,0,0,0,0,0,0,0,
0,9373,9373,9373,1108,9373,9373,9373,9373,9373,9373,9373,9373,9373,9373,0,0,8589,8589,8586,8587,8588,0,
0,9389,9389,9389,1108,9389,9389,9389,9389,9389,9389,9389,9389,9389,9389,0,0,8597,8597,8594,8595,8596,0,
0,9553,9553,9553,1108,9553,9554,9817,9818,9817,9818,9817,9405,9405,9405,0,0,8605,8605,8602,8603,8604,0,
0,9553,9554,9553,9554,9553,9554,9553,9554,9553,9553,9554,9553,9554,9569,0,0,9839,9840,9839,9840,9839,0,
0,9569,9570,9569,9570,9569,9570,9569,9570,9569,9569,9570,9569,9570,9569,9373,9373,9855,9856,9855,9856,9855,0,
9553,9553,9554,9553,9554,9553,9554,9553,9554,9553,9553,9554,9553,9554,9554,9389,9389,9839,9840,9839,9840,9839,9840,
9569,9569,9570,9569,9570,9569,9570,9569,9570,9569,9569,9570,9569,9570,9569,9570,9569,9855,9856,9855,9856,9855,9856,
2570,9553,9554,9553,9554,9553,9554,9553,9554,9553,9553,9554,9553,9553,9554,9553,9554,9839,9840,9839,9840,9839,9840,
296,9569,9570,9569,9570,9569,9570,9569,9570,9569,9553,9554,9553,9569,9570,9569,9570,9855,9856,9855,9856,9855,9856,
328,9553,9554,9553,9554,9553,9554,9553,9554,9553,9554,9553,9554,9570,9553,9554,9553,9839,9840,9839,9840,9839,9840,
296,9569,9570,9569,9570,9569,9570,9569,9570,9569,9570,9569,9570,9570,9569,9570,9569,9855,9856,9855,9856,9855,9856,
328,9553,9554,9553,9554,9553,9554,9553,9554,9553,9554,9553,9554,9554,9553,9554,9553,9839,9840,9839,9840,9839,9840,
296,9569,9570,9569,9570,9569,9570,9569,9570,9569,9570,9569,9570,9570,9569,9570,9569,9855,9856,9855,9856,9855,9856,
328,9817,9818,9817,9818,9817,9553,9554,9553,9554,9553,9554,9553,9554,9553,9554,9553,0,0,0,0,0,0,
0,9833,9834,9833,9834,9833,9569,9570,9569,9570,9569,9570,9570,9834,2143,297,0,0,0,0,0,0,0
</data>
 </layer>
 <layer id="2" name="Back2" width="23" height="18">
  <properties>
   <property name="Draw" value="Back"/>
  </properties>
  <data encoding="csv">
0,0,0,0,0,0,0,0,0,0,0,0,0,0,0,0,0,0,0,0,0,0,0,
0,0,0,0,0,0,0,0,0,0,0,0,0,0,0,0,0,0,0,0,0,0,0,
0,0,0,0,0,0,0,0,0,0,0,0,0,0,0,0,0,0,0,0,0,0,0,
0,0,0,0,0,10087,10088,10089,0,10091,737,10093,0,0,0,0,0,3472,2370,3440,0,3441,0,
0,9389,9389,3504,0,10102,10103,10104,0,10106,737,10108,0,0,0,0,0,3504,2402,0,0,0,0,
0,9405,9405,9405,0,0,769,10119,10120,10121,769,769,0,0,0,0,0,0,2434,0,0,0,0,
0,0,0,0,0,10176,10176,10176,10176,10176,10176,10176,0,0,10176,0,0,0,0,0,0,0,0,
0,10176,10176,10176,0,0,0,7624,7625,7626,7627,0,7638,7640,2147491286,0,0,0,0,0,2147492210,0,0,
0,0,0,0,0,0,0,7656,7657,7658,7659,0,7670,7671,2147491318,0,0,0,0,0,0,0,0,
0,10173,10174,10173,10174,10177,0,7688,7689,7690,7691,0,7702,7703,2147491350,0,0,8562,0,0,0,0,0,
0,7638,7639,7640,2147491286,0,0,0,0,0,0,0,0,0,0,0,0,0,0,6617,6618,0,0,
0,7670,7671,7672,7673,0,0,0,0,7624,7625,7625,7625,7625,7627,0,0,0,0,6649,6650,0,0,
0,7670,7671,7672,2147491318,0,0,0,0,7656,7657,7657,7658,7658,7659,0,0,0,0,0,0,0,0,
0,7702,7703,7704,2147491350,0,0,0,0,7656,7657,7657,7658,7658,7659,0,0,0,0,2147492210,0,0,0,
0,0,0,0,0,0,0,0,0,7688,7689,7689,7690,7690,7691,0,0,0,0,0,0,0,0,
0,145,145,145,145,145,145,0,0,0,0,0,0,0,0,0,0,0,0,0,0,0,0,
0,0,0,0,0,0,0,0,0,0,0,0,0,0,0,0,0,0,0,0,0,0,0,
0,0,0,0,0,0,0,0,0,0,0,0,0,0,0,0,0,0,0,0,0,0,0
</data>
 </layer>
 <layer id="14" name="Back3" width="23" height="18">
  <data encoding="csv">
0,0,0,0,0,0,0,0,0,0,0,0,0,0,0,0,0,0,0,0,0,0,0,
0,0,0,0,0,0,0,0,0,0,0,0,0,0,0,0,0,0,0,0,0,0,0,
0,0,0,0,0,0,0,0,0,0,0,0,0,0,0,0,0,0,0,0,0,0,0,
0,0,321,0,0,0,0,0,321,0,10092,0,0,0,0,0,0,0,0,0,0,0,0,
0,0,353,0,0,0,0,0,353,0,8916,0,0,0,0,0,0,0,0,0,0,0,0,
0,0,0,0,0,0,0,0,0,0,10122,0,0,0,0,0,0,0,0,0,0,0,0,
0,0,0,0,0,0,0,0,0,0,0,3768,0,0,0,0,0,0,0,0,0,0,0,
0,0,0,0,0,0,0,3771,0,0,0,0,0,0,0,0,0,0,0,0,0,0,0,
0,0,0,0,0,0,0,0,0,0,0,0,0,0,0,0,0,0,0,0,0,0,0,
0,0,0,0,0,0,0,0,0,0,0,0,0,0,0,0,0,0,0,0,0,0,0,
0,0,0,0,0,0,0,0,0,0,0,0,0,0,0,0,0,0,0,0,0,0,0,
0,8945,0,0,0,0,0,0,0,0,3772,0,0,0,0,0,0,0,0,0,0,0,0,
0,0,0,0,3768,0,0,0,0,0,0,0,0,3773,0,0,0,0,0,0,0,0,0,
0,0,0,8948,0,0,0,0,0,0,8945,0,0,0,0,0,0,0,0,0,0,0,0,
0,0,0,0,0,0,0,0,0,0,0,0,0,0,0,0,0,0,0,0,0,0,0,
0,0,0,0,0,0,0,0,0,0,0,0,0,0,0,0,0,0,0,0,0,0,0,
0,0,0,0,0,0,0,0,0,0,0,0,0,0,0,0,0,0,0,0,0,0,0,
0,0,0,0,0,0,0,0,0,0,0,0,0,0,0,0,0,0,0,0,0,0,0
</data>
 </layer>
 <layer id="3" name="Buildings" width="23" height="18">
  <data encoding="csv">
65,65,65,65,65,65,65,65,65,65,65,65,65,65,65,65,65,65,65,65,65,65,65,
65,65,65,65,65,65,65,65,65,65,65,65,65,65,65,65,65,65,65,65,65,65,65,
65,65,65,65,0,65,65,65,65,65,65,67,67,65,0,65,65,65,65,65,65,65,65,
65,0,0,10085,0,219,220,0,0,0,0,0,219,0,0,65,65,0,0,0,0,0,65,
65,0,0,10085,0,251,252,0,10105,0,0,0,219,2269,2269,65,65,0,0,0,0,0,65,
65,10113,10114,10115,0,283,284,10122,10122,10122,8929,10122,827,828,2301,65,65,8663,8811,0,0,8815,65,
65,10128,10129,10130,0,0,0,0,0,0,0,0,859,860,6260,65,0,8671,8670,8320,8670,8671,65,
65,0,0,0,0,0,0,0,6000,6001,618,0,899,0,3754,219,220,0,0,0,0,0,65,
65,10158,10159,10160,10161,10162,0,618,6000,6001,0,0,0,0,0,251,252,8671,8670,0,0,8671,65,
65,0,0,0,0,0,0,0,6032,6033,3780,0,5182,5183,6178,283,284,0,0,0,0,2246,65,
65,6205,0,0,0,0,0,0,0,0,0,0,0,0,0,0,0,0,0,0,0,7854,65,
65,0,0,3780,0,0,0,0,0,0,0,589,590,591,6269,65,65,0,0,0,0,7862,65,
65,0,6094,6095,0,0,0,0,3794,3795,0,0,0,0,6602,65,65,8861,8860,0,0,2200,65,
65,0,0,0,0,0,0,0,0,0,0,6040,6041,0,0,65,65,0,0,0,0,0,65,
65,6353,3798,3799,0,8950,8951,0,8935,3806,0,0,3796,3797,6353,65,65,8862,8863,0,7844,7844,65,
65,65,65,65,65,65,65,0,65,65,65,65,65,65,65,65,65,65,65,65,65,65,65,
65,65,65,65,65,65,65,0,65,65,65,65,65,65,65,65,65,65,65,65,65,65,65,
65,65,65,65,65,65,65,65,65,65,65,65,65,65,65,65,65,65,65,65,65,65,65
</data>
 </layer>
 <objectgroup id="9" name="Buildings">
  <object id="37" name="TileData" x="272" y="96" width="16" height="16">
   <properties>
    <property name="Action" value="Message &quot;Wem.Tilly_House11&quot;"/>
   </properties>
  </object>
  <object id="38" name="TileData" x="336" y="128" width="16" height="16">
   <properties>
    <property name="Action" value="Message &quot;Wem.Tilly_House10&quot;"/>
   </properties>
  </object>
  <object id="39" name="TileData" x="288" y="128" width="16" height="16">
   <properties>
    <property name="Action" value="Message &quot;Wem.Tilly_House11&quot;"/>
   </properties>
  </object>
  <object id="40" name="TileData" x="288" y="192" width="16" height="16">
   <properties>
    <property name="Action" value="Message &quot;Wem.Tilly_House13&quot;"/>
   </properties>
  </object>
  <object id="41" name="TileData" x="272" y="192" width="16" height="16">
   <properties>
    <property name="Action" value="Message &quot;Wem.Tilly_House12&quot;"/>
   </properties>
  </object>
  <object id="42" name="TileData" x="304" y="96" width="16" height="16">
   <properties>
    <property name="Action" value="DropBox TillyBin"/>
   </properties>
  </object>
  <object id="43" name="TileData" x="336" y="192" width="16" height="16">
   <properties>
    <property name="Action" value="Message &quot;Wem.Tilly_House16&quot;"/>
   </properties>
  </object>
  <object id="45" name="TileData" x="224" y="144" width="16" height="16">
   <properties>
    <property name="Action" value="Message &quot;Wem.Tilly_Ext1&quot;"/>
   </properties>
  </object>
  <object id="46" name="TileData" x="80" y="128" width="16" height="16">
   <properties>
    <property name="Action" value="Message &quot;Wem.Tilly_Shop1&quot;"/>
   </properties>
  </object>
  <object id="47" name="TileData" x="80" y="80" width="16" height="16">
   <properties>
    <property name="Action" value="Message &quot;Wem.Tilly_Shop1&quot;"/>
   </properties>
  </object>
  <object id="48" name="TileData" x="96" y="80" width="16" height="16">
   <properties>
    <property name="Action" value="Message &quot;Wem.Tilly_Shop1&quot;"/>
   </properties>
  </object>
  <object id="49" name="TileData" x="32" y="128" width="16" height="16">
   <properties>
    <property name="Action" value="Message &quot;Wem.Tilly_Shop2&quot;"/>
   </properties>
  </object>
  <object id="50" name="TileData" x="16" y="128" width="16" height="16">
   <properties>
    <property name="Action" value="Message &quot;Wem.Tilly_Shop2&quot;"/>
   </properties>
  </object>
  <object id="52" name="TileData" x="96" y="224" width="16" height="16">
   <properties>
    <property name="Action" value="Message &quot;Wem.Tilly_Shop3&quot;"/>
   </properties>
  </object>
  <object id="53" name="TileData" x="80" y="224" width="16" height="16">
   <properties>
    <property name="Action" value="Message &quot;Wem.Tilly_Shop3&quot;"/>
   </properties>
  </object>
  <object id="54" name="TileData" x="48" y="96" width="16" height="16">
   <properties>
    <property name="Action" value="Message &quot;Wem.Tilly_Shop4&quot;"/>
   </properties>
  </object>
  <object id="55" name="TileData" x="32" y="96" width="16" height="16">
   <properties>
    <property name="Action" value="Message &quot;Wem.Tilly_Shop5&quot;"/>
   </properties>
  </object>
  <object id="56" name="TileData" x="16" y="96" width="16" height="16">
   <properties>
    <property name="Action" value="Message &quot;Wem.Tilly_Shop6&quot;"/>
   </properties>
  </object>
  <object id="57" name="TileData" x="64" y="128" width="16" height="16">
   <properties>
    <property name="Action" value="OpenShop Wem.Bundle.Tilly_TeaShop down 600 2600 4 7 1 1"/>
   </properties>
  </object>
 </objectgroup>
 <layer id="4" name="Front" width="23" height="18">
  <data encoding="csv">
0,0,0,0,65,0,0,0,0,0,0,0,0,0,0,0,0,0,0,0,0,0,0,
0,0,0,65,65,65,65,0,0,0,0,0,0,0,0,0,0,0,0,0,0,0,0,
74,75,75,65,0,75,75,75,75,75,75,0,731,67,67,0,0,0,0,0,0,0,0,
129,10083,0,0,0,0,0,0,0,0,8903,0,763,764,2254,101,0,0,0,0,0,0,0,
129,10098,10099,10100,0,0,0,0,0,0,0,0,795,796,2286,133,0,0,0,0,0,0,0,
129,0,0,0,0,0,0,0,0,0,0,0,0,0,2610,133,0,0,0,8312,8662,8815,0,
129,0,0,0,0,0,0,0,5968,5969,0,0,0,0,3741,133,0,0,0,0,0,0,0,
982,10143,10144,10145,10146,10147,0,0,0,0,0,0,0,0,0,0,0,8815,8662,0,0,8815,0,
129,0,0,0,0,0,0,0,0,0,3767,0,5150,5151,6146,0,0,0,0,0,0,0,0,
129,0,0,0,0,0,0,0,0,0,0,0,0,0,0,0,0,0,0,0,0,0,0,
129,0,0,3767,0,0,0,0,0,0,0,557,558,559,6237,0,0,0,0,0,0,8581,0,
129,0,6062,6063,0,0,0,0,3781,3782,0,5976,5977,0,0,133,0,8857,8856,0,0,0,0,
129,6289,0,0,0,0,0,0,8909,0,0,6008,6009,0,6289,133,0,0,0,0,0,0,0,
129,6321,3785,3786,0,0,0,0,8922,3793,0,0,3783,3784,6321,133,0,8858,8859,0,7836,7836,0,
225,0,0,0,0,230,227,0,228,0,230,230,230,230,231,232,0,0,0,0,0,0,0,
0,0,0,0,0,0,129,0,2147483777,0,0,0,0,0,0,0,0,0,0,0,0,0,0,
0,0,0,0,0,0,161,230,195,0,0,0,0,0,0,0,0,0,0,0,0,0,0,
0,0,0,0,0,0,0,0,0,0,0,0,0,0,0,0,0,0,0,0,0,0,0
</data>
 </layer>
 <layer id="5" name="Front2" width="23" height="18">
  <properties>
   <property name="Draw" value="Front"/>
  </properties>
  <data encoding="csv">
0,0,0,0,65,0,0,0,0,0,0,0,0,0,0,0,0,0,0,0,0,0,0,
0,0,0,0,65,0,0,0,0,0,0,0,0,0,0,0,0,0,0,0,0,0,0,
0,0,0,0,0,0,0,0,0,0,0,0,731,732,0,0,0,0,0,0,0,0,0,
0,0,0,3472,0,0,0,0,0,0,0,0,763,764,0,0,0,0,0,0,0,0,0,
0,0,0,0,0,0,0,0,0,0,0,0,0,0,2578,0,0,0,0,0,0,0,0,
0,0,0,0,0,0,0,0,0,0,0,0,0,0,0,0,0,0,0,0,0,0,0,
0,0,0,0,0,0,0,0,0,0,0,0,0,0,0,0,0,0,0,0,0,0,0,
0,0,0,716,0,0,0,0,898,0,0,0,0,0,0,2503,2504,0,0,0,0,0,0,
0,0,0,0,0,0,0,0,0,4245,0,0,0,0,0,2535,2536,0,0,0,0,0,0,
0,0,0,0,0,0,0,0,0,0,0,0,0,0,0,0,0,0,0,0,0,0,0,
0,0,0,0,0,0,0,0,0,0,0,0,0,0,432,0,0,0,0,0,0,0,0,
0,0,0,0,0,0,0,0,0,0,0,0,0,0,0,0,0,0,0,0,0,0,0,
0,0,0,0,0,0,0,0,0,0,0,740,4245,0,0,0,0,0,0,0,0,0,0,
0,0,0,0,0,0,0,0,0,0,0,0,0,0,0,0,0,0,0,0,0,0,0,
0,0,0,0,0,0,0,0,0,0,0,0,0,0,0,0,0,0,0,0,0,0,0,
0,0,0,0,0,0,0,0,0,0,0,0,0,0,0,0,0,0,0,0,0,0,0,
0,0,0,0,0,0,0,0,0,0,0,0,0,0,0,0,0,0,0,0,0,0,0,
0,0,0,0,0,0,0,0,0,0,0,0,0,0,0,0,0,0,0,0,0,0,0
</data>
 </layer>
 <layer id="6" name="Paths" width="23" height="18" visible="0">
  <data encoding="csv">
0,0,0,0,0,0,0,0,0,0,0,0,0,0,0,0,0,0,0,0,0,0,0,
0,0,0,0,0,0,0,0,0,0,0,0,0,0,0,0,0,0,0,0,0,0,0,
0,0,0,0,0,0,0,0,0,0,0,0,0,0,0,0,0,0,0,0,0,0,0,
0,0,9,9,0,9,9,0,9,0,0,0,0,0,0,0,0,9,9,9,9,9,0,
0,0,0,0,0,9,9,0,0,0,0,0,0,0,0,0,0,9,9,9,9,9,0,
0,0,0,0,0,0,0,0,0,0,0,0,9,9,0,0,0,9,9,9,9,9,0,
0,0,0,0,9,9,9,9,9,9,0,0,9,9,0,0,0,9,9,9,9,9,0,
0,0,0,0,0,0,0,0,9,0,9,9,9,9,9,0,0,0,0,0,0,0,0,
0,9,9,9,9,9,9,9,9,9,9,9,9,9,9,0,0,9,9,0,0,9,0,
0,9,9,9,9,9,9,9,9,9,9,9,9,9,9,0,0,0,0,0,0,0,0,
0,9,9,9,9,9,9,9,9,9,9,9,0,9,0,0,0,0,0,0,0,9,0,
0,0,9,9,9,9,9,9,9,9,9,9,9,9,9,0,0,0,0,0,0,0,0,
0,0,0,9,9,9,9,9,9,9,0,0,0,0,0,0,0,0,0,0,0,0,0,
0,9,0,0,0,0,0,0,9,9,0,0,9,0,9,0,0,9,9,0,9,9,0,
0,9,0,0,0,9,9,9,9,9,0,0,0,0,9,0,0,0,0,0,0,0,0,
0,0,0,0,0,0,0,0,0,0,0,0,0,0,0,0,0,0,0,0,0,0,0,
0,0,0,0,0,0,0,0,0,0,0,0,0,0,0,0,0,0,0,0,0,0,0,
0,0,0,0,0,0,0,0,0,0,0,0,0,0,0,0,0,0,0,0,0,0,0
</data>
 </layer>
 <layer id="13" name="AlwaysFront" width="23" height="18">
  <data encoding="csv">
0,0,0,0,65,0,0,0,0,0,0,0,0,0,0,0,0,0,0,0,0,0,0,
0,0,0,74,67,76,0,0,0,0,0,0,0,0,0,0,0,0,0,0,0,0,0,
74,67,67,259,0,258,67,67,67,67,67,0,0,0,67,76,74,75,75,75,75,75,76,
2147483781,0,0,0,0,0,0,0,0,0,0,0,0,0,0,133,2147483781,0,0,0,0,0,133,
2147483781,0,0,0,0,0,0,0,0,0,0,0,0,0,0,133,2147483781,0,0,0,0,0,133,
2147483781,0,0,0,0,0,0,0,0,0,0,0,0,0,0,133,2147483781,0,0,0,0,0,133,
2147483781,0,0,0,0,0,0,0,0,0,0,0,0,0,0,258,259,0,0,0,0,0,133,
2147483781,0,0,0,0,0,0,0,0,0,0,0,0,0,0,0,0,0,0,0,0,0,133,
2147483781,0,0,0,0,0,0,0,0,0,0,0,0,0,0,0,0,0,0,0,0,0,133,
2147483781,0,0,0,0,0,0,0,0,0,0,0,0,0,0,0,0,0,0,0,0,0,133,
2147483781,0,0,0,0,0,0,0,0,0,0,0,0,0,0,228,227,0,0,0,0,0,133,
2147483781,0,0,0,0,0,0,0,0,0,0,0,0,0,0,133,129,0,0,0,0,0,133,
2147483781,0,0,0,0,0,0,0,0,0,0,0,0,0,0,133,129,0,0,0,0,0,133,
2147483781,0,0,0,0,0,0,0,0,0,0,0,0,0,0,133,129,0,0,0,0,0,133,
225,2147483879,230,230,230,230,227,0,228,230,230,230,230,230,231,232,225,226,230,230,230,231,232,
0,0,0,0,0,0,129,0,133,0,0,0,0,0,0,0,0,0,0,0,0,0,0,
0,0,0,0,0,0,161,230,2147483809,0,0,0,0,0,0,0,0,0,0,0,0,0,0,
0,0,0,0,0,0,0,0,0,0,0,0,0,0,0,0,0,0,0,0,0,0,0
</data>
 </layer>
 <objectgroup id="7" name="Back"/>
 <objectgroup id="8" name="Back2"/>
 <objectgroup id="10" name="Front"/>
 <objectgroup id="11" name="Front2"/>
 <objectgroup id="12" name="Paths"/>
</map>
