<?xml version="1.0" encoding="UTF-8"?>
<map version="1.10" tiledversion="1.11.0" orientation="orthogonal" renderorder="right-down" compressionlevel="0" width="34" height="22" tilewidth="16" tileheight="16" infinite="0" nextlayerid="9" nextobjectid="14">
 <properties>
  <property name="LocationContext" value="Desert"/>
  <property name="Outdoors" value="T"/>
  <property name="SeasonOverride" value="summer"/>
 </properties>
 <tileset firstgid="1" name="cave" tilewidth="16" tileheight="16" tilecount="288" columns="16">
  <image source="Mines/mine" width="256" height="288"/>
  <tile id="246">
   <properties>
    <property name="Water" value="T"/>
   </properties>
  </tile>
  <tile id="247">
   <properties>
    <property name="Water" value="T"/>
   </properties>
  </tile>
  <tile id="248">
   <properties>
    <property name="Water" value="T"/>
   </properties>
  </tile>
  <tile id="260">
   <properties>
    <property name="Water" value="T"/>
   </properties>
  </tile>
  <tile id="262">
   <properties>
    <property name="Water" value="T"/>
   </properties>
  </tile>
  <tile id="263">
   <properties>
    <property name="Water" value="T"/>
   </properties>
  </tile>
  <tile id="264">
   <properties>
    <property name="Water" value="T"/>
   </properties>
  </tile>
  <tile id="265">
   <properties>
    <property name="Water" value="T"/>
   </properties>
  </tile>
  <tile id="266">
   <properties>
    <property name="Water" value="T"/>
   </properties>
  </tile>
  <tile id="275">
   <properties>
    <property name="Water" value="T"/>
   </properties>
  </tile>
  <tile id="276">
   <properties>
    <property name="Water" value="T"/>
   </properties>
  </tile>
  <tile id="277">
   <properties>
    <property name="Water" value="T"/>
   </properties>
  </tile>
  <tile id="281">
   <properties>
    <property name="Water" value="T"/>
   </properties>
  </tile>
  <tile id="282">
   <properties>
    <property name="Water" value="T"/>
   </properties>
  </tile>
 </tileset>
 <tileset firstgid="289" name="paths" tilewidth="16" tileheight="16" tilecount="64" columns="4">
  <image source="paths" width="64" height="256"/>
 </tileset>
 <tileset firstgid="353" name="untitled tile sheet" tilewidth="16" tileheight="16" tilecount="256" columns="32">
  <image source="island_tilesheet_2" width="512" height="128"/>
  <tile id="166">
   <animation>
    <frame tileid="166" duration="130"/>
    <frame tileid="198" duration="130"/>
    <frame tileid="230" duration="130"/>
    <frame tileid="230" duration="130"/>
    <frame tileid="230" duration="130"/>
    <frame tileid="198" duration="130"/>
    <frame tileid="166" duration="130"/>
    <frame tileid="166" duration="130"/>
    <frame tileid="166" duration="130"/>
    <frame tileid="166" duration="130"/>
    <frame tileid="166" duration="130"/>
    <frame tileid="166" duration="130"/>
    <frame tileid="166" duration="130"/>
    <frame tileid="166" duration="130"/>
   </animation>
  </tile>
  <tile id="167">
   <animation>
    <frame tileid="167" duration="140"/>
    <frame tileid="199" duration="140"/>
    <frame tileid="231" duration="140"/>
    <frame tileid="231" duration="140"/>
    <frame tileid="231" duration="140"/>
    <frame tileid="199" duration="140"/>
    <frame tileid="167" duration="140"/>
    <frame tileid="167" duration="140"/>
    <frame tileid="167" duration="140"/>
    <frame tileid="167" duration="140"/>
    <frame tileid="167" duration="140"/>
    <frame tileid="167" duration="140"/>
   </animation>
  </tile>
  <tile id="199">
   <animation>
    <frame tileid="199" duration="100"/>
    <frame tileid="231" duration="100"/>
    <frame tileid="231" duration="100"/>
    <frame tileid="231" duration="100"/>
    <frame tileid="199" duration="100"/>
    <frame tileid="167" duration="100"/>
    <frame tileid="167" duration="100"/>
    <frame tileid="167" duration="100"/>
    <frame tileid="167" duration="100"/>
    <frame tileid="167" duration="100"/>
    <frame tileid="167" duration="100"/>
    <frame tileid="199" duration="100"/>
    <frame tileid="231" duration="100"/>
    <frame tileid="231" duration="100"/>
    <frame tileid="231" duration="100"/>
    <frame tileid="231" duration="100"/>
    <frame tileid="231" duration="100"/>
    <frame tileid="231" duration="100"/>
    <frame tileid="231" duration="100"/>
    <frame tileid="231" duration="100"/>
    <frame tileid="231" duration="100"/>
   </animation>
  </tile>
  <tile id="230">
   <animation>
    <frame tileid="230" duration="100"/>
    <frame tileid="230" duration="100"/>
    <frame tileid="230" duration="100"/>
    <frame tileid="198" duration="100"/>
    <frame tileid="166" duration="100"/>
    <frame tileid="166" duration="100"/>
    <frame tileid="166" duration="100"/>
    <frame tileid="166" duration="100"/>
    <frame tileid="166" duration="100"/>
    <frame tileid="166" duration="100"/>
    <frame tileid="166" duration="100"/>
    <frame tileid="166" duration="100"/>
    <frame tileid="198" duration="100"/>
    <frame tileid="230" duration="100"/>
    <frame tileid="230" duration="100"/>
    <frame tileid="230" duration="100"/>
    <frame tileid="230" duration="100"/>
    <frame tileid="230" duration="100"/>
    <frame tileid="230" duration="100"/>
   </animation>
  </tile>
 </tileset>
 <tileset firstgid="609" source="desert_festival_tilesheet.tsx"/>
 <tileset firstgid="1697" source="DesertTiles.tsx"/>
 <tileset firstgid="2065" source="paths.tsx"/>
 <tileset firstgid="2129" source="DesertTiles_Extended.tsx"/>
 <tileset firstgid="2162" source="spring_island_tilesheet_1.tsx"/>
 <tileset firstgid="3442" source="trolley.tsx"/>
 <layer id="1" name="Back" width="34" height="22">
  <data encoding="csv">
1714,1714,1714,1714,1714,787,1714,1714,1714,1765,1795,1765,1749,1765,1765,1749,1714,1714,1714,1749,1762,1762,1733,1765,1765,1765,1762,1765,1765,1765,1765,1714,787,1714,
1081,1082,1714,1714,819,1714,1714,1714,1765,1749,1765,1765,1765,1765,1765,1765,1714,787,1714,1765,1765,1765,1765,1765,1765,1765,1765,1762,1765,1765,1765,1714,883,1714,
1714,1714,1714,1714,1081,1082,1714,1714,1762,1765,1765,1762,1765,1765,1765,1765,1714,819,1714,1795,1765,1765,1765,1765,1765,1765,1762,1764,1765,1765,1765,1714,819,1714,
1082,1714,818,1081,1082,1714,1705,1714,1733,1765,1762,1762,1765,1765,0,0,1714,1714,1714,0,1765,1795,1765,1762,1765,1762,1765,1795,1714,1714,1714,1714,851,1714,
1714,883,1714,1714,1714,1714,1714,1765,1765,1765,1762,1765,1749,1749,139,139,1714,819,1714,139,1765,1749,1765,1762,1765,1765,1765,1765,1714,1714,1714,1705,1714,786,
787,1081,1082,1714,1714,1714,1714,1765,1765,1762,1765,1765,139,139,139,139,1714,818,1714,139,139,139,1795,1765,1765,1765,1765,1765,1795,1714,1714,1714,1714,1714,
883,1714,1714,1714,1765,1765,1765,1765,1762,1762,1765,1762,139,139,1714,1714,1714,786,1714,1714,139,139,1794,1765,1762,1765,1765,1765,1765,1765,1765,1765,1714,818,
1714,1705,1714,1765,1765,1765,1765,1795,1765,1762,1765,1765,139,139,1714,1714,1714,1714,1705,1714,219,219,1793,1795,1765,1762,1765,1765,1765,1765,1765,1765,1765,1714,
1714,1714,1714,1765,1764,1765,1765,1765,1793,1765,1762,1762,219,1714,851,818,1714,1714,1714,1714,1714,219,1795,1762,1765,1765,1765,1765,1765,1765,1765,1795,1765,1765,
1765,1795,1733,1765,1762,1765,1765,1765,1765,1795,1765,1762,1714,786,883,1104,1105,1106,1107,1108,1705,1714,1764,1765,1765,1765,1765,1765,1765,1765,1765,1765,1765,1765,
1795,1749,1765,1762,1765,1762,1765,1765,1765,1765,1765,1765,1714,1714,1714,1136,1137,1138,1139,1140,1714,1714,1762,1765,1765,1765,1765,1765,1765,1765,1765,1765,1765,1795,
1733,1765,1765,1765,1762,1765,1765,1765,1765,1765,1764,1762,1714,1714,1714,1168,1169,1170,1171,1172,787,1714,1762,1765,1765,1765,1765,1765,1765,1765,1765,1765,1765,1765,
1765,1749,1765,1762,1765,1765,1765,1765,1765,1765,1765,1765,1714,1705,1714,1714,1081,1082,1714,883,1714,1762,1765,1762,1765,1765,1765,1765,1765,1765,1765,1765,1765,1765,
1765,1765,1765,1765,1765,1765,1765,1765,1765,1765,1762,1749,1765,1714,819,1714,1714,1714,1714,1714,1765,1795,1765,1765,1795,1765,1765,1765,1765,1765,1765,1765,1765,1765,
1765,1765,1765,1765,1765,1765,1765,1765,1765,1765,1733,1765,1765,1765,1714,882,1714,1714,1714,1714,1765,1765,1765,1795,1765,1765,1765,1765,1765,1765,1765,1765,1765,1765,
1765,1765,1765,1765,1765,1765,1765,1765,1765,1765,1762,1765,1765,1765,1765,1714,851,819,1714,1765,1765,1765,1765,1765,1765,1765,1765,1765,1765,1765,1765,1765,1765,1765,
1765,1765,1765,1765,1765,1765,1765,1765,1765,1765,1795,1795,1765,1765,1765,1714,819,1714,1714,1765,1765,1765,1765,1765,1765,1765,1765,1765,1765,1765,1765,1765,1765,1765,
1765,1765,1765,1765,1765,1765,1765,1765,1765,1765,1765,1795,1765,1765,1765,1714,1714,1714,1714,1765,1795,1765,1795,1765,1765,1765,1765,1765,1765,1765,1765,1765,1765,1765,
1765,1765,1765,1765,1765,1765,1765,1795,1765,1765,1765,1765,1765,1765,1765,1714,1714,787,1714,1765,1765,1765,1765,1794,1795,1765,1765,1795,1765,1765,1765,1765,1765,1765,
1765,1765,1765,1794,1794,1795,1793,1765,1765,1795,1765,1765,1765,1765,1765,1714,882,1714,1714,1765,1765,1765,1795,1794,1794,1794,1795,1765,1795,1795,1765,1765,1765,1765,
1795,1793,1794,1794,1794,1794,1765,1765,1795,1794,1795,1765,1765,1765,1765,1714,1714,850,1714,1765,1765,1765,1765,1795,1794,1794,1794,1793,1765,1795,1765,1765,1765,1765,
1793,1765,1795,1794,1794,1765,1765,1795,1794,1794,1794,1765,1765,1765,1765,1714,1714,1714,1714,1765,1765,1765,1795,1793,1795,1794,1794,1794,1795,1765,1793,1793,1765,1795
</data>
 </layer>
 <layer id="2" name="Buildings" width="34" height="22">
  <data encoding="csv">
0,0,0,0,0,0,0,0,1796,0,0,1748,0,0,0,1844,1771,0,1768,1749,0,0,0,0,0,0,0,1748,1707,1708,1753,1819,0,0,
0,0,0,0,0,0,0,1798,1783,0,0,0,0,1845,1765,979,1787,0,1784,1762,0,0,0,0,0,0,0,0,1723,1724,1769,1835,0,0,
0,0,0,0,0,0,0,1768,1748,0,0,0,0,0,0,1749,1803,0,1800,1762,0,0,0,0,0,0,0,0,1739,1740,1785,1851,0,0,
0,0,0,0,0,0,0,1784,0,0,0,0,0,1733,1707,1708,1819,0,1816,1720,0,0,0,0,0,0,0,0,1755,1756,1866,1867,0,0,
0,0,0,0,0,0,1798,1783,0,0,0,0,0,1762,1833,1833,1835,0,1832,1834,1845,0,0,0,0,0,0,1748,1780,1797,0,0,0,0,
0,0,0,0,1798,1782,1783,0,0,0,0,0,1737,1754,1849,1849,1851,0,1848,1850,1814,1799,0,0,0,0,0,0,0,1780,1781,1797,0,0,
0,0,0,1796,0,979,0,0,0,0,0,0,1753,1770,1865,1866,1867,1748,1864,1865,1830,1815,0,1748,0,0,0,0,0,0,979,0,1766,0,
0,0,1796,0,0,0,0,0,0,0,0,0,1769,1786,1851,0,0,0,239,1714,1846,1831,0,0,0,0,0,0,0,0,0,0,0,1766,
1781,1782,1783,0,0,0,0,0,0,0,0,0,1785,1802,1867,1949,1682,0,238,1864,1862,1847,0,0,0,0,0,0,0,0,0,0,0,979,
1748,0,0,0,0,0,0,0,0,0,0,0,1714,0,0,0,0,0,0,1945,0,1714,0,0,0,0,0,0,0,0,0,0,1748,0,
0,0,0,0,0,0,0,0,0,0,0,0,1714,0,1946,1961,0,0,0,0,979,1714,0,0,1844,0,0,0,0,0,0,0,0,0,
0,0,0,0,0,0,0,0,1748,0,0,0,1714,979,399,400,0,0,0,0,0,1714,0,0,0,0,0,0,0,0,0,0,0,0,
0,0,0,0,0,0,0,0,0,0,0,0,1714,0,0,1120,0,0,3574,3575,0,1762,0,0,0,0,0,0,0,0,0,0,0,0,
0,0,0,0,0,0,0,0,0,0,0,0,1762,0,651,0,0,0,0,0,1762,1762,0,0,0,0,0,0,0,0,0,0,0,0,
0,0,0,0,0,0,0,0,0,0,0,0,1762,1762,0,651,0,0,0,0,1733,1762,0,0,0,0,0,0,0,0,0,0,0,0,
0,0,0,0,0,0,0,0,0,0,0,0,0,1762,1762,0,0,0,1768,979,1749,0,0,0,0,0,0,0,0,0,0,0,0,0,
0,0,0,0,0,0,0,0,0,0,0,0,0,0,1749,1771,0,0,1768,1748,0,0,0,0,0,0,0,0,0,0,0,0,0,0,
0,0,0,0,0,0,0,0,0,0,1748,0,0,0,979,1787,0,0,1784,1733,0,0,0,0,0,0,0,0,0,0,0,0,0,0,
0,0,0,0,0,0,0,0,0,0,0,0,1733,1749,1762,1803,0,0,1800,1762,1762,1762,1748,0,0,0,0,0,0,0,0,0,0,0,
0,0,0,0,0,0,0,0,0,0,0,0,1707,1708,1818,1819,0,0,1816,1817,1703,1704,0,0,0,0,0,0,0,0,0,0,0,0,
0,0,0,0,0,0,0,0,0,0,0,0,1723,1724,1834,1835,0,0,1832,1833,1719,1720,0,0,0,0,0,0,0,0,0,0,0,0,
0,0,0,0,0,1748,0,0,0,0,0,1762,1723,1740,1849,1851,0,0,1848,1850,1735,1720,1762,0,0,0,0,0,0,0,0,0,0,0
</data>
 </layer>
 <layer id="4" name="Front" width="34" height="22">
  <data encoding="csv">
0,0,0,0,0,0,0,0,0,0,0,0,0,1829,0,0,1771,0,1768,0,0,0,0,0,0,0,0,0,0,0,0,0,0,0,
0,0,0,0,0,0,0,0,0,0,0,0,0,0,0,0,1787,0,1784,0,0,0,0,0,0,0,0,0,0,0,0,0,0,0,
0,0,0,0,0,0,0,0,0,0,0,0,0,0,0,0,1803,0,1800,0,1813,0,0,0,0,0,0,0,0,0,0,0,0,0,
0,0,0,0,0,0,0,0,0,0,0,0,0,0,0,0,1819,0,1816,0,1829,0,0,0,0,0,0,0,0,0,0,0,0,0,
0,0,0,0,0,0,0,0,0,0,0,0,0,0,1803,0,0,0,0,1800,0,0,0,0,0,0,0,0,0,0,0,0,0,0,
0,0,0,0,0,0,0,0,0,0,0,0,1707,1708,1819,0,0,0,0,1816,1703,1704,0,0,0,0,0,0,0,0,0,0,0,0,
0,0,0,0,0,0,0,0,0,0,0,0,1723,0,1835,0,0,0,223,1832,0,1704,0,0,0,0,0,0,0,0,0,0,0,0,
0,0,0,0,0,0,0,0,0,0,0,0,1739,0,1851,1933,1650,0,0,1848,0,1720,0,0,0,0,0,0,0,0,0,0,0,0,
0,0,0,0,0,0,0,0,0,0,0,0,1755,0,0,0,0,0,0,1929,0,1736,0,0,0,0,0,0,0,0,0,0,0,0,
0,0,0,0,0,0,0,0,0,0,0,0,1771,0,1930,0,0,0,0,0,0,1752,0,0,1828,0,0,0,0,0,0,0,0,0,
0,0,0,0,0,0,0,0,0,0,0,0,1787,0,367,368,0,0,0,0,0,1768,0,0,0,0,0,0,0,0,0,0,0,0,
0,0,0,0,0,0,0,0,0,0,0,0,1771,0,0,1088,0,0,3546,3547,0,1784,0,0,0,0,0,0,0,0,0,0,0,0,
0,0,0,0,0,0,0,0,0,0,0,0,1787,0,619,0,0,0,0,0,1796,1748,0,0,0,0,0,0,0,0,0,0,0,0,
0,0,0,0,0,0,0,0,0,0,0,0,0,1766,0,619,0,0,0,1796,0,0,0,0,0,0,0,0,0,0,0,0,0,0,
0,2950,2951,2952,2953,2954,0,0,0,0,0,0,0,0,1766,0,0,0,1798,1783,0,0,0,0,0,0,0,0,0,0,0,0,0,0,
0,2982,2983,2984,2985,2986,2987,0,0,0,0,0,0,0,0,1766,0,0,0,0,0,0,0,0,0,0,0,0,0,0,0,0,0,0,
0,3014,3015,3016,3017,3018,3019,0,0,0,0,0,0,0,0,0,0,0,0,0,0,0,0,0,0,0,0,0,0,0,0,0,0,0,
0,3046,3047,3048,3049,3050,3051,0,0,0,0,0,0,0,0,0,0,0,0,0,0,0,0,0,0,0,2950,2951,2952,2953,2954,2955,0,0,
0,3078,3079,3080,3081,3082,3083,0,0,0,0,0,0,0,0,0,0,0,0,0,0,0,0,0,0,0,2982,2983,2984,2985,2986,2987,0,0,
0,0,0,3112,3113,0,0,0,0,0,0,0,0,0,0,0,0,0,0,0,0,0,0,0,0,0,3014,3015,3016,3017,3018,3019,0,0,
0,0,0,3144,3145,0,0,0,0,0,0,0,0,0,0,3055,3086,3087,3054,0,0,0,0,0,0,0,3046,3047,3048,3049,3050,3051,0,0,
0,0,0,0,0,0,0,0,0,0,3055,3086,3087,3086,3087,3088,3120,3119,3085,3086,3087,3086,3087,3054,0,0,3078,3079,3080,3081,3082,3083,0,0
</data>
 </layer>
 <layer id="3" name="Paths" width="34" height="22">
  <data encoding="csv">
0,0,0,0,0,0,0,0,0,0,0,0,0,0,0,0,0,0,0,0,0,0,0,0,0,0,0,0,0,0,0,0,0,0,
0,0,0,0,0,0,0,0,0,0,0,0,0,0,0,0,0,0,0,0,0,0,0,0,0,0,0,0,0,0,0,0,0,0,
0,0,0,0,0,0,0,0,0,0,0,0,0,0,0,0,0,0,0,0,0,0,0,0,0,0,0,0,0,0,0,0,0,0,
0,0,0,0,0,0,0,0,0,0,0,0,0,0,0,0,0,0,0,0,0,0,0,0,0,0,0,0,0,0,0,0,0,0,
0,0,0,0,0,0,0,0,0,0,0,0,0,0,0,0,0,0,0,0,0,0,0,0,0,0,0,0,0,0,0,0,0,0,
0,0,0,0,0,0,0,0,0,0,0,0,0,0,0,0,0,0,0,0,0,0,0,0,0,0,0,0,0,0,0,0,0,0,
0,0,0,0,0,0,0,0,0,0,0,0,0,0,0,0,0,0,0,0,0,0,0,0,0,0,0,0,0,0,0,0,0,0,
0,0,0,0,0,0,0,0,0,0,0,0,0,0,0,0,0,0,0,0,0,0,0,0,0,0,0,0,0,0,0,0,0,0,
0,0,0,0,0,0,0,0,0,0,0,0,0,0,0,0,0,0,0,0,0,0,0,0,0,0,0,0,0,0,0,0,0,0,
0,0,0,0,0,0,0,0,0,0,0,0,0,0,0,0,0,0,0,0,0,0,0,0,0,0,0,0,0,0,0,0,0,0,
0,0,0,0,0,0,0,0,0,0,0,0,0,0,0,0,0,0,0,0,0,0,0,0,0,0,0,0,0,0,0,0,0,0,
0,0,0,0,0,0,0,315,0,0,0,0,0,0,0,0,0,0,0,0,0,0,0,0,0,0,0,0,0,0,0,0,0,0,
0,0,0,0,0,0,0,0,0,0,0,0,0,0,0,2073,0,0,0,0,0,0,0,0,0,0,0,0,0,0,0,0,0,0,
0,0,0,0,0,0,0,0,0,0,0,0,0,0,0,0,0,0,0,0,0,0,0,0,0,0,0,0,0,0,0,0,0,0,
0,0,0,0,0,0,0,0,0,0,0,0,0,0,0,0,0,0,0,0,0,0,0,0,0,0,0,0,0,0,0,0,0,0,
0,0,0,0,0,0,0,0,0,0,0,0,0,0,0,0,0,0,0,0,0,0,0,0,0,0,0,0,0,0,0,0,0,0,
0,0,0,0,0,0,0,0,0,0,0,0,0,0,0,0,0,0,0,0,0,0,0,0,0,0,0,0,0,0,0,0,0,0,
0,0,0,0,0,0,0,0,314,0,0,0,0,0,0,0,0,0,0,0,0,0,0,0,0,0,0,0,0,0,0,0,0,0,
0,0,0,0,0,0,0,0,0,0,315,0,0,0,0,0,0,0,0,0,0,0,0,0,0,0,0,0,0,0,0,0,0,0,
0,0,0,0,0,0,0,0,0,0,0,0,0,0,0,0,0,0,0,0,0,0,0,0,315,0,0,0,0,0,0,0,0,0,
0,0,0,0,0,0,0,0,0,0,0,0,0,0,0,0,0,0,0,0,0,0,0,0,0,299,0,0,0,0,0,0,0,0,
0,0,0,0,0,0,0,313,0,0,0,0,0,0,0,0,0,0,0,0,0,0,0,313,0,0,0,0,0,0,0,0,0,0
</data>
 </layer>
 <objectgroup id="5" name="Back"/>
 <objectgroup id="6" name="Buildings"/>
 <objectgroup id="7" name="Paths"/>
 <objectgroup id="8" name="Front"/>
</map>
