<?xml version="1.0" encoding="UTF-8"?>
<map version="1.10" tiledversion="1.11.0" orientation="orthogonal" renderorder="right-down" compressionlevel="0" width="60" height="30" tilewidth="16" tileheight="16" infinite="0" nextlayerid="10" nextobjectid="34">
 <properties>
  <property name="BrookSounds" value="30 1 0 32 14 0 11 28 0"/>
  <property name="LocationContext" value="Desert"/>
  <property name="Music" value="event2"/>
  <property name="Outdoors" value="T"/>
  <property name="forceLoadPathLayerLights" value="t"/>
 </properties>
 <tileset firstgid="1" source="DesertTiles.tsx"/>
 <tileset firstgid="369" source="desert_festival_tilesheet.tsx"/>
 <tileset firstgid="1457" source="paths.tsx"/>
 <tileset firstgid="1521" source="DesertTiles_Extended.tsx"/>
 <tileset firstgid="1554" source="creosotecrop.tsx"/>
 <tileset firstgid="1570" source="summer_outdoorsTileSheet.tsx"/>
 <tileset firstgid="3545" source="mine_desert.tsx"/>
 <layer id="1" name="Back" width="60" height="30">
  <data encoding="csv">
18,18,18,18,18,18,18,18,18,18,18,18,18,18,18,18,18,18,18,18,18,18,18,547,18,66,583,66,66,99,66,66,66,66,66,66,66,66,583,18,18,18,18,18,18,841,842,18,18,18,18,18,18,18,18,18,18,18,18,18,
18,18,18,18,18,841,842,18,18,18,18,18,18,841,842,18,18,18,18,18,841,842,18,18,18,555,66,66,66,99,97,99,66,66,66,66,66,99,66,18,642,18,18,841,842,18,18,18,18,18,841,842,18,18,18,18,18,18,18,18,
18,18,18,18,18,18,18,18,18,18,18,18,841,842,18,18,18,18,18,18,18,18,18,18,18,66,556,66,66,66,99,98,99,66,66,555,577,551,66,18,18,18,841,842,18,18,18,18,18,18,18,18,18,18,18,18,18,18,18,18,
18,18,18,18,18,18,18,18,18,18,18,841,842,18,18,18,18,18,841,842,18,18,18,18,18,66,66,66,66,99,66,99,66,66,66,640,1065,544,66,18,18,18,18,18,18,18,18,18,841,842,18,18,18,18,18,18,18,18,18,18,
18,841,842,18,18,18,18,18,18,18,18,18,18,18,18,18,18,18,18,18,18,18,18,642,18,66,66,66,99,98,99,66,66,37,66,545,581,576,66,66,841,842,18,18,18,18,18,18,18,18,18,18,18,69,69,69,53,18,18,18,
18,18,18,18,18,18,18,18,841,842,18,18,18,18,18,18,841,842,18,18,841,842,18,18,18,66,66,66,66,99,97,66,99,545,99,552,66,66,608,66,66,18,643,18,18,18,841,842,18,18,18,642,18,69,69,69,69,18,18,18,
18,18,18,18,18,18,18,841,842,18,18,18,18,18,18,18,18,18,18,18,18,18,18,18,53,66,552,37,66,66,99,66,66,98,99,609,66,614,66,584,550,66,18,18,18,841,842,18,18,18,18,18,18,69,69,69,69,18,18,18,
18,18,18,18,18,18,841,842,18,18,18,841,842,18,18,18,18,18,841,842,18,18,18,583,66,99,544,66,66,66,66,66,66,1,2,2,2,3,613,550,18,3,66,66,18,18,18,18,18,18,18,18,18,69,1065,69,69,18,18,18,
18,18,18,18,18,18,18,18,18,18,841,842,18,18,18,841,842,18,18,18,643,18,66,97,66,66,99,98,608,93,93,93,99,17,610,546,36,35,550,550,33,35,66,66,18,18,18,18,18,841,842,18,18,18,69,69,18,18,18,18,
18,18,18,841,842,18,18,18,18,18,18,18,18,18,18,18,18,18,18,642,18,99,18,3,577,66,98,66,543,109,109,109,125,33,34,34,35,66,550,550,99,97,544,552,66,18,643,18,841,842,18,18,18,18,18,18,18,18,18,18,
18,18,18,18,18,18,18,18,18,18,18,18,18,18,841,842,18,18,18,18,18,97,33,35,552,66,97,556,125,125,125,125,125,125,125,66,556,66,66,544,550,99,99,97,66,18,18,841,842,18,18,546,18,18,18,18,18,18,9,18,
18,18,18,18,18,18,18,18,841,842,18,18,18,841,842,18,18,18,547,18,66,544,99,544,66,555,125,125,125,125,125,125,125,125,125,125,125,66,66,66,608,66,66,66,99,18,841,842,18,18,18,18,18,18,18,18,18,18,18,18,
18,18,18,18,18,18,18,18,18,18,18,18,18,18,18,18,18,18,18,18,583,577,1065,66,66,99,125,125,125,125,125,127,125,125,125,125,125,66,66,66,640,66,66,551,53,18,18,18,18,18,18,18,547,18,18,18,18,546,18,18,
18,841,842,18,18,18,18,18,18,18,18,841,842,18,18,18,18,18,18,18,66,66,577,66,66,555,125,125,127,125,125,125,125,125,125,125,125,66,66,66,66,66,66,543,583,18,546,18,18,18,547,18,18,18,642,547,18,9,18,18,
18,18,18,18,18,18,18,18,18,18,18,18,18,18,18,18,18,18,9,18,66,66,551,66,641,99,556,125,125,125,125,125,125,125,125,127,125,125,583,66,66,66,66,18,18,18,18,18,18,18,18,18,18,18,18,18,18,841,842,18,
18,18,18,18,18,18,18,18,18,18,18,18,18,18,18,18,841,842,18,18,66,66,68,66,550,97,99,125,125,66,609,1033,125,125,125,125,125,125,98,66,99,66,66,18,18,18,546,18,18,18,841,842,18,18,18,18,18,18,18,18,
842,18,18,18,18,18,18,18,18,841,842,18,18,18,18,841,842,18,18,18,641,66,98,68,550,99,53,99,545,640,93,93,156,127,125,125,125,125,98,68,97,66,66,18,18,18,18,18,18,841,842,18,18,18,18,841,842,18,18,18,
18,18,18,18,18,18,18,18,18,18,18,18,18,18,18,18,18,18,18,18,575,608,99,98,550,550,97,550,544,66,109,109,172,125,127,125,125,125,555,97,68,99,66,18,18,18,18,18,18,18,18,18,18,18,18,18,18,18,18,18,
18,18,18,18,18,18,643,18,18,547,18,18,18,18,18,18,18,18,642,18,18,18,66,99,550,550,550,98,555,576,125,125,125,125,125,125,125,17,2,3,99,66,545,18,18,547,18,841,842,18,18,18,18,841,842,18,18,18,18,18,
18,18,18,18,18,34,34,34,34,34,34,546,18,841,842,18,18,18,643,18,18,18,18,18,99,66,550,49,50,50,51,552,66,37,66,66,53,33,34,35,66,66,583,18,547,18,841,842,18,18,18,18,18,18,18,18,18,841,842,18,
18,18,18,18,35,125,125,125,125,125,125,33,18,18,18,18,18,18,579,18,18,18,18,18,584,544,66,65,550,66,67,66,66,66,66,66,66,66,66,66,66,66,543,18,9,18,18,18,18,18,18,841,842,18,18,18,18,18,18,18,
18,18,546,35,35,125,125,125,125,125,125,125,33,18,18,18,18,18,18,18,18,18,18,18,18,37,66,81,82,82,83,66,66,66,66,66,66,66,66,98,66,18,18,18,18,18,18,18,18,18,841,842,18,18,18,841,842,18,18,18,
18,18,19,35,125,125,125,125,125,125,125,125,125,33,18,18,18,18,18,18,18,18,18,18,18,18,66,66,576,544,66,66,66,66,66,66,66,66,66,66,18,18,18,18,18,841,842,18,18,18,18,18,18,18,18,18,18,18,18,18,
18,36,35,125,125,125,125,53,69,125,125,125,125,66,17,18,18,18,841,842,18,579,18,18,18,18,18,18,575,66,37,66,66,66,66,53,583,66,18,18,18,18,18,18,841,842,18,18,18,18,18,18,841,842,18,18,18,841,842,18,
547,19,545,125,125,125,37,1065,66,66,125,125,125,66,17,18,841,842,18,18,18,18,18,18,18,18,18,18,18,18,18,18,18,18,18,18,18,18,18,18,18,18,18,18,18,18,18,18,18,18,841,842,18,18,18,18,18,18,18,18,
18,19,66,125,125,53,99,66,66,99,37,125,125,544,18,18,18,18,18,18,841,842,18,18,18,18,18,18,18,18,18,18,18,18,18,18,18,18,18,18,18,18,18,547,18,18,18,18,18,841,842,18,18,18,841,842,18,18,18,18,
546,35,66,125,125,125,69,66,66,53,125,125,125,99,33,18,546,18,841,842,18,18,18,18,546,18,18,18,18,18,18,18,18,18,18,18,18,18,18,18,18,18,546,18,18,18,18,18,18,18,18,18,18,18,18,18,18,18,18,18,
19,66,66,125,125,157,93,93,93,93,156,125,125,125,66,33,18,643,18,18,18,18,18,18,18,9,546,18,18,18,18,18,18,18,18,18,18,18,18,18,579,18,18,18,18,18,841,842,18,18,18,18,18,18,18,18,18,18,18,18,
19,99,125,125,125,173,109,109,109,109,172,125,125,125,125,641,33,18,18,18,18,18,841,842,18,18,18,9,18,18,18,18,18,18,18,18,18,18,18,18,18,18,18,841,842,18,18,18,18,18,18,841,842,18,18,18,18,18,18,18,
19,66,125,125,125,125,125,125,125,125,125,125,125,125,125,125,66,33,546,18,841,842,18,18,18,18,18,18,18,18,18,18,18,841,842,18,18,18,18,18,18,18,841,842,18,18,18,18,18,18,18,18,18,18,18,18,18,18,18,18
</data>
 </layer>
 <layer id="2" name="Buildings" width="60" height="30">
  <data encoding="csv">
0,0,0,0,0,0,0,0,0,0,0,0,0,0,0,0,0,0,0,0,0,0,0,0,72,52,1827,685,685,685,178,686,686,686,0,0,0,52,0,91,0,22,0,0,0,0,0,0,0,0,0,0,0,0,0,0,0,0,0,0,
0,0,0,0,0,0,0,0,0,0,0,0,0,0,0,0,0,0,0,0,0,0,0,0,88,0,52,0,0,0,0,0,0,0,569,570,571,0,52,75,0,38,0,0,0,0,0,0,0,0,0,0,0,0,0,0,0,0,0,0,
0,0,0,0,0,0,0,0,0,0,0,0,0,0,0,0,0,0,0,0,4,5,0,0,72,52,0,0,0,0,0,0,0,0,0,0,0,0,0,91,0,0,0,0,0,0,0,0,0,0,0,0,0,0,0,0,0,0,0,0,
0,0,0,0,0,0,0,0,0,0,0,0,0,0,0,0,0,0,0,0,20,21,0,0,88,0,0,0,0,0,0,0,0,0,0,0,0,0,1569,54,0,0,0,0,0,0,0,0,0,0,0,0,102,85,86,85,86,101,0,0,
0,0,0,0,0,0,0,0,0,0,0,0,0,0,0,0,0,0,0,0,0,0,0,0,72,0,0,0,0,0,0,0,0,0,1176,0,0,0,0,0,70,0,0,0,0,0,0,0,0,0,0,0,72,0,0,52,0,75,0,0,
0,0,0,0,0,0,0,0,0,0,0,0,0,0,0,0,0,0,0,0,0,0,0,739,88,569,570,571,0,0,0,0,0,1827,0,0,0,0,0,0,0,70,0,0,0,0,0,0,0,0,0,0,72,0,0,0,0,14,0,0,
0,0,0,0,0,0,0,0,0,0,0,0,0,0,0,0,0,0,0,0,0,0,0,100,0,1176,0,0,0,0,0,0,0,1802,1569,653,654,0,0,0,0,52,71,101,0,0,0,0,0,0,0,0,88,0,52,0,812,91,0,0,
0,0,0,0,0,0,0,0,0,0,0,0,0,0,0,0,0,0,0,0,0,0,100,0,1569,0,0,0,1176,0,0,0,0,411,249,685,686,0,0,0,728,0,0,84,101,0,0,0,0,0,0,0,104,52,0,52,0,107,0,0,
0,0,0,0,0,0,0,0,0,0,0,0,0,0,0,0,0,0,0,0,0,102,87,0,0,0,0,1852,1827,1536,1537,1538,0,1176,0,0,0,0,0,0,0,3437,689,690,84,101,0,0,0,0,0,0,120,103,0,0,41,123,739,0,
0,0,0,0,0,0,0,0,0,0,0,0,0,0,0,0,0,0,0,0,102,87,728,0,0,1176,0,52,0,1542,0,1549,1538,0,1687,253,0,0,0,0,0,1802,0,0,0,75,0,0,0,188,0,0,136,119,121,122,57,139,0,0,
0,0,0,0,0,0,0,0,0,0,0,0,0,0,0,0,0,0,0,102,87,0,0,0,0,1687,0,0,1536,1548,0,0,1549,1537,1538,52,411,0,0,0,0,0,0,0,0,91,0,0,0,204,0,0,152,135,137,138,73,155,0,0,
0,0,0,0,0,0,0,0,0,0,0,0,0,0,0,0,0,0,0,72,0,0,0,0,0,0,1536,1537,1548,0,0,0,0,0,1549,1537,1538,1569,0,0,0,0,0,0,0,75,0,0,0,220,0,739,168,151,153,154,89,171,0,0,
0,0,0,0,0,0,0,0,0,0,0,0,0,0,0,0,0,0,0,88,0,0,0,0,0,0,1539,0,0,0,0,0,0,0,0,0,1541,0,0,0,0,0,0,0,0,91,0,0,0,0,0,0,0,167,169,170,105,0,0,0,
0,0,0,0,0,0,0,0,0,0,0,0,0,0,0,0,0,0,739,72,0,3437,0,0,0,0,1545,0,0,0,0,0,0,0,0,0,1544,569,570,571,0,0,0,1827,0,107,0,4,5,0,0,0,0,0,0,0,0,0,0,0,
0,0,0,0,0,0,0,0,0,0,0,0,0,0,0,0,0,0,0,88,0,0,116,0,0,0,0,1550,0,1546,1546,1546,0,0,0,0,1549,1538,0,0,0,0,52,11,12,123,0,20,21,0,0,0,0,0,0,0,0,0,0,0,
0,0,0,0,0,0,0,0,0,0,0,0,0,0,0,0,0,0,0,72,689,690,0,0,0,0,0,1545,1552,0,0,0,1550,0,0,0,0,1541,0,0,0,0,0,27,28,139,0,0,0,0,0,0,0,0,0,0,0,0,0,0,
0,0,0,0,0,0,0,0,0,0,0,0,0,0,0,0,0,0,0,88,116,52,1802,0,0,0,0,116,0,0,1536,0,1548,0,0,0,0,1544,1852,1176,0,0,0,43,44,155,0,0,0,0,0,0,0,0,0,0,0,0,0,0,
0,0,0,0,0,0,0,0,0,0,0,0,0,0,0,0,0,0,0,104,0,0,3537,0,0,0,0,52,0,0,1539,0,0,0,0,0,0,1547,0,0,0,0,0,59,60,171,0,0,0,0,0,0,0,0,0,0,0,0,0,0,
0,0,0,0,0,132,0,728,0,0,0,0,0,0,0,0,0,0,0,120,118,103,0,1852,0,0,178,0,0,52,1545,1546,1546,1546,1546,1546,1552,728,0,0,0,0,0,75,739,0,0,0,0,0,0,0,0,0,0,0,0,0,0,0,
0,0,0,0,235,148,739,0,149,0,178,0,0,0,0,0,0,0,0,136,134,119,7,8,0,0,0,52,0,0,0,0,1176,0,0,3437,0,0,0,0,0,1569,0,91,0,0,0,0,0,0,0,0,0,0,0,0,0,0,0,0,
0,0,0,0,251,1536,1537,1537,1537,1537,1538,739,132,0,0,0,0,0,0,152,150,135,23,103,1569,0,0,0,2443,2444,52,0,0,0,0,0,0,0,0,0,0,52,0,107,0,0,0,0,0,0,0,0,0,0,0,0,0,0,0,0,
0,0,0,178,1536,1548,0,0,0,0,1549,1538,148,0,0,0,0,0,0,168,166,151,39,119,118,1827,0,0,0,0,0,0,0,0,0,0,0,0,0,1176,0,41,58,123,0,0,0,0,0,0,0,0,0,0,0,0,0,0,0,0,
0,0,0,1536,1548,0,0,1546,1546,0,0,1549,1538,0,0,0,0,0,0,0,0,167,55,135,134,103,0,0,0,0,1569,0,0,0,0,0,1827,689,690,58,121,57,74,139,0,0,0,0,0,0,0,0,0,0,0,0,0,0,0,0,
0,0,0,1539,0,0,1552,0,0,1551,0,0,1541,0,0,0,0,0,6,0,0,0,0,151,150,119,118,103,0,52,0,569,570,571,1569,0,0,41,58,74,137,73,90,155,0,0,0,0,0,0,0,0,0,0,0,0,0,0,0,0,
0,0,0,1539,0,1552,52,0,1091,0,1551,0,1541,0,0,0,0,0,22,0,0,0,739,167,166,135,134,119,121,122,121,122,121,122,121,122,122,57,74,90,153,89,106,171,0,0,0,0,0,0,0,0,0,0,0,0,0,0,0,0,
0,178,252,1542,1553,0,0,52,0,0,0,1550,1544,0,178,0,0,0,38,0,0,0,0,739,0,151,150,135,137,138,137,138,137,138,137,138,138,73,90,106,169,105,0,0,0,0,0,0,0,0,0,0,0,0,0,0,0,0,0,0,
0,0,132,1542,1549,1538,0,0,0,0,1536,1548,1544,252,0,0,0,0,0,0,0,0,0,0,0,167,166,151,153,154,153,154,153,154,153,154,154,89,106,171,0,739,0,0,0,188,0,0,0,0,0,0,0,0,0,0,0,0,0,0,
0,0,148,1542,0,1549,1537,1537,1537,1537,1548,0,1549,1538,0,149,0,0,0,4,5,0,0,0,0,0,0,167,169,170,169,170,169,170,169,170,170,105,0,0,0,0,0,0,0,204,0,0,0,0,0,0,0,0,0,0,0,0,0,0,
0,0,1536,1548,0,0,0,0,0,0,0,0,0,1549,1538,0,149,0,0,20,21,0,0,0,0,0,0,0,0,0,0,0,0,0,0,0,0,0,739,0,0,0,0,0,0,220,0,0,0,0,0,0,0,0,0,0,0,0,0,0,
0,0,1539,0,0,0,0,0,0,0,0,0,0,0,1549,1538,0,0,0,0,0,0,0,0,0,0,0,0,0,0,0,0,0,0,0,0,0,0,0,0,0,0,0,0,0,0,0,0,0,0,0,0,0,0,0,0,0,0,0,0
</data>
 </layer>
 <layer id="3" name="Front" width="60" height="30">
  <data encoding="csv">
0,0,0,0,0,0,0,0,0,0,0,0,0,0,0,0,0,0,0,0,0,0,0,0,0,0,0,0,0,0,0,0,0,0,0,0,0,0,0,0,0,0,0,0,0,0,0,0,0,0,0,0,0,0,0,0,0,0,0,0,
0,0,0,0,0,0,0,0,0,0,0,0,0,0,0,0,0,0,0,0,0,0,0,0,0,0,0,0,0,0,0,0,0,0,0,0,0,0,0,0,0,0,0,0,0,0,0,0,0,0,0,0,0,0,0,0,0,0,0,0,
0,0,0,0,0,0,0,0,0,0,0,0,0,0,0,0,0,0,0,0,0,0,0,0,0,0,0,0,0,0,0,0,0,0,0,0,0,0,1561,0,0,0,0,0,0,0,0,0,0,0,0,0,0,0,0,0,0,0,0,0,
0,0,0,0,0,0,0,0,0,0,0,0,0,0,0,0,0,0,0,0,0,0,0,0,0,0,0,0,0,0,0,0,0,0,1144,0,0,0,0,0,0,0,0,0,0,0,0,0,0,0,0,0,0,0,0,0,0,0,0,0,
0,0,0,0,0,0,0,0,0,0,0,0,0,0,0,0,0,0,0,0,0,0,0,0,0,0,0,0,0,0,0,0,0,0,0,0,0,0,0,0,0,0,0,0,0,0,0,0,0,0,0,0,0,0,0,0,0,0,0,0,
0,0,0,0,0,0,0,0,0,0,0,0,0,0,0,0,0,0,0,0,0,0,0,0,0,1144,0,0,0,0,0,0,0,0,1561,0,0,0,0,0,0,665,0,0,0,0,0,0,0,0,0,0,0,0,0,0,781,0,0,0,
0,0,0,0,0,0,0,0,0,0,0,0,0,0,0,0,0,0,0,0,0,0,0,0,1561,0,0,0,1144,0,0,0,0,379,233,0,0,0,0,0,0,0,0,0,0,0,0,0,0,0,0,0,0,0,0,0,0,0,0,0,
0,0,0,0,0,0,0,0,0,0,0,0,0,0,0,0,0,0,0,0,0,0,0,0,0,0,0,0,0,0,0,0,0,1144,0,0,0,0,0,0,0,0,0,0,0,0,0,0,0,0,0,0,0,0,0,0,0,0,0,0,
0,0,0,0,0,0,0,0,0,0,0,0,0,0,0,0,0,0,0,0,0,0,0,0,0,1144,0,0,0,0,0,0,0,0,0,237,0,0,0,0,0,0,0,0,0,0,0,0,0,0,0,0,0,0,0,0,0,0,0,0,
0,0,0,0,0,0,0,0,0,0,0,0,0,0,0,0,0,0,0,0,0,0,0,0,0,0,0,0,0,0,0,0,0,0,0,0,379,0,0,0,0,0,0,0,0,0,0,0,0,0,0,0,0,990,991,992,993,0,0,0,
0,0,0,0,0,0,0,0,0,0,0,0,0,0,0,0,0,0,0,0,0,0,0,0,0,0,0,0,0,0,0,0,0,0,0,0,0,1561,0,0,0,0,0,0,0,0,0,0,0,0,0,0,0,990,991,992,993,0,0,0,
0,0,0,0,0,0,0,0,0,0,0,0,0,0,0,0,0,0,0,0,0,0,0,0,0,0,0,0,0,0,0,0,0,0,0,0,0,0,0,0,0,0,0,0,0,0,0,0,0,0,0,0,0,990,991,992,993,0,0,0,
0,0,0,0,0,0,0,0,0,0,0,0,0,0,0,0,0,0,0,0,0,0,0,0,0,0,0,0,0,0,0,0,0,0,0,0,0,0,0,0,0,0,0,0,0,0,0,0,0,0,0,0,0,0,0,0,0,0,0,0,
0,0,0,0,0,0,0,0,0,0,0,0,0,0,0,0,0,0,0,0,0,0,0,0,0,0,0,0,0,0,0,0,0,0,0,0,0,0,0,0,0,0,0,0,0,0,0,0,0,0,0,0,0,0,0,0,0,0,0,0,
0,0,0,0,0,0,599,600,601,0,0,0,0,0,0,0,0,0,0,0,0,0,0,0,0,0,0,0,0,0,0,0,0,0,0,0,0,0,0,0,0,0,0,0,0,0,0,0,0,0,0,0,0,0,0,0,0,0,0,0,
0,0,0,0,0,0,631,632,633,113,114,115,0,0,0,0,0,0,0,0,0,0,0,0,0,0,0,0,0,0,0,0,0,0,0,0,0,0,0,1144,0,0,0,0,0,0,0,0,0,0,0,0,0,0,0,0,0,0,0,0,
0,0,0,0,0,0,663,664,665,129,130,131,0,0,0,0,0,0,0,0,0,0,0,0,0,0,0,0,0,0,0,0,0,0,0,0,0,0,0,0,0,0,0,0,0,0,0,0,0,0,0,0,0,0,0,0,0,0,0,0,
0,0,113,114,115,0,0,696,117,145,146,147,0,0,0,0,0,0,0,0,0,0,0,0,0,0,0,0,0,0,0,0,0,0,0,0,0,0,0,0,0,0,0,0,0,0,0,0,0,0,0,0,0,0,0,0,0,0,0,0,
0,0,129,130,131,0,0,0,133,0,162,0,0,0,0,0,0,0,0,0,0,0,0,0,0,0,0,0,0,0,0,0,1144,0,0,0,0,0,0,0,0,1561,0,0,0,0,0,0,0,0,0,0,0,0,0,0,0,0,0,0,
0,0,145,146,147,0,0,0,0,0,0,0,0,0,0,0,0,0,0,0,0,0,0,0,1561,0,0,0,2418,2419,0,0,0,0,0,0,0,0,0,0,0,0,0,0,0,0,0,0,0,0,0,0,0,0,0,0,0,0,0,0,
0,0,0,162,0,0,0,0,0,0,0,0,0,0,0,0,0,0,0,0,0,0,0,0,0,0,0,0,0,0,0,0,0,0,0,0,0,0,0,1144,0,0,0,0,0,0,0,0,0,0,0,0,0,0,0,0,0,0,0,0,
113,114,115,0,0,0,0,0,0,0,0,0,0,113,114,115,0,0,0,0,0,0,120,0,104,0,0,0,0,0,1561,0,0,0,0,0,0,0,0,0,0,0,0,0,0,0,0,0,0,0,0,0,0,0,0,0,0,0,0,0,
129,130,131,0,0,0,0,0,0,0,0,0,0,129,130,131,0,0,0,0,0,0,136,0,120,0,0,0,0,0,0,0,0,0,1561,0,0,0,0,107,0,0,0,0,0,0,0,0,0,0,0,0,0,0,0,0,0,0,0,0,
145,146,147,0,0,0,0,0,1059,0,0,0,0,145,146,147,0,0,0,0,0,0,152,0,136,0,0,0,0,0,0,0,0,0,0,0,0,0,0,123,0,0,0,0,0,0,0,0,0,0,0,0,0,0,0,0,0,0,0,0,
0,162,236,0,0,0,0,0,0,0,0,0,0,0,162,0,0,0,0,0,0,0,0,0,152,0,0,0,990,991,992,993,0,990,991,992,993,0,0,139,0,0,0,0,0,0,0,0,0,0,0,0,0,0,0,0,0,0,0,0,
0,0,0,0,0,0,0,0,0,0,0,0,0,236,0,117,0,0,0,0,0,0,0,0,168,0,0,0,990,991,992,993,0,990,991,992,993,0,0,155,0,0,0,0,0,0,0,0,0,0,0,0,0,0,0,0,0,0,0,0,
0,0,0,0,0,0,0,0,0,0,0,0,0,0,0,133,117,0,0,0,0,0,0,0,0,0,0,0,0,0,0,0,0,0,0,0,0,0,0,171,0,0,0,0,0,0,0,0,0,0,0,0,0,0,0,0,0,0,0,0,
0,0,0,0,0,0,0,0,0,0,0,0,0,0,0,0,133,0,0,0,0,0,0,0,0,0,0,0,0,0,0,0,0,0,0,0,0,0,0,0,0,0,0,0,0,0,0,0,0,0,0,0,0,0,0,0,0,0,0,0,
0,0,0,0,0,0,0,0,0,0,0,0,0,0,0,0,0,0,0,0,0,0,0,0,0,0,0,0,0,0,0,0,0,0,0,0,0,0,0,0,0,0,0,0,0,0,0,0,0,0,0,0,0,0,0,0,0,0,0,0,
0,0,0,0,0,0,0,0,0,0,0,0,0,0,0,0,0,0,0,0,0,0,0,0,0,0,0,0,0,0,0,0,0,0,0,0,0,0,0,0,0,0,0,0,0,0,0,0,0,0,0,0,0,0,0,0,0,0,0,0
</data>
 </layer>
 <layer id="9" name="AlwaysFront" width="60" height="30">
  <data encoding="csv">
0,0,0,0,0,0,0,0,0,0,0,0,0,0,0,0,0,0,0,0,0,0,0,0,0,0,0,0,0,0,0,0,0,0,537,538,539,0,0,0,0,0,0,0,0,0,0,0,0,0,0,0,0,0,0,0,0,0,0,0,
0,0,0,0,0,0,0,0,0,0,0,0,0,0,0,0,0,0,0,0,0,0,0,0,0,0,0,0,0,0,0,0,0,0,0,0,0,0,0,0,0,0,0,0,0,0,0,0,0,0,0,0,0,0,0,0,0,0,0,0,
0,0,0,0,0,0,0,0,0,0,0,0,0,0,0,0,0,0,0,0,0,0,0,0,0,473,474,475,0,0,0,0,0,0,0,0,0,0,0,0,0,0,0,0,0,0,0,0,0,0,0,0,0,0,0,0,0,0,0,0,
0,0,0,0,0,0,0,0,0,0,0,0,0,0,0,0,0,0,0,0,0,0,0,0,0,505,506,507,0,0,0,0,0,0,0,0,0,0,0,599,600,601,0,0,0,0,0,0,0,0,0,0,0,0,0,0,0,0,0,0,
0,0,0,0,0,0,0,0,0,0,0,0,0,0,0,0,0,0,0,0,0,0,0,0,0,537,538,539,0,0,0,0,0,0,0,0,0,0,0,631,632,633,0,0,0,0,0,0,0,0,0,0,0,0,0,0,0,0,0,0,
0,0,0,0,0,0,0,0,0,0,0,0,0,0,0,0,0,0,0,0,0,599,600,601,0,0,0,0,0,0,0,0,0,0,0,621,622,0,0,663,664,665,0,0,0,0,0,0,0,0,0,0,0,0,0,0,0,0,0,0,
0,0,0,0,0,0,0,0,0,0,0,0,0,0,0,0,0,0,0,0,0,631,632,633,0,0,0,0,0,0,0,0,0,0,0,0,0,0,0,695,696,697,625,626,0,0,0,0,0,0,0,0,0,0,0,0,0,0,0,0,
0,0,0,0,0,0,0,0,0,0,0,0,0,0,0,0,0,0,0,0,0,663,664,665,0,0,0,0,0,0,0,0,0,0,0,0,0,0,0,0,0,3412,657,658,0,0,0,0,0,0,0,0,0,0,0,0,0,0,0,0,
0,0,0,0,0,0,0,0,0,0,0,0,0,0,0,0,0,0,0,0,0,695,696,697,0,0,0,0,0,0,0,0,0,0,0,0,0,0,0,0,0,0,0,0,0,0,0,0,0,0,0,0,0,0,0,0,0,0,0,0,
0,0,0,0,0,0,0,0,0,0,0,0,0,0,0,0,0,0,0,0,0,0,0,0,0,0,0,0,0,0,0,0,0,0,0,0,0,0,0,0,0,0,0,0,0,0,0,0,0,0,0,0,0,0,0,0,0,0,0,0,
0,0,0,0,0,0,0,0,0,0,0,0,0,0,0,0,0,0,0,0,0,0,0,0,0,0,0,0,0,0,0,0,0,0,0,0,0,473,474,475,0,0,0,0,0,0,0,0,0,0,0,0,0,0,0,0,0,0,0,0,
0,0,0,0,0,0,0,0,0,0,0,0,0,0,0,0,0,0,0,0,0,0,0,0,0,0,0,0,0,0,0,0,0,0,0,0,0,505,506,507,0,0,0,0,0,0,0,0,0,0,0,0,0,0,0,0,0,0,0,0,
0,0,0,0,0,0,0,0,0,0,0,0,0,0,0,0,0,0,0,0,0,3412,0,0,0,0,0,0,0,0,0,0,0,0,0,0,0,537,538,539,0,0,0,0,0,0,0,0,0,0,0,0,0,0,0,0,0,0,0,0,
0,0,0,0,0,0,0,0,0,0,0,0,0,0,0,0,0,0,0,0,625,626,0,0,0,0,0,0,0,0,0,0,0,0,0,0,0,0,0,0,0,0,0,0,0,0,0,0,0,0,0,0,0,0,0,0,0,0,0,0,
0,0,0,0,0,0,0,0,0,0,0,0,0,0,0,0,0,0,0,0,657,658,0,0,0,113,114,115,0,0,0,0,0,0,0,0,599,600,601,0,0,0,0,0,0,0,0,0,0,0,0,0,0,0,0,0,0,0,0,0,
0,0,0,0,0,0,0,0,0,0,0,0,0,0,0,0,0,0,0,0,0,0,0,0,0,129,130,131,0,0,0,0,0,0,0,0,631,632,633,0,0,0,0,0,0,0,0,0,0,0,0,0,0,0,0,0,0,0,0,0,
0,0,0,0,0,0,0,0,0,0,0,0,0,0,0,0,0,0,0,0,0,0,0,0,0,145,146,147,0,0,0,0,0,0,0,0,663,664,665,0,0,0,0,0,0,0,0,0,0,0,0,0,0,0,0,0,0,0,0,0,
0,0,0,0,0,0,0,0,0,0,0,0,0,0,0,0,0,0,0,0,0,0,0,0,0,0,162,0,0,0,0,0,0,0,0,0,695,696,697,0,0,0,0,0,0,0,0,0,0,0,0,0,0,0,0,0,0,0,0,0,
0,0,0,0,0,0,0,0,0,0,0,0,0,0,0,0,0,0,0,0,0,0,0,0,0,0,0,0,0,0,0,0,0,0,0,3412,0,0,0,0,0,0,0,0,0,0,0,0,0,0,0,0,0,0,0,0,0,0,0,0,
0,0,0,0,0,0,0,0,0,0,0,0,0,0,0,0,0,0,0,0,0,0,0,0,0,0,0,0,0,0,0,0,0,0,0,0,0,0,0,0,0,0,0,0,0,0,0,0,0,0,0,0,0,0,0,0,0,0,0,0,
0,0,0,0,0,0,0,0,0,0,0,0,0,0,0,0,0,0,0,0,0,0,0,0,0,695,0,697,0,0,0,473,474,475,0,0,0,625,626,0,0,0,0,0,0,0,0,0,0,0,0,0,0,0,0,0,0,0,0,0,
0,0,0,0,0,0,0,0,0,0,0,0,0,0,0,0,0,0,0,0,0,0,0,0,0,0,0,0,0,0,0,505,506,507,0,0,0,657,658,0,0,0,0,0,0,0,0,0,0,0,0,0,0,0,0,0,0,0,0,0,
0,0,0,0,0,0,0,0,0,0,0,0,0,0,0,0,0,0,0,0,0,0,0,0,0,0,0,0,0,0,0,537,538,539,0,0,0,0,0,0,0,0,0,0,0,0,0,0,0,0,0,0,0,0,0,0,0,0,0,0,
0,0,0,0,0,0,0,0,0,0,0,0,0,0,0,0,0,0,0,0,0,0,0,0,0,0,0,0,0,0,0,0,0,0,0,0,0,0,0,0,0,0,0,0,0,0,0,0,0,0,0,0,0,0,0,0,0,0,0,0,
0,0,0,0,0,0,0,0,0,0,0,0,0,0,0,0,0,0,0,0,0,0,0,0,0,0,0,0,0,0,0,0,0,0,0,0,0,0,0,0,0,0,0,0,0,0,0,0,0,0,0,0,0,0,0,0,0,0,0,0,
0,0,0,0,0,0,0,0,0,0,0,0,0,0,0,0,0,0,0,0,0,0,0,0,0,0,0,0,0,0,0,0,0,0,0,0,0,0,0,0,0,0,0,0,0,0,0,0,0,0,0,0,0,0,0,0,0,0,0,0,
0,0,0,0,0,0,0,0,0,0,0,0,0,0,0,0,0,0,0,0,0,0,0,0,0,0,0,0,0,0,0,0,0,0,0,0,0,0,0,0,0,0,0,0,0,0,0,0,0,0,0,0,0,0,0,0,0,0,0,0,
0,0,0,0,0,0,0,0,0,0,0,0,0,0,0,0,0,0,0,0,0,0,0,0,0,0,0,0,0,0,0,0,0,0,0,0,0,0,0,0,0,0,0,0,0,0,0,0,0,0,0,0,0,0,0,0,0,0,0,0,
0,0,0,0,0,0,0,0,0,0,0,0,0,0,0,0,0,0,0,0,0,0,0,0,0,0,0,0,0,0,0,0,0,0,0,0,0,0,0,0,0,0,0,0,0,0,0,0,0,0,0,0,0,0,0,0,0,0,0,0,
0,0,0,0,0,0,0,0,0,0,0,0,0,0,0,0,0,0,0,0,0,0,0,0,0,0,0,0,0,0,0,0,0,0,0,0,0,0,0,0,0,0,0,0,0,0,0,0,0,0,0,0,0,0,0,0,0,0,0,0
</data>
 </layer>
 <layer id="8" name="Paths" width="60" height="30">
  <data encoding="csv">
0,0,0,0,0,0,0,0,0,0,0,0,0,0,0,0,0,0,0,0,0,0,0,0,0,0,0,0,0,0,0,0,0,0,0,0,0,0,0,0,0,0,0,0,0,0,0,0,0,0,0,0,0,0,0,0,0,0,0,0,
0,0,0,0,0,0,0,0,0,0,0,0,0,0,0,0,0,0,0,0,0,0,0,0,0,0,0,0,0,0,0,0,0,0,0,0,0,0,0,0,0,0,0,0,0,0,0,0,0,0,0,0,0,0,0,0,0,0,0,0,
0,0,0,0,0,0,0,0,0,0,0,0,0,0,0,0,0,0,0,0,0,0,0,0,0,0,0,0,0,0,0,0,0,0,0,0,0,0,0,0,0,0,0,0,0,0,0,0,0,0,0,0,0,0,0,0,0,0,0,0,
0,0,0,0,0,0,0,0,0,0,0,0,0,0,0,0,0,0,0,0,0,0,0,0,0,0,0,0,0,0,0,0,0,0,0,0,1465,0,0,0,0,0,0,0,0,0,0,0,0,0,0,0,0,0,0,0,0,0,0,0,
0,0,0,0,0,0,0,0,0,0,0,0,0,0,0,0,0,0,0,0,0,0,0,0,0,0,0,0,0,0,0,0,0,0,0,0,0,0,0,0,0,0,0,0,0,0,0,0,0,0,0,0,0,0,0,0,0,0,0,0,
0,0,0,0,0,0,0,0,0,0,0,0,0,0,0,0,0,0,0,0,0,0,0,0,0,0,0,0,0,0,0,0,0,0,0,0,0,0,0,0,0,0,0,0,0,0,0,0,0,0,0,0,0,0,0,0,0,0,0,0,
0,0,0,0,0,0,0,0,0,0,0,0,0,0,0,0,0,0,0,0,0,0,0,0,0,0,0,0,0,0,0,0,0,0,0,0,0,0,0,0,0,0,0,0,0,0,0,0,0,0,0,0,0,0,0,0,0,0,0,0,
0,0,0,0,0,0,0,0,0,0,0,0,0,0,0,0,0,0,0,0,0,0,0,0,0,0,0,0,0,0,0,0,0,0,0,0,0,0,0,0,0,0,0,0,0,0,0,0,0,0,0,0,0,0,1465,0,0,0,0,0,
0,0,0,0,0,0,0,0,0,0,0,0,0,0,0,0,0,0,0,0,0,0,0,0,0,0,0,0,0,0,0,0,0,0,0,0,0,0,0,0,0,0,0,0,0,0,0,0,0,0,0,0,0,0,0,0,0,0,0,0,
0,0,0,0,0,0,0,0,0,0,0,0,0,0,0,0,0,0,0,0,0,0,0,0,0,0,0,0,0,0,0,0,0,0,0,0,0,0,0,0,0,0,0,0,0,0,0,0,0,0,0,0,0,0,0,0,0,0,0,0,
0,0,0,0,0,0,0,0,0,0,0,0,0,0,0,0,0,0,0,0,0,0,0,0,0,0,0,0,0,0,0,0,0,0,0,0,0,0,0,0,0,0,0,0,0,0,0,0,0,0,0,0,0,0,0,0,0,0,0,0,
0,0,0,0,0,0,0,0,0,0,0,0,0,0,0,0,0,0,0,0,0,0,0,0,0,0,0,0,0,0,0,0,0,0,0,0,0,0,0,0,0,0,0,0,0,0,0,0,0,0,0,0,0,0,0,0,0,0,0,0,
0,0,0,0,0,0,0,0,0,0,0,0,0,0,0,0,0,0,0,0,0,0,1465,0,0,0,0,0,0,0,0,0,0,0,0,0,0,0,0,0,0,0,0,0,0,0,0,0,0,0,0,0,0,0,0,0,0,0,0,0,
0,0,0,0,0,0,0,0,0,0,0,0,0,0,0,0,0,0,0,0,0,0,0,0,0,0,0,0,0,0,0,0,0,0,0,0,0,0,0,0,0,0,0,0,0,0,0,0,0,0,0,0,0,0,0,0,0,0,0,0,
0,0,0,0,0,0,0,0,0,0,0,0,0,0,0,0,0,0,0,0,0,0,0,0,0,0,0,0,0,0,0,0,0,0,0,0,0,0,0,0,0,0,0,0,0,0,0,0,0,0,0,0,0,0,0,0,0,0,0,0,
0,0,0,0,0,0,0,0,0,0,0,0,0,0,0,0,0,0,0,0,0,0,0,0,0,0,0,0,0,0,0,0,0,0,0,0,0,0,0,0,0,0,0,0,0,0,0,0,0,0,0,0,0,0,0,0,0,0,0,0,
0,0,0,0,0,0,0,0,0,0,0,0,0,0,0,0,0,0,0,0,0,0,0,0,0,0,0,0,0,0,0,0,0,0,0,0,0,0,0,0,0,0,0,0,0,0,0,0,0,0,0,0,0,0,0,0,0,0,0,0,
0,0,0,0,0,0,0,0,0,0,0,0,0,0,0,0,0,0,0,0,0,0,0,0,0,0,0,0,0,0,0,0,0,0,0,0,0,0,0,0,0,0,0,0,0,0,0,0,0,0,0,0,0,0,0,0,0,0,0,0,
0,0,0,0,0,0,0,0,0,0,0,0,0,0,0,0,0,0,0,0,0,0,0,0,0,0,0,0,0,0,0,0,0,0,0,0,0,0,0,0,0,0,0,0,0,0,0,0,0,0,0,0,0,0,0,0,0,0,0,0,
0,0,0,0,0,0,0,0,0,0,0,0,0,0,0,0,0,0,0,0,0,0,0,0,0,0,0,0,0,0,0,0,0,0,0,0,0,0,0,0,0,0,0,0,0,0,0,0,0,0,0,0,0,0,0,0,0,0,0,0,
0,0,0,0,0,0,0,0,0,0,0,0,0,0,0,0,0,0,0,0,0,0,0,0,0,0,0,0,0,0,0,0,0,0,0,0,0,0,0,0,0,0,0,0,0,0,0,0,0,0,0,0,0,0,0,0,0,0,0,0,
0,0,0,0,0,0,0,0,0,0,0,0,0,0,0,0,0,0,0,0,0,0,0,0,0,0,0,0,0,0,0,0,0,0,0,0,0,0,0,0,0,0,0,0,0,0,0,0,0,0,0,0,0,0,0,0,0,0,0,0,
0,0,0,0,0,0,0,0,0,0,0,0,0,0,0,0,0,0,0,0,0,0,0,0,0,0,0,0,0,0,0,0,0,0,0,0,0,0,0,0,0,0,0,0,0,0,0,0,0,0,0,0,0,0,0,0,0,0,0,0,
0,0,0,0,0,0,0,0,0,0,0,0,0,0,0,0,0,0,0,0,0,0,0,0,0,0,0,0,0,0,0,0,0,0,0,0,0,0,0,0,0,0,0,0,0,0,0,0,0,0,0,0,0,0,0,0,0,0,0,0,
0,0,0,0,0,0,0,1465,0,0,0,0,0,0,0,0,0,0,0,0,0,0,0,0,0,0,0,0,0,0,0,0,0,0,0,0,0,0,0,0,0,0,0,0,0,0,0,0,0,0,0,0,0,0,0,0,0,0,0,0,
0,0,0,0,0,0,0,0,0,0,0,0,0,0,0,0,0,0,0,0,0,0,0,0,0,0,0,0,0,0,0,0,0,0,0,0,0,0,0,0,0,0,0,0,0,0,0,0,0,0,0,0,0,0,0,0,0,0,0,0,
0,0,0,0,0,0,0,0,0,0,0,0,0,0,0,0,0,0,0,0,0,0,0,0,0,0,0,0,0,0,0,0,0,0,0,0,0,0,0,0,0,0,0,0,0,0,0,0,0,0,0,0,0,0,0,0,0,0,0,0,
0,0,0,0,0,0,0,0,0,0,0,0,0,0,0,0,0,0,0,0,0,0,0,0,0,0,0,0,0,0,0,0,0,0,0,0,0,0,0,0,0,0,0,0,0,0,0,0,0,0,0,0,0,0,0,0,0,0,0,0,
0,0,0,0,0,0,0,0,0,0,0,0,0,0,0,0,0,0,0,0,0,0,0,0,0,0,0,0,0,0,0,0,0,0,0,0,0,0,0,0,0,0,0,0,0,0,0,0,0,0,0,0,0,0,0,0,0,0,0,0,
0,0,0,0,0,0,0,0,0,0,0,0,0,0,0,0,0,0,0,0,0,0,0,0,0,0,0,0,0,0,0,0,0,0,0,0,0,0,0,0,0,0,0,0,0,0,0,0,0,0,0,0,0,0,0,0,0,0,0,0
</data>
 </layer>
 <objectgroup id="4" name="Back">
  <object id="12" name="TileData" x="112" y="384" width="16" height="16">
   <properties>
    <property name="TouchAction" value="MagicWarp Canyon_flood 38 21 "/>
   </properties>
  </object>
  <object id="13" name="TileData" x="864" y="112" width="16" height="16">
   <properties>
    <property name="TouchAction" value="MagicWarp Canyon_final 38 21 "/>
   </properties>
  </object>
  <object id="15" name="TileData" x="496" y="256" width="16" height="16">
   <properties>
    <property name="TouchAction" value="PoolEntrance"/>
   </properties>
  </object>
  <object id="16" name="TileData" x="448" y="304" width="16" height="16">
   <properties>
    <property name="TouchAction" value="ChangeIntoSwimsuit"/>
   </properties>
  </object>
  <object id="17" name="TileData" x="464" y="304" width="16" height="16">
   <properties>
    <property name="TouchAction" value="ChangeOutOfSwimsuit"/>
   </properties>
  </object>
  <object id="18" name="TileData" x="576" y="48" width="16" height="16">
   <properties>
    <property name="TouchAction" value="MagicWarp Canyon_end2 38 21 "/>
   </properties>
  </object>
 </objectgroup>
 <objectgroup id="5" name="Buildings">
  <object id="19" name="TileData" x="400" y="96" width="16" height="16">
   <properties>
    <property name="Action" value="playSound Ostrich"/>
   </properties>
  </object>
  <object id="20" name="TileData" x="448" y="112" width="16" height="16">
   <properties>
    <property name="Action" value="playSound Ostrich"/>
   </properties>
  </object>
  <object id="21" name="TileData" x="400" y="144" width="16" height="16">
   <properties>
    <property name="Action" value="playSound Ostrich"/>
   </properties>
  </object>
  <object id="25" name="TileData" x="512" y="304" width="16" height="16">
   <properties>
    <property name="Action" value="playSound Ostrich"/>
   </properties>
  </object>
  <object id="27" name="TileData" x="624" y="336" width="16" height="16">
   <properties>
    <property name="Action" value="playSound Ostrich"/>
   </properties>
  </object>
  <object id="29" name="TileData" x="624" y="256" width="16" height="16">
   <properties>
    <property name="Action" value="playSound Ostrich"/>
   </properties>
  </object>
  <object id="32" name="TileData" x="544" y="64" width="16" height="16">
   <properties>
    <property name="Action" value="playSound Ostrich"/>
   </properties>
  </object>
  <object id="33" name="TileData" x="528" y="128" width="16" height="16">
   <properties>
    <property name="Action" value="OpenShop FlamShop none"/>
   </properties>
  </object>
 </objectgroup>
 <objectgroup id="6" name="Front"/>
</map>
