<?xml version="1.0" encoding="UTF-8"?>
<map version="1.10" tiledversion="1.11.0" orientation="orthogonal" renderorder="right-down" compressionlevel="0" width="52" height="60" tilewidth="16" tileheight="16" infinite="0" nextlayerid="11" nextobjectid="47">
 <properties>
  <property name="AmbientLight" value="300 300 300"/>
  <property name="LocationContext" value="Desert"/>
  <property name="Outdoors" value="T"/>
  <property name="Summer_Objects" value="T"/>
  <property name="forceLoadPathLayerLights" value="t"/>
 </properties>
 <tileset firstgid="1" name="desert-extended" tilewidth="16" tileheight="16" tilecount="33" columns="3">
  <image source="DesertTiles_Extended" width="48" height="176"/>
 </tileset>
 <tileset firstgid="34" name="desert-new" tilewidth="16" tileheight="16" tilecount="368" columns="16">
  <image source="DesertTiles" width="256" height="368"/>
  <tile id="0">
   <properties>
    <property name="Diggable" value="T"/>
    <property name="Type" value="Dirt"/>
   </properties>
  </tile>
  <tile id="1">
   <properties>
    <property name="Diggable" value="T"/>
   </properties>
  </tile>
  <tile id="2">
   <properties>
    <property name="Diggable" value="T"/>
   </properties>
  </tile>
  <tile id="16">
   <properties>
    <property name="Diggable" value="T"/>
   </properties>
  </tile>
  <tile id="17">
   <properties>
    <property name="Diggable" value="T"/>
    <property name="Type" value="Dirt"/>
   </properties>
  </tile>
  <tile id="18">
   <properties>
    <property name="Diggable" value="T"/>
   </properties>
  </tile>
  <tile id="32">
   <properties>
    <property name="Diggable" value="T"/>
   </properties>
  </tile>
  <tile id="33">
   <properties>
    <property name="Diggable" value="T"/>
   </properties>
  </tile>
  <tile id="34">
   <properties>
    <property name="Diggable" value="T"/>
   </properties>
  </tile>
  <tile id="64">
   <properties>
    <property name="Type" value="Dirt"/>
   </properties>
  </tile>
  <tile id="65">
   <properties>
    <property name="Diggable" value="T"/>
    <property name="Spawnable" value="T"/>
    <property name="Type" value="Dirt"/>
   </properties>
  </tile>
  <tile id="66">
   <properties>
    <property name="Type" value="Dirt"/>
   </properties>
  </tile>
  <tile id="67">
   <properties>
    <property name="Diggable" value="T"/>
   </properties>
  </tile>
  <tile id="68">
   <properties>
    <property name="Diggable" value="T"/>
    <property name="Spawnable" value="T"/>
    <property name="Type" value="Dirt"/>
   </properties>
  </tile>
  <tile id="91">
   <properties>
    <property name="Watersdfg" value="T"/>
   </properties>
  </tile>
  <tile id="92">
   <properties>
    <property name="Watersdfg" value="T"/>
   </properties>
  </tile>
  <tile id="93">
   <properties>
    <property name="sdfg" value="T"/>
   </properties>
  </tile>
  <tile id="94">
   <properties>
    <property name="Water" value="T"/>
   </properties>
  </tile>
  <tile id="95">
   <properties>
    <property name="Water" value="T"/>
   </properties>
  </tile>
  <tile id="107">
   <properties>
    <property name="Water" value="T"/>
   </properties>
  </tile>
  <tile id="108">
   <properties>
    <property name="Water" value="T"/>
   </properties>
  </tile>
  <tile id="109">
   <properties>
    <property name="Water" value="T"/>
   </properties>
  </tile>
  <tile id="110">
   <properties>
    <property name="Water" value="T"/>
   </properties>
  </tile>
  <tile id="111">
   <properties>
    <property name="Water" value="T"/>
   </properties>
  </tile>
  <tile id="123">
   <properties>
    <property name="Water" value="T"/>
   </properties>
  </tile>
  <tile id="124">
   <properties>
    <property name="Water" value="T"/>
   </properties>
  </tile>
  <tile id="125">
   <properties>
    <property name="Water" value="T"/>
   </properties>
  </tile>
  <tile id="126">
   <properties>
    <property name="Water" value="T"/>
   </properties>
   <animation>
    <frame tileid="126" duration="900"/>
    <frame tileid="127" duration="900"/>
   </animation>
  </tile>
  <tile id="127">
   <properties>
    <property name="Water" value="T"/>
   </properties>
  </tile>
  <tile id="139">
   <properties>
    <property name="Water" value="T"/>
   </properties>
  </tile>
  <tile id="140">
   <properties>
    <property name="Water" value="T"/>
   </properties>
  </tile>
  <tile id="141">
   <properties>
    <property name="Water" value="T"/>
   </properties>
  </tile>
  <tile id="143">
   <properties>
    <property name="Type" value="Stone"/>
   </properties>
  </tile>
  <tile id="155">
   <properties>
    <property name="Water" value="T"/>
   </properties>
  </tile>
  <tile id="156">
   <properties>
    <property name="Water" value="T"/>
   </properties>
  </tile>
  <tile id="171">
   <properties>
    <property name="Water" value="T"/>
   </properties>
  </tile>
  <tile id="172">
   <properties>
    <property name="Water" value="T"/>
   </properties>
  </tile>
  <tile id="174">
   <properties>
    <property name="Type" value="Stone"/>
   </properties>
  </tile>
  <tile id="190">
   <properties>
    <property name="Type" value="Stone"/>
   </properties>
  </tile>
  <tile id="206">
   <properties>
    <property name="Type" value="Stone"/>
   </properties>
  </tile>
 </tileset>
 <tileset firstgid="402" name="paths" tilewidth="16" tileheight="16" tilecount="64" columns="4">
  <image source="paths" width="64" height="256"/>
 </tileset>
 <tileset firstgid="466" source="EmilyDreamscapeTiles.tsx"/>
 <tileset firstgid="562" source="desert_festival_tilesheet.tsx"/>
 <tileset firstgid="1650" source="paths.tsx"/>
 <tileset firstgid="1714" source="DesertTiles_Extended.tsx"/>
 <tileset firstgid="1747" source="DesertTiles.tsx"/>
 <tileset firstgid="2115" source="creosotecrop.tsx"/>
 <tileset firstgid="2131" source="summer_outdoorsTileSheet.tsx"/>
 <layer id="1" name="Back" width="52" height="60">
  <data encoding="csv">
1815,1815,99,99,1765,158,1871,1871,158,1871,1871,1871,1871,1871,1871,1871,1871,1871,1763,99,99,99,99,99,99,99,99,99,99,1815,1815,1815,1815,99,99,99,99,99,99,99,99,99,99,99,99,99,99,99,99,1815,1815,1815,
1815,1815,99,99,1765,158,1871,1871,1871,1871,1871,1871,1871,1871,1871,1871,1871,1871,1763,99,99,99,99,99,99,99,99,99,99,1815,99,1815,1815,99,99,99,99,99,99,99,99,99,99,99,99,99,99,99,1815,1815,1815,1815,
1815,1815,99,99,1765,99,1871,1873,1871,1871,1871,1871,1871,1871,1871,1871,1871,1871,1763,99,99,99,99,99,99,99,99,99,132,1815,1815,833,99,99,99,99,99,99,99,99,99,99,99,99,99,99,99,1815,1815,1815,1815,1815,
1815,1815,1764,1764,1764,1764,1764,1764,1764,1764,1764,1764,1764,1764,1764,1764,1764,1764,1764,1764,1764,1764,1764,1764,1764,1764,99,99,737,99,99,1815,99,736,99,99,99,99,99,99,99,99,99,99,99,99,99,1815,1815,1815,1815,1815,
1815,1815,1764,1764,1764,739,1782,1780,1780,1780,1780,1780,1780,1780,1780,1780,1780,1780,1780,1780,1780,1780,1780,1780,1780,1764,1764,1764,99,768,99,99,99,99,99,99,99,1764,1764,1764,1764,1764,1764,99,99,99,99,1815,1815,1815,1815,1815,
1815,737,1764,1764,740,1782,1781,1812,1812,99,1812,1812,1812,1812,1812,1812,1812,1812,1812,1812,1812,99,99,99,833,1779,42,1764,99,99,99,99,99,99,1764,1764,1764,803,836,1764,1764,835,804,1764,1764,99,99,1815,1815,1815,1815,1815,
1815,1815,1764,739,1764,1781,1812,1812,99,1812,806,1812,1812,774,1812,1812,99,99,99,99,0,99,99,99,99,769,1763,1764,99,99,99,99,99,99,1764,1755,1764,739,1764,99,1258,1764,740,1764,99,1258,1815,1815,1815,1815,1815,99,
1815,1815,1764,1782,1781,1812,1812,1812,738,1812,1812,1812,807,1812,1812,1812,99,99,1815,1815,1815,1815,1815,737,99,99,1779,1764,99,99,99,99,99,99,1764,1764,1764,1764,1764,1814,833,1764,1764,1764,99,1815,1815,1815,99,833,99,99,
1815,1815,1764,1765,1812,1812,1812,737,99,1812,1812,775,1812,1812,1812,1812,99,99,99,1815,1815,1815,1815,99,99,99,99,1779,1780,1780,1780,1780,1780,1780,1781,1779,1764,1764,1764,1815,1815,1764,1764,1764,99,1815,1815,1815,99,99,99,99,
1815,1815,1764,1765,1812,1812,1812,1812,801,1812,1812,1812,1812,1812,1799,1812,99,99,736,99,768,99,834,132,99,99,99,99,99,99,99,769,99,801,833,99,1763,1764,1764,1815,1814,1764,1764,1764,99,99,99,99,99,99,86,99,
1815,1815,1764,42,1749,132,1812,1812,1812,737,99,99,1812,1812,1812,1763,99,99,99,99,45,99,99,99,99,99,99,99,99,99,99,99,99,99,99,801,1779,836,1764,768,99,51,739,51,99,99,99,99,99,99,99,99,
1815,1815,1764,1764,1764,1749,70,1812,1845,1812,1812,1812,1812,1812,1783,1763,99,99,99,99,99,99,99,99,99,99,99,99,1815,1815,99,833,99,99,99,737,1814,50,51,99,99,51,740,51,99,99,99,99,99,99,99,99,
1815,1815,99,99,1764,1764,99,99,1799,1844,1812,1812,1845,1812,1799,1763,99,99,99,99,99,99,99,99,99,99,1815,1815,1815,1815,99,99,99,99,52,99,99,50,51,99,99,51,51,51,99,99,99,99,99,99,99,99,
1815,1815,99,99,744,99,1764,1749,1783,1799,1812,806,1812,1812,1812,1827,1780,1764,1764,1764,1764,1764,1764,1764,99,1815,99,1815,1815,833,99,99,99,99,52,1814,99,50,51,99,99,51,772,51,99,99,99,99,99,99,99,99,
1815,1815,99,99,834,99,1764,1764,1749,1812,1845,1843,1812,1812,1812,101,1812,1827,1780,1780,1780,1755,739,1764,99,1815,1815,1815,99,99,99,99,99,99,52,99,770,66,51,51,51,51,51,51,99,99,99,51,51,51,51,51,
1815,1815,99,1812,1812,102,1764,1755,1765,1812,1812,1845,1843,1812,1845,1812,1843,1812,1812,132,1799,1763,1764,1764,99,99,99,1815,99,99,99,99,99,99,51,1845,102,99,66,67,1644,67,67,51,51,51,51,1755,67,1782,1642,67,
1815,1812,99,738,102,102,1812,99,1764,1749,1812,1812,1845,1843,1844,1843,1845,1812,1812,1783,99,99,99,99,99,1815,1815,99,99,99,99,99,99,51,68,70,99,775,99,99,99,807,70,66,67,67,67,1780,1780,1781,99,99,
1815,1812,744,1812,102,1812,1812,1812,99,99,1812,1812,1812,1845,1845,1845,1812,1812,1799,99,99,99,99,99,1815,1815,1815,99,99,99,51,51,51,68,102,99,774,99,744,99,99,99,99,99,99,99,1747,1748,1748,1749,1812,1812,
1815,1812,99,99,99,99,99,1812,736,1765,70,101,1812,132,101,1812,1812,1812,70,1764,1814,99,99,1815,1815,1815,1815,99,833,736,51,1755,68,99,99,99,70,86,132,99,102,99,34,35,36,99,1779,1780,1780,1781,1812,1812,
1815,1812,99,99,834,99,99,99,99,1765,1812,132,1812,130,1812,101,1812,801,1747,1764,99,99,99,1815,1815,99,99,99,99,99,51,52,99,99,99,102,534,535,535,535,536,1812,1317,1318,1319,36,1812,1812,1812,1812,1812,1812,
1815,1815,99,1812,1812,1812,1815,1815,1815,1765,1812,70,101,1812,130,132,1812,1812,1763,1764,736,99,99,99,1815,99,99,86,99,99,51,52,99,99,1747,70,542,543,543,543,544,1812,1349,1350,1351,52,99,1812,1812,1812,1812,99,
1815,1815,99,1812,1812,1812,1812,1812,1815,1765,1812,101,1812,101,1812,1812,1812,1812,1763,1764,99,99,99,99,99,99,99,99,99,99,51,52,99,99,1763,86,542,543,543,543,544,1812,1381,1382,1383,68,1812,132,1812,1812,1812,1812,
1815,1815,99,99,99,1812,1812,1815,99,1812,1812,1812,132,806,1812,1812,834,1812,1763,1764,99,99,99,99,99,99,99,99,51,51,51,68,99,99,1763,70,550,551,551,551,552,70,69,67,68,99,1812,1812,132,744,70,1812,
1815,1812,99,102,99,1815,1812,1815,1781,1812,1812,1812,1812,1812,130,1812,1812,1812,1763,1764,99,99,99,99,99,99,99,736,1764,51,68,70,99,99,1779,99,99,1317,558,1319,86,70,68,1057,1058,1059,1060,1061,1890,1890,1890,1890,
1815,1812,102,99,99,1764,1765,1781,70,1812,834,807,1812,131,101,1812,1812,1812,1763,1764,1764,1812,1812,99,99,99,99,99,1764,52,86,99,99,99,99,99,99,829,830,831,99,1812,1812,1089,1090,1091,1092,1093,1937,1937,1937,1937,
1815,102,99,99,99,1764,1765,86,1812,1812,1812,1812,132,1812,1812,1812,780,1812,1779,1780,739,1764,1812,99,99,99,99,99,1764,52,744,99,99,99,102,736,737,861,862,863,1812,1812,1812,1121,1122,1123,1124,1125,1921,1921,1921,1921,
1812,1812,737,99,99,1764,1765,1812,1812,1812,748,101,1812,1812,130,131,1812,1812,1812,1812,1779,1780,1764,1764,51,1812,1812,1812,1764,52,99,102,102,1812,1812,1812,132,833,774,834,737,797,1057,1059,1061,799,50,1953,1953,1953,1953,1953,
1812,1812,1812,99,99,1764,1765,1812,1812,1812,1812,1812,1812,1812,131,130,1812,1812,1812,749,1812,801,1779,1764,1764,1812,1812,1812,1764,1765,99,102,1812,1812,1812,1812,102,132,1812,775,807,829,1089,1091,1093,831,66,1921,1921,1921,1921,1921,
1815,1815,1812,99,1815,1764,1765,1812,780,834,1812,1812,131,101,1812,1812,132,1812,1812,1812,1812,1812,1812,1763,1764,1812,1812,1812,1764,1765,806,99,1812,1812,1812,1812,1812,99,1812,1812,1812,861,1121,1123,1125,863,102,1001,1001,1001,1001,1001,
1812,1812,1812,1815,1815,1764,1765,833,1812,1812,132,131,1812,1812,130,1812,1812,101,1812,1812,1812,1812,807,1763,1764,99,1812,99,1764,1765,99,99,1812,1812,1812,1812,1812,1812,99,1812,1812,1812,1812,1812,1812,1812,833,51,35,36,132,1812,
1815,1812,1815,737,1815,1764,1765,1812,1812,1812,1812,130,131,1812,132,101,131,1812,1812,1812,1812,1812,1812,1763,1764,99,99,99,1764,1764,36,99,1812,102,1812,1812,1812,102,102,99,99,132,744,1812,1812,1812,1812,1812,1812,51,36,86,
1815,1815,744,1815,1815,1764,1765,1812,748,1812,101,132,1812,1812,1812,131,130,807,1812,1812,1812,1812,1812,1763,1764,99,99,99,99,99,51,36,1812,1812,102,102,102,99,99,99,99,86,99,1812,1812,1812,1812,1812,1812,1812,51,35,
1815,1815,99,1815,1815,1764,1765,86,1812,1812,130,1812,130,1812,130,744,1812,130,1812,1812,1812,1812,1812,1763,1764,99,99,99,99,99,99,51,35,35,36,99,807,99,34,35,35,35,51,99,99,737,1812,99,99,99,99,99,
1815,1815,1815,1815,1815,1764,1765,1812,738,1812,1812,131,1812,1812,774,1812,1812,801,101,1812,1812,1812,1812,1763,1764,1812,1812,1812,99,99,99,99,99,51,51,36,99,34,51,99,744,99,99,99,1812,1812,1812,1812,99,99,99,736,
1815,1815,801,1815,1815,99,1765,1812,1812,780,1812,1812,806,1812,1812,1812,833,1812,780,1812,1812,1812,1812,1763,1764,1812,1812,1815,1812,1815,1815,99,99,99,51,52,806,50,99,99,99,744,99,1812,834,1812,1812,1812,99,99,99,99,
1815,1812,99,99,99,99,99,99,1812,1812,1812,1812,1812,1812,1812,70,1812,738,1812,1812,1812,834,1812,1763,1764,158,1812,1812,1812,1815,1815,1815,99,99,99,35,35,35,99,99,802,99,99,1812,1812,1812,802,770,99,99,99,99,
1815,1812,99,99,99,99,737,737,1812,1812,1812,1812,1812,833,1812,1748,1748,1749,1812,749,1812,1812,1812,1779,1764,1764,1764,1764,1812,1815,1815,737,99,99,99,51,772,51,99,737,99,1812,770,1812,1812,99,1812,99,99,99,99,99,
1815,1812,99,99,737,99,99,736,768,1812,774,1812,1812,801,99,1814,1764,1764,1749,1812,1812,1812,1812,86,1779,1780,1764,1764,1764,1815,1815,1815,1815,99,99,51,739,1764,1764,99,1812,1812,1812,1812,1812,1812,1812,1815,1815,99,1812,99,
1815,1812,99,744,99,99,99,99,1812,1812,1812,780,1812,99,99,99,99,1764,1764,1749,1812,1812,833,770,1812,1812,1779,1764,1764,1815,1815,1815,1815,99,99,51,51,51,99,99,99,1812,1812,1812,1815,1812,1815,1815,99,99,1812,99,
1815,1812,801,99,99,99,99,99,1812,1812,807,1812,1812,99,99,99,99,833,1764,1764,1749,1812,1812,1812,1812,1812,1812,1812,1815,1815,1815,99,99,99,99,51,803,51,99,99,99,99,99,1812,1815,1812,1815,1812,99,1812,1812,99,
1815,1812,99,99,99,99,99,99,1812,1812,806,1812,1763,99,99,99,99,99,769,99,1815,1815,738,737,833,99,801,99,99,770,99,99,99,99,99,1764,835,1764,99,801,99,99,99,738,99,1812,99,1812,99,1812,99,99,
1815,1812,99,99,99,1812,1764,1764,1781,770,1812,1812,1779,1764,1764,99,99,99,99,99,833,1815,1815,1815,834,99,99,99,99,99,99,99,99,99,99,1764,1764,1764,99,99,99,99,99,99,770,1812,1812,802,1812,1812,99,99,
1815,1812,1814,1764,1812,1764,1764,1781,1812,774,1812,70,1812,1779,1764,1764,1764,99,736,99,99,99,833,769,744,99,99,99,99,99,99,99,99,99,99,1764,1764,1764,99,99,99,99,99,99,1812,1812,1812,99,1812,99,99,99,
1815,1812,99,1764,1764,1764,1781,1812,1812,1812,1812,1812,1812,1812,1799,1779,1764,99,1715,99,99,99,70,99,99,99,99,99,99,99,99,99,99,99,99,1764,1764,1764,99,99,99,770,99,99,1812,1812,1812,99,1812,99,99,99,
1815,1815,102,1764,1764,1765,99,737,1812,1812,807,1812,1812,99,132,1783,1763,99,99,99,99,99,99,99,99,99,99,99,99,99,99,99,99,1764,1764,1764,1764,1764,99,99,99,99,99,2001,1812,2001,1815,1812,99,99,99,99,
1815,1815,102,1764,1764,1765,780,1812,1812,1812,1812,1812,1812,749,99,99,1764,99,99,99,99,99,99,99,99,99,99,1764,1764,1764,1764,1764,99,1764,1755,1764,1764,99,744,99,99,99,99,2001,1812,2001,1812,1812,1815,99,99,99,
1815,1812,99,1764,1764,1765,1812,1812,1812,1812,1812,1812,1812,770,130,99,1779,1764,1764,1764,99,99,99,99,99,99,1764,1764,1764,1764,739,1764,1764,1764,1764,1764,1812,99,99,801,1799,99,99,1812,2001,1812,1815,1812,1815,99,99,99,
1815,1812,99,1764,1764,1765,737,1812,1812,1812,1812,1812,1812,780,99,132,99,1779,1764,1727,1764,1764,1764,1764,1764,1764,1764,1780,1780,1780,1780,1780,1764,772,1764,99,99,1815,744,1815,1815,736,1812,1812,2001,1815,1812,99,1815,1815,99,99,
1815,1812,99,737,99,1765,99,70,1812,1812,1812,774,1812,1812,768,86,99,70,1779,1780,1780,1780,1764,1764,1764,1764,1781,99,99,99,99,774,1779,1764,1764,70,99,1815,737,1815,1815,1815,1812,1815,2001,1815,1812,744,1815,99,1815,99,
1815,1815,99,99,99,769,99,1812,1812,737,1812,1812,806,1812,99,99,99,99,99,99,738,99,1779,99,768,99,769,99,99,99,99,802,99,1779,1764,99,99,99,1815,1815,86,1815,1764,1764,2017,1764,1764,1815,1815,99,1815,99,
1815,1815,99,99,99,99,99,1812,1812,1812,1812,1812,1812,1812,99,99,99,99,99,774,99,99,99,99,769,737,99,99,737,99,99,99,833,99,1763,99,737,99,1815,70,1815,1815,1764,1755,1764,803,1764,99,1815,99,99,1815,
1812,1815,770,99,801,99,99,1812,1812,1812,1812,1812,1812,806,99,99,99,99,807,99,99,99,99,99,1815,1815,1815,802,99,99,99,99,99,1747,1764,99,99,99,99,1764,1764,1764,1764,740,1764,1755,1764,1815,1815,1815,1815,1815,
1812,1812,99,769,99,99,99,99,99,99,99,99,99,99,99,807,99,99,99,99,99,99,744,1815,1815,1815,1815,1815,1815,99,99,99,1747,1764,1764,1764,1764,1764,1764,1755,1764,1764,836,1764,1764,1764,1815,1815,1815,1815,1815,1815,
1812,1812,744,99,99,99,1748,1749,99,99,99,99,99,99,806,99,99,99,70,1764,737,99,99,1815,1815,1815,1815,1815,1815,99,99,99,801,1764,1764,803,1764,1764,771,1764,1764,1764,1764,1764,1764,737,1815,1815,1815,99,1815,1815,
1812,1815,801,99,99,99,1764,1765,99,99,99,99,99,99,99,99,801,99,1747,1764,744,99,99,99,1815,801,1815,99,1815,99,1815,1815,99,99,99,1764,771,1764,1755,1764,1815,737,1815,1815,1815,1815,1815,1815,99,1815,1815,1815,
1815,1815,99,737,1764,1764,1764,1781,70,99,99,99,99,99,99,807,99,99,1763,1764,768,99,768,99,1815,737,1815,1815,1815,1815,1815,1815,99,99,99,99,1764,1764,1764,1815,1815,1815,834,1815,1815,1815,1815,770,1815,1815,1815,1815,
1815,770,99,99,1764,42,1781,86,99,1815,1815,99,99,775,99,99,99,99,1763,1764,99,99,99,738,99,1815,1815,1815,1815,99,1815,1815,99,99,99,99,737,99,1815,834,1815,1815,1815,1815,1815,1815,1815,1815,99,99,99,1815,
1815,736,99,768,1764,1781,99,99,1815,1815,99,802,99,99,1815,1815,99,99,1763,1764,99,99,99,99,768,99,1815,1815,1815,1815,1815,99,99,99,102,99,1815,1815,1815,1815,1815,1815,770,1815,1815,1815,1815,99,99,99,1815,1815,
768,1815,99,99,1765,99,99,1815,1815,99,99,99,775,99,1815,99,99,86,1763,1764,99,99,99,99,99,99,1815,1815,1815,1815,1815,1815,99,99,102,99,1815,1815,99,99,1815,1815,1815,1815,1815,1815,1815,1815,1815,1815,99,1815,
1815,1815,99,99,1765,99,99,99,99,99,774,99,99,99,99,99,99,99,1779,1764,1764,1764,99,99,770,99,99,1815,1815,99,1815,1815,1815,99,99,99,99,99,99,99,99,99,1815,1815,1815,1815,99,99,99,99,99,99
</data>
 </layer>
 <layer id="2" name="Buildings" width="52" height="60">
  <data encoding="csv">
99,0,1787,1867,1715,1714,1868,1867,1715,1714,1868,1867,1868,1867,1868,1867,1868,1867,1868,1868,1867,1716,2,1868,1864,1849,99,99,99,99,99,99,99,99,99,99,99,99,99,99,99,99,99,99,99,99,99,99,99,99,99,99,
99,0,1803,1883,1884,1717,1884,1883,1884,1717,1884,1883,1884,1883,1884,1883,1884,1883,1884,1884,1883,1719,1883,1884,1880,1865,1753,1754,2128,0,0,0,0,0,0,0,1787,1804,3,1,2,3,1864,1849,99,737,802,0,0,0,0,0,
99,0,1819,1899,1900,1720,1900,1899,1900,1720,1900,1899,1900,1899,1900,1899,1900,1899,1900,1900,1899,1722,1899,1900,1896,1881,1769,1770,0,0,0,0,0,2128,1757,1758,1803,1820,6,4,1883,6,1880,1865,1753,1754,0,770,0,0,0,0,
1812,0,1835,1915,1916,1915,1916,1915,1916,1915,1916,1915,1916,1915,1916,1915,1916,1915,1916,1916,1915,1916,1915,1916,1912,1897,1785,1786,0,2128,85,0,182,1812,1773,1774,1819,1836,9,7,1899,9,1896,1881,1769,1770,0,834,2128,0,0,0,
1812,0,1851,932,0,0,0,0,0,0,0,0,0,0,0,0,0,0,0,0,0,0,0,0,0,1913,1801,1801,1812,0,0,0,0,1812,1899,1790,1835,1852,1915,1916,1915,1916,1912,1897,1785,1770,2129,802,0,0,0,0,
1812,0,0,0,0,0,0,0,0,0,0,0,0,0,0,0,0,0,0,0,0,0,0,0,0,0,0,1866,1867,1868,1867,1868,1867,1868,1915,1806,1851,0,0,0,0,0,0,1913,1801,0,0,833,0,0,0,0,
1812,0,0,0,0,0,0,0,0,0,0,0,0,0,0,0,1812,1812,1812,1812,1812,1812,1812,0,0,0,0,1882,1883,1884,1883,1884,1883,1884,1885,932,0,0,1818,1812,1812,1821,0,0,0,1812,0,738,0,0,2128,0,
1812,0,0,0,0,0,0,0,0,0,0,0,0,0,0,1818,1862,0,1895,1812,2128,1812,1812,1812,1812,0,0,1898,1899,1900,1899,1900,1899,1900,1901,0,0,0,1834,0,0,1789,0,1802,1812,1812,768,770,0,0,0,0,
1812,2127,0,0,762,763,764,0,0,0,0,0,0,0,0,1834,0,737,0,1862,0,1895,0,1798,1812,0,0,1914,1915,1916,1915,1916,1915,1916,1917,0,0,0,1818,0,0,1821,0,1786,1812,1812,802,0,0,0,0,0,
99,0,0,0,0,0,932,0,0,0,0,0,0,0,0,1739,0,1895,0,737,0,0,0,0,1812,1812,0,0,0,0,0,0,0,0,0,0,0,0,1786,2128,0,1837,0,1802,736,769,0,0,2128,0,0,181,
99,2127,0,0,0,0,0,1798,0,0,0,0,932,0,0,1866,1864,1849,737,1787,45,2,40,41,738,1812,1812,1812,1812,1812,1812,0,0,0,0,0,0,0,137,0,0,140,0,1834,744,85,0,0,0,0,0,0,
1814,0,1812,0,0,0,0,0,932,1798,1895,0,0,0,0,1882,1880,1865,1868,1803,170,171,56,57,0,833,801,932,99,99,1812,1812,1812,1812,1837,0,0,0,153,154,1,156,0,137,0,0,74,91,154,3,2,155,
738,2128,1812,1798,0,0,0,85,0,0,0,0,0,0,0,1898,1896,1881,1884,1819,186,187,9,73,737,0,0,0,0,2128,99,99,86,1812,140,0,0,0,169,170,4,172,0,153,154,155,90,107,170,6,170,171,
1812,737,738,1812,1812,1812,124,0,0,0,0,0,0,0,0,1914,1912,1897,1900,1835,202,203,88,89,932,0,0,0,0,0,85,99,74,91,156,0,0,0,185,186,7,188,0,169,170,171,106,123,186,9,186,187,
1812,0,0,1814,2127,1812,108,0,0,0,0,0,0,0,0,0,0,1913,1916,1851,0,0,0,121,801,182,0,0,0,0,44,45,90,107,172,0,0,0,201,202,203,204,0,185,186,187,122,139,12,203,202,203,
1812,0,0,0,0,0,0,0,0,0,1798,0,0,0,0,1798,0,0,932,0,0,135,118,120,770,0,0,0,0,0,60,61,106,123,188,0,0,0,0,0,0,0,0,201,202,203,138,0,15,1862,0,0,
1812,0,0,0,0,0,2127,99,0,0,0,0,0,0,0,0,0,0,0,0,133,1798,1798,1783,0,0,0,0,0,0,76,77,122,139,204,0,0,0,0,0,0,0,0,932,0,349,0,0,149,0,181,0,
1812,0,0,0,0,0,0,0,99,108,0,0,1798,0,0,0,1798,0,0,135,120,2127,1799,0,0,0,0,0,2128,0,92,93,138,0,0,0,0,0,0,0,0,0,0,0,1894,0,0,0,0,0,0,182,
1812,0,0,0,0,0,0,181,99,108,0,0,0,0,0,0,0,0,0,57,85,0,738,2128,0,0,0,0,0,0,140,0,0,0,0,986,955,956,957,958,959,992,0,0,0,0,0,882,883,0,0,149,
1812,0,0,0,0,0,0,0,99,140,0,0,0,0,0,0,0,0,0,73,1798,833,2128,0,0,0,0,0,44,45,156,0,0,0,0,1018,0,0,0,0,0,1024,0,0,0,0,0,0,0,0,182,0,
1812,0,0,0,0,0,99,74,91,156,0,0,0,0,0,0,0,0,0,1850,182,0,737,0,0,0,0,0,60,61,172,0,0,0,0,1050,0,0,0,0,0,1056,0,0,0,182,1798,0,0,0,0,181,
1812,0,0,0,0,44,45,90,107,172,0,0,1798,0,0,0,0,0,0,1866,1753,1754,744,0,0,0,0,85,76,77,188,0,0,0,0,1082,0,0,0,0,0,1088,0,0,0,0,0,1798,0,0,1799,0,
1812,0,0,0,0,60,61,106,123,188,0,0,0,0,0,0,0,0,0,1882,1769,136,736,833,768,0,2128,0,92,10,204,0,0,0,0,1114,0,0,0,0,0,1120,0,0,181,882,883,0,0,0,0,932,
1812,0,0,0,0,76,77,122,139,0,0,0,0,0,0,0,0,0,0,1898,167,152,154,1753,1754,0,0,0,1821,13,0,0,0,0,1798,1146,1147,1152,0,1146,1151,1152,0,0,0,0,0,0,0,0,0,0,
1812,0,0,0,0,92,93,138,0,0,0,0,0,0,1798,0,1894,0,0,1914,1912,168,170,1769,1770,0,0,0,1837,0,0,0,0,0,0,762,763,764,0,762,763,764,0,0,0,0,0,0,0,0,0,0,
1812,0,0,0,85,108,0,0,932,0,0,0,0,0,0,0,0,0,0,932,0,1810,186,1785,1786,0,0,0,1821,932,0,0,0,0,0,0,0,1234,0,1234,0,0,0,0,0,0,0,0,0,0,0,0,
1812,0,0,1862,0,124,0,0,0,0,0,0,0,0,0,0,0,0,0,0,0,0,1914,1801,1770,0,0,0,1837,0,0,0,0,0,0,0,0,0,0,0,0,0,0,0,0,0,0,0,0,0,0,0,
1812,0,0,0,181,108,0,0,0,0,0,0,0,0,0,0,0,0,0,0,0,0,0,0,1818,0,0,0,1821,0,0,0,0,0,0,0,0,0,0,0,0,0,0,0,0,0,0,0,0,0,0,0,
1812,0,0,0,0,124,0,0,0,0,1894,1798,0,0,0,0,0,0,0,0,0,0,0,0,1818,0,0,0,1821,0,0,0,0,0,0,0,0,0,0,0,0,0,0,0,0,0,0,0,0,0,0,0,
1812,0,0,181,0,108,0,0,0,0,0,0,932,0,0,0,0,0,0,0,0,0,0,0,1818,0,0,0,1837,0,0,0,0,0,0,0,0,0,0,0,0,0,0,0,0,0,102,0,0,0,0,932,
1812,0,0,0,0,124,0,0,0,0,0,0,0,0,0,0,0,0,0,0,0,0,0,0,1818,1812,1812,1812,0,0,0,0,0,0,0,0,0,0,0,0,0,0,0,0,102,769,769,769,0,0,0,0,
1812,1814,0,0,0,108,0,0,0,1798,0,0,0,0,1798,0,0,0,0,0,0,0,0,0,1834,769,736,1812,1812,1812,0,0,0,0,0,0,0,0,0,0,0,0,0,102,102,0,769,102,102,0,0,0,
1812,2126,0,0,0,108,0,0,0,0,0,0,0,0,0,0,0,0,0,0,0,0,0,0,0,0,0,1798,834,1812,1812,0,0,0,0,0,0,0,0,0,0,0,102,102,85,0,0,1812,1812,102,102,102,
1812,1814,0,85,0,92,932,0,0,0,0,0,0,0,0,0,0,0,0,0,0,0,0,0,0,136,0,0,0,738,1812,1798,182,0,0,0,0,0,0,0,1812,1812,1812,1812,0,0,0,0,2128,1812,1812,1812,
1812,0,0,0,0,99,0,0,0,0,0,0,0,0,0,0,0,0,0,1895,0,0,0,0,0,152,155,40,41,0,737,736,1798,1812,0,0,0,0,0,1812,85,0,0,2128,0,0,0,0,0,0,738,0,
1812,0,0,0,0,85,99,0,0,0,0,0,0,0,0,0,0,0,0,0,0,0,0,0,0,168,170,56,57,0,0,0,738,182,1812,108,0,105,1812,1812,0,0,0,0,0,0,0,0,0,2128,0,0,
1812,0,0,0,0,0,0,99,124,0,0,0,0,99,0,0,0,0,0,0,0,0,0,932,0,0,0,0,1786,0,0,0,0,801,834,124,0,1786,1812,0,0,2128,0,0,0,0,0,0,0,0,0,0,
1812,0,0,0,0,0,0,99,140,0,0,0,0,99,0,0,117,134,0,0,0,0,0,0,0,0,0,0,0,0,2128,0,0,0,0,108,0,105,0,0,0,0,0,0,0,0,0,0,0,0,0,0,
1812,0,0,0,0,1787,1867,3,156,0,0,0,153,1868,1849,0,0,117,134,0,0,0,0,0,0,0,0,1848,1833,0,0,0,0,0,736,1789,0,1850,0,0,0,0,0,0,0,0,0,0,0,0,0,0,
1812,1812,1812,1757,1758,1803,1883,6,172,0,0,0,169,1884,1865,1753,1753,0,117,118,119,118,119,118,119,118,119,1833,0,0,0,0,0,85,768,108,0,1866,1754,85,0,0,2128,0,0,0,0,0,0,0,0,0,
0,0,85,1773,1774,1819,1899,9,188,0,0,0,185,1900,1881,1769,1769,85,0,0,0,182,0,0,0,2128,0,0,0,0,85,0,2128,0,768,1853,0,1882,1770,0,1862,0,0,0,0,0,0,0,0,0,0,0,
0,0,0,1789,1790,1835,1915,1916,204,0,0,0,201,1801,1897,1785,1785,2126,0,2128,0,0,0,0,0,0,0,0,0,0,0,0,1814,1757,1758,1869,0,1898,1786,0,0,181,0,0,0,0,0,0,0,0,0,0,
0,0,0,1805,10,1851,182,932,0,0,0,0,1862,0,1913,1801,1801,1814,0,0,0,85,0,0,0,0,0,0,1787,1804,1868,1864,1849,1820,1774,1885,0,1914,1786,0,0,0,0,0,0,0,0,0,0,0,0,0,
0,0,0,1821,13,0,932,0,0,0,0,0,0,181,0,0,1866,1867,1715,1864,1849,0,0,0,0,1787,1758,1868,1803,1820,1884,1880,1865,1836,1790,1901,0,0,1802,0,0,0,2128,0,0,0,0,0,0,182,0,0,
0,0,0,1837,0,0,0,0,0,0,0,0,0,762,763,764,1882,1883,1884,1880,1865,1867,1868,1867,1716,1803,1774,1884,1819,1836,1900,1896,1881,1801,1806,1917,0,0,0,0,0,0,0,0,0,0,0,0,0,0,149,0,
0,0,0,1821,882,883,0,0,0,0,0,0,0,0,0,1862,1898,1899,1900,1896,1881,1883,1884,1883,1719,1819,1790,1900,1835,1852,1916,1912,1897,1901,0,0,0,1812,1812,0,1845,1862,0,0,0,0,0,0,0,0,0,0,
0,0,1812,1837,0,85,0,0,0,0,0,0,0,0,0,0,1914,1915,1723,1912,1897,1899,1900,1899,1900,1835,1806,1916,1851,0,0,0,1913,1917,0,0,1812,1812,0,0,0,1845,1757,1867,1867,1868,1754,1895,0,0,0,0,
0,0,1812,1812,0,1862,0,0,0,0,0,0,0,0,882,883,932,0,1726,0,1913,1915,1916,1915,1916,1851,0,0,0,0,0,0,0,0,0,0,1812,0,0,0,0,0,1883,1883,1883,1884,1770,0,0,0,0,0,
0,0,0,737,1812,0,0,0,0,0,0,0,0,0,0,0,0,0,0,0,0,0,0,0,0,0,0,0,0,0,0,0,0,0,1850,1812,0,0,1787,1804,1867,1868,1899,1899,1899,1900,1786,0,0,0,0,0,
0,0,0,2126,1812,2126,0,0,0,0,0,0,0,0,0,0,0,0,0,0,0,0,0,0,1812,1812,1812,85,1812,0,0,0,0,0,1866,1867,1868,1868,1803,1820,1883,1884,2017,1915,1879,1916,1802,0,0,0,0,0,
0,0,0,0,2128,0,0,0,0,0,0,0,0,0,349,0,0,0,0,0,0,0,1812,85,0,0,0,0,1812,1812,0,0,0,0,1882,1883,1884,1884,1819,1836,1899,1900,1901,932,1895,1798,1818,0,0,0,0,0,
0,0,0,0,0,0,1853,25,0,0,0,0,0,0,0,0,0,0,0,0,0,1812,2127,0,0,0,0,0,0,1812,1812,0,0,0,1898,1899,1900,1900,1835,1852,1915,1916,1917,0,0,932,1834,0,0,0,0,0,
0,0,0,0,1757,1804,1869,762,763,764,0,0,0,0,0,0,0,0,0,0,0,1812,0,0,0,0,0,0,0,2128,1812,1812,0,0,1914,1915,1916,1916,1851,0,0,0,0,0,1848,1832,1833,0,0,182,0,0,
0,0,0,0,1773,1820,1885,0,0,0,0,0,0,0,0,0,0,1895,0,1818,1812,0,738,0,0,0,0,0,0,0,1812,1812,1812,0,0,0,0,0,0,0,0,0,0,0,1833,0,0,0,0,0,0,0,
0,0,0,0,1789,1836,1901,0,0,0,1894,0,0,0,0,0,0,0,0,1834,0,2128,0,0,0,0,0,0,0,0,0,1812,1812,1812,0,0,0,0,0,0,0,0,1812,1812,1812,1812,1812,0,0,0,0,0,
0,0,0,0,1789,1852,1917,0,0,0,0,0,0,0,0,0,0,0,0,1850,0,0,0,0,181,0,0,0,0,0,0,0,0,1812,1812,1812,1817,1832,1832,1833,1812,1812,1812,1812,1812,0,0,0,0,0,0,0,
0,0,2128,0,1805,0,0,0,0,0,0,0,0,0,0,0,0,0,0,1866,1864,1849,0,0,0,0,0,0,0,0,0,0,0,0,0,1862,1812,0,0,0,1812,0,0,0,0,0,0,0,0,0,0,0,
0,0,0,1812,1853,0,0,0,0,0,0,0,0,0,0,0,0,0,0,1882,1880,1865,1753,1754,0,0,0,0,0,0,0,0,0,0,0,0,1812,182,1812,1812,0,0,0,0,0,0,0,0,0,0,0,0,
0,0,1787,1804,1869,0,0,0,0,0,0,0,0,0,0,182,0,0,0,1898,1896,1881,1769,1770,0,0,0,0,0,0,0,0,0,0,0,0,0,0,0,0,0,0,0,0,0,0,0,0,0,0,0,0,
1868,1868,1803,1820,1885,0,0,0,0,0,0,0,0,0,0,0,0,0,0,1914,1912,1897,1785,1786,0,1798,0,0,0,0,0,0,0,0,0,0,0,0,0,0,0,0,0,0,0,0,0,0,0,0,0,0
</data>
 </layer>
 <layer id="3" name="Front" width="52" height="60">
  <data encoding="csv">
0,0,0,0,0,0,0,0,0,0,0,0,0,0,0,0,0,0,0,0,0,0,0,0,0,0,0,0,2120,0,0,0,0,0,0,0,0,0,0,0,0,0,0,0,0,0,0,0,0,0,0,0,
0,0,0,0,0,0,0,0,0,0,0,0,0,0,0,0,0,0,0,0,0,0,0,0,0,0,0,0,0,0,0,0,150,2120,0,0,0,0,0,0,0,0,0,0,0,0,0,0,0,0,0,0,
0,0,0,0,0,0,0,0,0,0,0,0,0,0,0,0,0,0,0,0,0,0,0,0,0,0,0,0,0,2120,0,0,166,0,0,0,0,0,0,0,0,0,0,0,0,0,0,0,2120,0,0,0,
0,0,0,0,0,0,0,0,0,0,0,0,0,0,0,0,0,0,1914,0,0,0,0,0,0,0,0,0,0,0,0,0,0,0,0,0,0,0,0,0,0,0,0,0,0,0,0,0,0,0,0,0,
0,0,0,0,0,0,0,0,0,0,0,0,0,0,0,0,0,0,0,0,0,0,0,0,0,0,0,1850,0,0,0,0,0,0,1853,0,0,0,0,0,0,0,0,0,0,0,0,0,0,0,0,0,
0,0,0,0,0,0,0,0,0,0,0,0,0,0,0,0,0,0,1831,0,0,0,0,0,0,0,0,0,0,0,0,0,0,0,1869,0,0,0,0,0,0,0,0,0,0,0,0,0,0,0,2120,0,
0,0,0,0,0,0,0,0,0,0,0,0,0,0,0,0,0,0,1879,0,2120,1863,0,0,0,0,0,0,0,0,0,0,0,0,0,0,0,0,0,0,0,0,0,0,0,0,0,0,0,0,0,0,
0,0,0,0,0,0,0,0,0,0,0,0,0,0,0,0,0,1863,0,0,0,1879,0,0,0,0,0,0,0,0,0,0,0,0,0,0,0,0,0,0,0,0,0,0,0,0,0,0,0,0,0,0,
0,0,0,0,0,0,0,0,0,0,0,0,0,0,0,0,0,1879,0,0,0,0,0,0,0,0,0,0,0,0,0,0,0,0,0,0,0,0,0,2120,0,0,0,0,0,0,0,0,2120,0,0,165,
0,0,0,0,0,0,0,0,0,0,0,0,0,0,0,1850,0,0,0,0,0,0,0,0,0,0,0,0,0,0,0,0,0,0,0,0,0,0,0,0,0,0,0,0,0,0,0,0,0,0,0,0,
0,0,0,0,0,0,0,0,0,0,0,0,0,0,0,0,0,0,0,0,0,0,0,0,0,0,0,0,0,0,0,0,0,0,0,0,0,0,0,0,0,0,0,0,0,0,0,0,0,0,0,0,
0,2120,0,0,0,0,0,0,0,0,0,0,0,0,0,0,0,0,0,0,0,0,0,0,0,0,0,0,0,2120,0,0,0,0,0,0,0,0,0,0,0,0,0,0,0,0,0,0,0,0,0,0,
0,0,0,0,0,0,0,0,0,0,0,0,0,0,0,0,0,0,0,0,0,0,0,0,0,150,0,0,0,0,0,0,0,0,0,0,0,0,0,0,0,0,0,0,0,0,0,0,0,0,0,0,
0,0,0,0,2119,0,0,0,0,0,0,0,0,0,0,0,0,0,0,0,0,0,0,0,0,166,0,0,0,0,0,0,0,0,0,0,0,0,0,0,0,0,0,0,0,0,0,0,0,0,0,0,
0,0,0,0,0,0,0,0,0,0,0,0,0,0,0,0,0,0,0,0,0,0,0,0,0,0,0,0,0,0,0,0,0,0,0,0,0,0,0,0,0,0,0,0,0,0,0,0,0,0,0,150,
0,0,0,0,0,0,117,0,0,0,0,0,0,0,0,0,0,0,0,0,0,0,0,0,0,0,0,0,0,0,0,0,0,0,0,0,0,0,0,0,0,0,0,0,0,333,0,0,0,0,165,166,
0,0,0,0,0,0,0,0,0,0,0,0,0,0,0,0,0,0,0,0,0,0,0,0,0,0,0,0,2120,0,0,0,0,0,0,0,0,0,0,0,0,0,0,0,1878,0,0,0,0,0,0,166,
0,0,0,0,0,0,0,165,0,0,0,0,0,0,0,0,0,0,0,0,0,0,0,2120,0,0,0,0,0,0,0,0,0,0,0,0,0,0,0,0,0,0,0,0,0,0,0,850,851,0,150,0,
0,0,0,0,0,0,0,0,0,0,0,0,0,0,0,0,0,0,0,0,0,0,2120,0,0,0,0,0,0,0,0,0,0,0,0,0,0,0,0,0,0,0,0,0,0,150,0,0,0,0,166,0,
0,0,0,0,0,0,0,0,0,0,0,0,0,0,0,0,0,0,0,0,0,0,0,0,0,0,0,0,0,0,0,0,0,0,0,0,0,0,0,0,0,0,0,0,0,166,0,0,0,0,0,165,
0,0,0,0,0,0,0,0,0,0,0,0,0,0,0,0,0,0,0,0,0,0,0,0,0,0,0,0,0,0,0,0,0,0,0,0,0,0,0,0,0,0,0,0,0,818,819,0,0,0,0,0,
0,0,0,0,0,0,0,0,0,0,0,0,0,0,0,0,0,0,0,0,0,0,0,0,0,0,2120,0,0,0,0,0,0,0,0,666,667,668,0,666,667,668,0,0,165,850,851,0,0,0,0,0,
0,0,0,0,0,0,0,0,0,0,0,0,0,0,0,0,0,0,0,0,0,0,0,0,0,0,0,0,0,0,0,0,0,0,0,698,699,700,0,698,699,700,0,0,0,0,0,0,0,0,0,0,
0,0,0,0,0,0,0,0,0,1917,0,0,0,0,0,0,0,0,0,0,0,0,0,0,0,0,0,0,0,0,0,0,0,0,0,730,731,732,0,730,731,732,0,0,0,0,0,0,0,0,0,0,
0,0,0,0,0,0,0,0,0,0,0,0,0,0,0,0,0,0,0,0,0,0,0,0,0,0,0,0,0,0,0,0,0,0,0,0,0,1202,0,1202,0,0,0,0,0,0,0,0,0,0,0,0,
0,0,0,0,0,0,0,0,0,0,0,0,0,0,0,0,0,0,0,0,0,0,0,0,0,0,0,0,0,0,0,0,0,0,0,0,0,0,0,0,0,0,0,0,0,0,0,0,0,0,0,0,
0,0,0,0,165,0,0,0,0,0,0,0,0,0,0,0,0,0,0,0,0,0,0,0,0,0,0,0,0,0,0,0,0,0,0,0,0,0,0,0,0,0,0,0,0,0,0,0,0,0,0,0,
0,0,0,0,0,0,0,0,0,0,0,0,0,0,0,0,0,0,0,0,0,0,0,0,0,0,0,0,0,0,0,0,0,0,0,0,0,0,0,0,0,0,0,0,0,0,0,0,0,0,0,0,
0,0,0,165,0,0,0,0,0,0,0,0,0,0,0,0,0,0,0,0,0,0,0,0,0,0,0,0,0,0,0,0,0,0,0,0,0,0,0,0,0,0,0,0,0,0,0,0,0,0,0,0,
0,0,0,0,0,0,0,0,0,0,0,0,0,0,0,0,0,0,0,0,0,0,0,0,0,0,0,0,0,0,0,0,0,0,0,0,0,0,0,0,0,0,0,0,0,0,0,0,0,0,0,0,
0,0,0,0,0,0,0,0,0,0,0,0,0,0,0,0,0,0,0,0,0,0,0,0,0,0,0,0,0,0,0,0,0,0,0,0,0,0,0,0,0,0,0,0,146,147,148,0,0,0,0,0,
0,0,0,0,0,0,0,0,0,0,0,0,0,0,0,0,0,0,0,0,0,0,0,0,0,0,0,0,0,0,0,0,0,0,0,0,0,0,0,0,0,0,0,0,162,0,0,0,0,0,0,0,
0,0,0,0,0,0,0,0,0,0,0,0,0,0,0,0,0,0,0,0,0,0,0,0,137,0,0,0,0,0,0,0,0,0,0,0,0,0,0,0,0,0,0,0,0,0,0,0,2120,0,0,0,
0,0,0,0,0,0,0,0,0,0,0,0,0,0,0,0,0,0,0,0,0,0,0,0,153,0,0,0,0,0,0,0,0,117,0,0,0,0,0,0,0,792,0,2120,888,0,0,0,0,0,0,0,
0,0,0,0,0,0,0,0,0,0,0,0,0,0,0,0,0,0,0,0,0,0,0,0,169,0,0,0,0,0,0,0,0,166,0,0,0,0,0,0,0,0,0,0,0,0,0,0,0,2120,0,0,
0,0,0,0,0,0,0,0,0,0,0,0,0,0,0,0,0,0,0,0,0,0,0,0,185,77,0,0,0,0,0,0,0,0,0,0,0,0,0,0,0,2120,0,0,0,0,0,0,0,0,0,0,
0,0,0,0,0,0,0,0,0,0,0,0,0,0,0,0,0,0,0,0,0,0,0,0,201,93,202,203,0,0,2120,0,0,0,0,0,0,0,0,0,0,0,0,0,0,0,0,0,0,0,0,0,
0,0,0,0,0,0,0,0,0,0,0,0,1850,0,0,0,0,0,0,0,0,0,0,0,0,0,0,0,105,0,0,0,0,0,0,0,0,0,0,0,0,0,0,0,0,0,0,0,0,0,0,0,
0,0,0,0,0,0,0,0,0,0,0,0,0,0,0,0,0,0,0,0,0,150,0,0,0,0,0,0,0,0,0,0,0,0,0,0,0,0,0,0,0,0,2120,0,0,0,0,0,0,0,0,0,
0,0,0,0,0,0,1183,1184,1185,1186,1183,1184,1185,1186,0,0,1754,0,0,0,0,166,0,0,0,2120,0,0,0,0,0,0,2120,0,0,0,0,0,0,0,0,0,0,0,0,0,0,0,0,150,0,0,
0,0,0,0,0,0,150,0,0,0,0,0,0,0,0,0,1770,0,0,2120,0,0,0,0,0,0,0,0,0,0,0,0,0,0,0,0,0,0,0,0,0,165,0,0,0,0,0,0,0,166,0,0,
0,0,0,0,0,0,166,0,0,0,0,0,0,666,667,668,1786,0,0,0,0,0,0,0,0,0,0,0,0,0,0,0,0,0,0,0,0,0,0,0,0,0,0,0,0,0,0,1863,0,166,0,0,
0,0,0,0,0,0,0,0,0,0,0,0,0,698,699,700,1850,0,0,0,0,0,0,0,0,0,0,0,0,0,0,0,0,1853,0,0,0,0,0,0,0,0,2120,0,0,0,0,1879,0,166,0,0,
0,0,0,0,818,819,0,0,0,0,0,0,0,730,731,732,0,0,0,0,0,0,0,0,0,0,0,0,0,0,0,0,0,1869,0,0,0,0,0,0,0,0,0,0,0,0,0,1879,0,0,0,0,
0,0,0,0,850,851,0,0,0,0,0,0,0,0,0,0,0,0,0,0,0,0,0,0,0,0,0,0,0,0,0,0,0,1885,0,0,0,0,0,0,0,0,0,0,0,0,0,1879,0,0,0,0,
0,0,0,0,0,0,0,0,0,0,0,0,0,0,818,819,0,0,0,0,0,0,0,0,0,0,0,0,0,0,0,0,0,0,0,0,0,0,0,0,0,0,0,0,0,0,0,1879,0,0,0,0,
0,0,0,0,0,0,0,0,0,0,0,0,0,0,850,851,0,0,0,0,0,0,0,0,0,0,0,0,0,0,0,0,0,0,0,0,0,0,0,0,0,0,0,0,0,0,0,0,0,0,0,0,
0,0,0,0,0,0,0,0,0,0,0,0,0,0,0,0,0,0,0,0,0,0,0,0,0,0,0,0,0,0,0,0,0,0,0,0,0,0,0,0,0,0,1853,0,0,0,0,0,0,0,0,0,
0,0,0,0,0,0,0,0,0,0,0,0,0,0,0,0,0,0,0,0,0,0,0,0,0,0,0,0,0,0,0,0,0,0,0,0,0,0,0,0,0,0,1869,0,0,0,0,0,0,0,0,0,
0,0,0,0,2120,0,0,0,0,0,0,0,0,0,333,0,0,0,0,0,0,0,0,0,0,0,0,0,0,0,0,0,0,0,0,0,0,0,0,0,0,0,1885,0,0,0,0,0,0,150,0,0,
0,0,0,0,0,0,0,0,0,0,0,0,0,0,0,0,0,0,0,0,0,0,2119,0,0,0,0,0,0,0,0,0,0,0,0,0,0,0,0,0,0,0,0,0,0,0,0,0,0,166,0,0,
0,0,0,0,0,0,0,0,0,0,0,0,0,0,0,0,0,0,0,0,0,0,0,0,0,0,0,0,0,2120,0,0,0,0,0,0,0,0,0,0,0,0,0,0,0,0,0,0,0,166,0,0,
0,0,0,0,0,0,0,0,0,0,0,0,0,0,0,0,0,0,0,0,0,0,0,0,0,0,0,0,0,0,0,0,0,0,0,0,0,0,0,0,0,0,0,0,0,0,0,0,0,0,0,0,
0,0,0,0,0,0,0,0,0,0,1878,0,0,0,0,0,0,0,0,0,0,2120,0,0,0,0,0,0,0,0,0,0,0,0,0,0,0,0,0,0,0,0,0,0,0,0,0,0,0,0,0,0,
0,0,0,0,0,0,0,0,0,0,0,0,0,0,0,0,0,0,0,0,0,0,0,0,165,0,0,0,0,0,0,0,0,0,0,0,0,150,0,0,0,0,0,0,0,0,0,0,0,0,0,0,
0,0,2120,0,0,0,0,0,0,0,0,0,0,0,0,0,0,0,0,0,0,0,0,0,0,0,0,0,0,0,0,0,0,0,0,0,0,166,0,0,0,0,0,0,0,0,0,0,0,0,0,0,
0,0,0,0,0,0,0,0,0,0,0,0,0,0,0,0,0,0,0,0,0,0,0,0,0,0,0,0,0,0,0,0,0,0,0,0,0,1812,0,0,0,0,0,0,0,0,0,0,0,0,0,0,
0,0,0,0,0,0,0,0,0,0,0,0,0,0,0,166,0,0,0,0,0,0,0,0,0,0,0,0,0,0,0,0,0,0,0,0,0,0,0,0,0,0,0,0,0,0,0,0,0,0,0,0,
0,0,0,0,0,0,0,0,0,0,0,0,0,0,0,0,0,0,0,0,0,0,0,0,0,0,0,0,0,0,0,0,0,0,0,0,0,0,0,0,0,0,0,0,0,0,0,0,0,0,0,0,
0,0,0,0,0,0,0,0,0,0,0,0,0,0,0,0,0,0,0,0,0,0,0,0,0,0,0,0,0,0,0,0,0,0,0,0,0,0,0,0,0,0,0,0,0,0,0,0,0,0,0,0
</data>
 </layer>
 <layer id="5" name="AlwaysFront" width="52" height="60">
  <data encoding="csv">
0,1812,1757,1758,0,0,0,0,0,0,0,0,0,0,0,0,0,0,0,0,0,0,0,0,0,0,0,0,0,0,0,0,0,0,0,0,0,0,0,0,0,0,0,0,0,0,0,0,0,0,0,0,
0,1812,1773,1774,0,0,0,0,0,0,0,0,0,0,0,0,0,0,0,0,0,0,0,0,0,0,0,0,0,0,0,0,0,0,0,0,0,0,0,0,0,0,0,0,0,0,0,0,0,0,0,0,
0,1812,1789,1790,0,0,0,0,0,0,0,0,0,0,0,0,0,0,0,0,0,0,0,0,0,0,0,0,0,0,0,0,0,0,0,0,0,0,0,0,0,0,0,0,0,0,1812,0,0,0,0,0,
0,1812,1773,1806,0,0,0,0,0,0,0,0,0,0,0,0,0,0,0,0,0,0,0,0,0,0,0,0,0,0,0,0,0,0,0,0,0,0,0,0,0,0,0,0,0,1818,1812,0,0,0,0,0,
0,1812,1789,0,0,0,0,0,0,0,0,0,0,0,0,0,0,0,1863,0,0,0,0,0,0,0,0,0,0,0,0,0,0,0,0,0,0,0,0,0,0,0,0,0,0,1818,1812,0,0,0,0,0,
0,1812,1805,0,666,667,668,0,0,0,0,0,0,0,0,0,1848,1831,1879,1831,1832,1831,1832,1847,0,0,0,0,0,0,0,0,0,0,0,0,0,0,1848,1831,1832,1847,0,0,1848,1833,1812,0,0,0,0,0,
0,1812,1773,0,698,699,700,0,0,0,0,0,0,0,0,1846,1812,1812,0,1812,2120,0,1812,1830,1847,0,0,0,0,0,0,0,0,0,0,0,0,0,0,0,0,0,0,1848,1833,1812,1812,0,0,0,0,0,
0,1812,1789,0,730,731,732,0,0,0,1863,0,0,0,0,0,1812,0,0,0,0,0,1812,1812,1812,1816,0,0,0,0,0,0,0,0,0,0,0,0,0,0,0,0,0,0,1812,1812,0,0,0,0,0,0,
0,1812,1805,0,0,0,0,0,0,0,1879,0,0,0,0,0,1812,0,0,0,0,0,0,0,1812,1812,1816,0,0,0,0,0,0,0,0,0,0,0,0,0,0,0,0,0,1812,1812,0,0,0,0,0,0,
0,1812,1821,0,0,0,0,0,0,0,1879,0,0,0,0,0,1812,0,0,0,0,0,0,0,0,0,1830,1831,1832,1831,1832,1847,0,0,0,0,0,0,0,0,0,0,0,0,0,0,0,0,0,0,0,0,
0,1812,1837,0,0,0,0,0,0,0,1879,0,0,0,0,0,0,0,0,0,0,0,0,0,0,0,0,0,0,0,1812,1830,1831,1832,1847,0,0,0,0,0,0,0,0,0,0,0,0,0,0,0,0,0,
0,0,0,1817,1847,0,0,0,0,0,0,0,0,0,0,0,0,0,0,0,0,0,0,0,0,0,0,0,0,0,1812,1812,1812,1812,0,0,0,0,0,0,0,0,0,0,0,0,0,0,0,0,0,0,
0,0,0,0,1830,1831,134,0,0,0,0,0,0,0,0,0,0,0,0,0,0,0,0,0,0,0,0,0,0,0,0,0,0,0,0,0,0,0,0,0,0,0,0,0,0,0,0,0,0,0,0,0,
0,0,0,0,0,0,0,0,0,0,0,0,0,0,0,0,0,0,0,0,0,0,0,0,0,0,0,0,0,0,0,0,0,0,0,0,0,0,0,0,0,0,0,0,0,0,0,0,0,0,0,0,
0,0,0,0,0,0,0,0,0,0,0,0,0,0,0,0,0,0,0,0,0,0,0,0,0,0,0,0,0,0,0,0,0,0,0,0,0,0,0,0,0,0,0,0,0,0,0,0,0,0,0,0,
0,0,0,0,0,0,2119,134,0,0,0,0,0,0,0,0,0,0,0,0,0,0,0,0,0,0,0,0,0,0,0,0,0,0,0,0,0,0,0,0,0,0,0,0,0,0,0,0,0,0,0,0,
0,0,0,0,0,0,0,0,104,134,0,0,0,0,0,0,0,0,0,0,0,1812,0,0,0,0,0,0,0,0,0,0,0,0,0,0,0,0,0,0,0,0,0,0,0,0,0,818,819,0,0,0,
0,0,0,0,0,0,0,0,0,0,0,0,0,0,0,0,0,0,0,0,0,1812,0,0,0,0,0,0,0,0,0,0,0,0,0,922,923,924,925,926,927,928,0,0,0,0,0,0,0,0,0,0,
0,0,0,0,0,0,0,0,0,0,0,0,0,0,0,0,0,0,0,0,1812,1812,0,0,0,0,0,0,0,0,0,0,0,0,0,986,955,956,957,958,959,992,0,0,0,0,0,0,0,0,0,0,
0,0,0,0,0,0,0,0,0,0,0,0,0,0,0,0,0,0,0,0,1812,0,0,0,0,0,0,0,0,0,0,0,0,0,0,1018,1019,1020,1021,1022,1023,1024,0,0,0,0,0,0,0,0,0,0,
0,0,0,0,0,0,0,0,0,0,0,0,0,0,0,0,0,0,0,0,1812,0,0,0,0,0,0,0,0,0,0,0,0,0,0,0,1051,1052,1053,1054,1055,0,0,0,0,0,0,0,0,0,0,0,
0,0,0,0,0,0,0,0,0,0,0,0,0,0,0,0,0,0,0,0,0,0,0,0,0,0,0,0,0,0,0,0,0,0,0,0,1083,1084,1085,1086,1087,0,0,0,0,0,0,0,0,0,0,0,
0,0,0,0,0,0,0,0,0,0,0,0,0,0,0,0,0,0,0,0,0,0,0,0,0,0,0,0,0,0,0,0,0,0,0,0,0,0,0,0,0,0,0,0,0,0,0,0,0,0,0,0,
0,0,0,0,0,0,0,0,0,0,0,0,0,0,0,0,1878,0,0,0,0,0,0,0,0,0,0,0,0,0,0,0,0,0,0,0,0,0,0,0,0,0,0,0,0,0,0,0,0,0,0,0,
0,0,0,0,0,0,0,0,0,0,0,0,0,0,0,0,0,0,0,0,0,0,0,0,0,0,0,0,0,0,0,0,0,0,0,0,0,0,0,0,0,0,0,0,0,0,0,0,0,0,0,0,
0,0,0,0,0,0,0,0,0,0,0,0,0,0,0,0,0,0,0,0,0,0,0,0,0,0,0,0,0,0,0,0,0,0,0,0,0,0,0,0,0,0,0,0,0,0,0,0,0,0,0,0,
0,0,0,0,0,0,0,0,0,0,0,0,0,0,0,0,0,0,0,0,0,0,0,0,0,0,0,0,0,0,0,0,0,0,0,0,0,0,0,0,0,0,0,0,0,0,0,0,0,0,0,0,
0,0,0,0,0,0,0,0,0,0,1878,0,0,0,0,0,0,0,0,0,0,0,0,0,0,0,0,0,0,0,0,0,0,0,0,0,0,0,0,0,0,0,0,0,0,0,0,0,0,0,0,0,
0,0,0,0,0,0,0,0,0,0,0,0,0,0,0,0,0,0,0,0,0,0,0,0,0,0,0,0,0,0,0,0,0,0,0,0,0,0,0,0,0,0,0,0,0,135,118,134,0,0,0,0,
0,0,0,0,0,0,0,0,0,0,0,0,0,0,0,0,0,0,0,0,0,0,0,0,0,0,0,0,1821,0,0,0,0,0,0,0,0,0,0,0,0,0,0,0,135,120,1812,117,134,0,0,0,
0,0,0,0,0,0,0,0,0,0,0,0,0,0,0,0,0,0,0,0,0,0,0,0,0,1799,1783,0,117,134,0,0,0,0,0,0,0,0,0,0,0,0,0,133,1812,1812,1812,1812,102,103,0,0,
0,0,0,0,0,0,0,0,0,0,0,0,0,0,0,0,0,0,0,1863,0,0,0,0,0,0,0,0,0,1812,103,0,0,0,0,0,0,0,0,0,0,0,133,1812,1812,0,0,0,0,102,104,118,
0,0,0,0,0,0,0,0,0,0,0,0,0,0,0,0,0,0,0,1879,0,0,0,0,0,0,0,0,0,0,1812,104,118,134,0,0,0,0,0,135,119,119,120,1812,0,0,0,0,0,0,0,0,
0,0,0,0,0,0,0,0,0,0,0,0,0,0,0,0,0,0,0,1879,0,0,0,0,0,0,0,0,0,0,0,1812,1812,150,134,0,0,0,135,120,1812,1812,1812,0,0,0,0,0,0,0,0,0,
0,0,0,0,0,0,104,134,0,0,0,0,0,0,0,0,0,0,0,0,0,0,0,0,0,0,0,0,0,0,0,0,0,0,117,134,0,135,120,1812,0,0,0,0,0,0,0,0,0,0,0,0,
0,0,0,0,0,0,0,117,134,0,0,0,0,1848,134,0,0,0,0,0,0,0,0,0,0,0,0,0,0,0,0,0,0,0,1812,108,0,105,1812,1812,0,0,0,0,0,0,0,0,0,0,0,0,
0,0,0,0,0,0,0,0,0,0,0,0,1848,1833,117,118,134,0,0,0,0,0,0,0,0,0,0,0,0,0,0,0,0,0,0,124,0,1786,1812,0,0,0,0,0,0,0,0,0,0,0,0,0,
0,0,0,0,0,0,0,0,0,0,0,0,0,0,0,0,0,0,0,0,0,0,0,0,0,0,0,0,0,0,0,0,0,0,0,108,0,105,1812,0,0,0,0,0,0,0,0,0,0,0,0,0,
0,0,0,0,0,0,0,0,0,0,0,0,0,0,0,0,0,0,0,0,0,0,0,0,0,0,0,0,0,0,0,0,0,0,0,1789,0,1850,1812,0,0,0,0,0,0,0,0,0,0,0,0,0,
0,0,0,0,0,0,0,0,0,0,0,0,0,0,0,0,0,0,0,0,0,0,0,0,0,0,0,0,0,0,0,0,0,0,0,0,0,0,0,0,0,0,0,0,0,0,0,0,0,0,0,0,
0,0,0,0,0,0,0,0,0,0,0,0,0,0,0,0,0,0,0,0,0,0,0,0,0,0,0,0,0,0,0,0,0,0,0,0,0,0,0,0,0,0,0,0,0,0,0,0,0,0,0,0,
0,0,0,0,0,0,0,0,0,0,0,0,0,0,0,0,0,0,0,0,0,0,0,0,0,0,0,0,0,0,0,0,0,0,0,0,0,0,0,0,0,0,0,0,0,0,0,0,0,0,0,0,
0,0,0,0,0,0,0,0,0,0,0,0,0,0,0,0,0,0,0,0,0,0,0,0,0,0,0,0,0,0,0,0,0,0,0,0,0,0,0,0,0,0,0,0,0,0,0,0,0,0,0,0,
0,0,0,0,0,0,0,0,0,0,0,0,0,0,0,0,0,0,0,0,0,0,0,0,0,0,0,0,0,0,0,0,0,0,0,0,0,0,1818,0,0,0,0,0,1863,0,0,0,0,0,0,0,
0,0,0,0,0,0,0,0,0,0,0,0,0,0,0,0,0,0,0,0,0,0,0,0,0,0,0,0,0,0,0,0,0,0,0,0,0,1848,1833,0,0,0,0,1812,1879,1812,0,0,0,0,0,0,
0,0,0,0,0,0,0,0,0,0,0,0,0,0,0,0,0,0,0,0,0,0,0,0,0,0,0,0,0,0,0,0,0,0,0,0,1846,1812,0,0,0,0,0,1812,1879,1799,0,0,0,0,0,0,
0,0,0,0,0,0,0,0,0,0,0,0,0,0,0,0,0,0,0,0,0,0,0,0,0,0,0,0,0,0,0,0,0,0,0,1846,1812,0,0,0,0,0,0,1968,1879,0,0,0,0,0,0,0,
0,0,0,0,1816,0,0,0,0,0,0,0,0,0,668,0,0,0,0,0,0,0,0,0,0,0,0,0,0,0,0,0,0,0,1848,1833,0,0,0,0,0,0,0,0,1879,0,0,0,0,0,0,0,
0,0,0,0,1812,1817,1847,0,0,0,0,0,0,0,0,0,0,0,0,0,0,0,0,1848,1831,1832,1831,1832,1847,0,0,0,0,0,0,0,0,0,0,0,0,0,0,0,1879,0,0,0,0,0,0,0,
0,0,0,0,0,1812,1821,666,667,668,0,0,0,0,0,0,0,150,0,0,0,0,1848,1833,0,0,0,0,1812,1817,1847,0,0,0,0,0,0,0,0,0,0,0,0,0,0,0,0,0,0,0,0,0,
0,0,0,0,0,1812,1837,698,699,700,0,0,0,0,0,0,0,166,0,0,0,1846,2119,0,0,0,0,0,0,1812,1830,1847,0,0,0,0,0,0,0,0,0,0,0,0,0,0,0,0,0,0,0,0,
0,0,0,0,0,1812,0,730,731,732,0,0,0,0,0,0,0,166,0,0,1846,1812,0,0,0,0,0,0,0,0,1812,1837,0,0,0,0,0,0,0,0,0,0,0,0,0,0,0,0,0,0,0,0,
0,0,0,0,0,0,0,0,0,0,0,0,0,0,0,0,0,166,0,1848,1833,0,0,0,0,0,0,0,0,0,0,1812,1817,1847,0,0,0,0,0,0,0,0,0,0,0,0,0,0,0,0,0,0,
0,0,0,0,0,0,0,0,0,0,0,0,0,0,0,0,0,0,0,0,0,0,0,0,0,0,0,0,0,0,0,0,1812,1830,1847,0,0,0,0,0,1848,1831,1832,1831,0,1812,1812,0,0,0,0,0,
0,0,0,0,0,0,0,0,0,0,0,0,0,0,0,0,0,0,0,0,1812,0,0,0,0,0,0,0,0,0,0,0,0,1812,1812,1816,0,0,0,1848,1833,1812,1812,1812,1812,0,0,0,0,0,0,0,
0,0,0,0,0,0,0,0,0,0,0,0,0,0,0,0,0,0,0,0,1812,0,0,0,0,0,0,0,0,0,0,0,0,0,0,1812,0,0,0,0,1812,0,0,0,0,0,0,0,0,0,0,0,
0,0,0,0,0,0,0,0,0,0,0,0,0,0,0,150,0,0,0,0,0,0,0,0,0,0,0,0,0,0,0,0,0,0,0,0,1812,1879,1812,1812,0,0,0,0,0,0,0,0,0,0,0,0,
0,0,0,0,0,0,0,0,0,0,0,0,0,0,0,0,0,0,0,0,0,0,0,0,0,0,0,0,0,0,0,0,0,0,0,0,0,0,0,0,0,0,0,0,0,0,0,0,0,0,0,0,
0,0,0,0,0,0,0,0,0,0,0,0,0,0,0,0,0,0,0,0,0,0,0,0,0,0,0,0,0,0,0,0,0,0,0,0,0,0,0,0,0,0,0,0,0,0,0,0,0,0,0,0,
0,0,0,0,0,0,0,0,0,0,0,0,0,0,0,0,0,0,0,0,0,0,0,0,0,0,0,0,0,0,0,0,0,0,0,0,0,0,0,0,0,0,0,0,0,0,0,0,0,0,0,0
</data>
 </layer>
 <layer id="4" name="Paths" width="52" height="60">
  <data encoding="csv">
0,0,0,0,0,0,0,0,0,0,0,0,0,0,0,0,0,0,0,0,0,0,0,0,0,0,0,0,0,0,0,0,0,0,0,0,0,0,0,0,0,0,0,0,0,0,0,0,0,0,0,0,
0,0,0,0,0,0,0,0,0,0,0,0,0,0,0,0,0,0,0,0,0,0,0,0,0,0,0,0,0,0,0,0,0,0,0,0,0,0,0,0,0,0,0,0,0,0,0,0,0,0,0,0,
0,0,0,0,0,0,0,0,0,0,0,0,0,0,0,0,0,0,0,0,0,0,0,0,0,0,0,0,0,0,0,0,0,0,0,0,0,0,0,0,0,0,0,0,0,0,0,0,0,0,0,0,
0,0,0,0,0,0,0,0,0,0,0,0,0,0,0,0,0,0,0,0,0,0,0,0,0,0,0,0,0,0,0,0,0,0,0,0,0,0,0,0,0,0,0,0,0,0,0,0,0,0,0,0,
0,0,0,0,0,0,0,0,0,0,0,0,0,0,0,0,0,0,0,0,0,0,0,0,0,0,0,0,0,0,0,0,0,0,0,0,0,0,0,0,0,0,0,0,0,0,0,0,0,0,0,0,
0,0,0,0,0,0,0,0,0,0,0,0,0,0,0,0,0,0,0,0,0,0,0,0,0,0,0,0,0,0,0,0,0,0,0,0,0,0,0,0,0,0,0,0,0,0,0,0,0,0,0,0,
0,0,0,0,0,0,0,0,0,0,0,0,0,0,0,0,0,0,0,0,0,0,0,0,0,0,0,0,0,0,0,0,0,0,0,0,0,0,0,0,0,0,0,0,0,0,0,0,0,0,0,0,
0,0,0,0,0,0,0,0,0,0,0,0,0,0,0,0,0,0,0,0,0,0,0,0,0,0,0,0,0,0,0,0,0,0,0,0,0,0,0,0,0,0,0,0,0,0,0,0,0,0,0,0,
0,0,0,0,0,0,0,0,0,0,0,0,0,0,0,0,0,0,0,0,0,0,0,0,0,0,0,0,0,0,0,0,0,0,0,0,0,0,0,0,0,0,0,0,0,0,0,0,0,0,0,0,
0,0,0,0,0,0,0,0,0,0,0,0,0,0,0,0,0,0,0,0,0,0,0,0,0,0,0,0,0,0,0,0,0,0,0,0,0,0,0,0,0,0,0,0,0,0,0,0,0,0,0,0,
0,0,0,0,0,0,0,0,0,0,0,0,0,0,0,0,0,0,0,0,0,0,0,0,0,0,0,0,0,0,0,0,0,0,0,0,0,0,0,0,0,0,0,0,0,0,0,0,0,0,0,0,
0,0,0,0,0,0,0,0,0,0,0,0,0,0,0,0,0,0,0,0,0,0,0,0,0,0,0,0,0,0,0,0,0,0,0,0,0,0,0,0,0,0,0,0,0,0,0,0,0,0,0,0,
0,0,0,0,0,0,0,0,0,0,0,0,0,0,0,0,0,0,0,0,0,0,0,0,0,0,0,0,0,0,0,0,0,0,0,0,0,0,0,0,0,0,0,0,0,0,0,0,0,0,0,0,
0,0,0,0,0,0,0,0,0,0,0,0,0,0,0,0,0,0,0,0,0,0,0,0,0,0,0,0,0,0,0,0,0,0,0,0,0,0,0,0,0,0,0,0,0,0,0,0,0,0,0,0,
0,0,0,0,0,0,0,0,0,0,0,0,0,0,0,0,0,0,0,0,0,0,0,0,0,0,0,0,0,0,0,0,0,0,0,0,0,0,0,0,0,0,0,0,0,0,0,0,0,0,0,0,
0,0,0,0,0,0,0,0,0,0,0,0,0,0,0,0,0,0,0,0,0,0,0,0,0,0,0,0,0,0,0,0,0,0,0,0,0,0,0,0,0,0,0,0,0,0,0,0,0,0,0,0,
0,0,0,0,0,0,0,0,0,0,0,0,0,0,0,0,0,0,0,0,0,0,0,0,0,0,0,0,0,0,0,0,0,0,0,0,0,0,0,0,0,0,0,0,0,0,0,0,0,0,0,0,
0,0,0,0,0,0,0,0,0,0,0,0,0,0,0,0,0,0,0,0,0,0,0,0,0,0,0,0,0,0,0,0,0,0,0,0,0,0,0,0,0,0,0,0,0,0,0,0,0,0,0,0,
0,0,0,0,0,0,0,0,0,0,0,0,0,0,0,0,0,0,0,0,0,0,0,0,0,0,0,0,0,0,0,0,0,0,0,0,0,0,0,0,0,0,0,0,0,0,0,0,0,0,0,0,
0,0,0,0,0,0,0,0,0,0,0,0,0,0,0,0,0,0,0,0,0,0,0,0,0,0,0,0,0,0,0,0,0,0,0,0,0,0,0,0,0,0,0,0,0,0,0,0,0,0,0,0,
0,0,0,0,0,0,0,0,0,0,0,0,0,0,0,0,0,0,0,0,0,0,0,0,0,0,0,0,0,0,0,0,0,0,0,0,0,1658,0,1658,0,0,0,0,0,0,0,0,0,0,0,0,
0,0,0,0,0,0,0,0,0,0,0,0,0,0,0,0,0,0,0,0,0,0,0,0,0,0,0,0,0,0,0,0,0,0,0,0,1658,0,1658,0,1658,0,0,0,0,0,0,0,0,0,0,0,
0,0,0,0,0,0,0,0,0,0,0,0,0,0,0,0,0,0,0,0,0,0,0,0,0,0,0,0,0,0,0,0,0,0,0,0,0,0,0,0,0,0,0,0,0,0,0,0,0,0,0,0,
0,0,0,0,0,0,0,0,0,0,0,0,0,0,0,0,0,0,0,0,0,0,0,0,0,0,0,0,0,0,0,0,0,0,0,0,0,0,0,0,0,0,0,0,0,0,0,0,0,0,0,0,
0,0,0,0,0,0,0,0,0,0,0,0,0,0,0,0,0,0,0,0,0,0,0,0,0,0,0,0,0,0,0,0,0,0,0,0,0,0,0,0,0,0,0,0,0,0,0,0,0,0,0,0,
0,0,0,0,0,0,0,0,0,0,0,0,0,0,0,0,0,0,0,0,0,0,0,0,0,0,0,0,0,0,0,0,0,0,0,0,0,0,0,0,0,0,0,0,0,0,0,0,0,0,0,0,
0,0,0,0,0,0,0,0,0,0,0,0,0,0,0,0,0,0,0,0,0,0,0,0,0,0,0,0,0,0,0,0,0,0,0,0,0,0,0,0,0,0,0,0,0,0,0,0,0,0,0,0,
0,0,0,0,0,0,0,0,0,0,0,0,0,0,0,0,0,0,0,0,0,0,0,0,0,0,0,0,0,0,0,0,0,0,0,0,0,0,0,0,0,0,0,0,0,0,0,0,0,0,0,0,
0,0,0,0,0,0,0,0,0,0,0,0,0,0,0,0,0,0,0,0,0,0,0,0,0,0,0,0,0,0,0,0,0,0,0,0,0,0,0,0,0,0,0,0,0,0,0,0,0,0,0,0,
0,0,0,0,0,0,0,0,0,0,0,0,0,0,0,0,0,0,0,0,0,0,0,0,0,0,0,0,0,0,0,0,0,0,0,0,0,0,0,0,0,0,0,0,0,0,0,0,0,0,0,0,
0,0,0,0,0,0,0,0,0,0,0,0,0,0,0,0,0,0,0,0,0,0,0,0,0,0,0,0,0,0,0,0,0,0,0,0,0,0,0,0,0,0,0,0,0,0,0,0,0,0,0,0,
0,0,0,0,0,0,0,0,0,0,0,0,0,0,0,0,0,0,0,0,0,0,0,0,0,0,0,0,0,0,0,0,0,0,0,0,0,0,0,0,0,0,0,0,0,0,0,0,0,0,0,0,
0,0,0,0,0,0,0,0,0,0,0,0,0,0,0,0,0,0,0,0,0,0,0,0,0,0,0,0,0,0,0,0,0,0,0,0,0,0,0,0,0,0,0,0,0,0,0,0,0,0,0,0,
0,0,0,0,0,0,0,0,0,0,0,0,0,0,0,0,0,0,0,0,0,0,0,0,0,0,0,0,0,0,0,0,0,0,0,0,0,0,0,0,0,0,0,0,0,0,0,0,0,0,0,0,
0,0,0,0,0,0,0,0,0,0,0,0,0,0,0,0,0,0,0,0,0,0,0,0,0,0,0,0,0,0,0,0,0,0,0,0,0,0,0,0,0,0,0,0,0,0,0,0,0,0,0,0,
0,0,0,0,0,0,0,0,0,0,0,0,0,0,0,0,0,0,0,0,0,0,0,0,0,0,0,0,0,0,0,0,0,0,0,0,0,0,0,0,0,0,0,0,0,0,0,0,0,0,0,0,
0,0,0,0,0,0,0,0,0,0,0,0,0,0,0,0,0,0,0,0,0,0,0,0,0,0,0,0,0,0,0,0,0,0,0,0,0,0,0,0,0,0,0,0,0,0,0,0,0,0,0,0,
0,0,0,0,0,0,0,0,0,0,0,0,0,0,0,0,0,0,0,0,0,0,0,0,0,0,0,0,0,0,0,0,0,0,0,0,0,0,0,0,0,0,0,0,0,0,0,0,0,0,0,0,
0,0,0,0,0,0,0,0,0,0,0,0,0,0,0,0,0,0,0,0,0,0,0,0,0,0,0,0,0,0,0,0,0,0,0,0,0,0,0,0,0,0,0,0,0,0,0,0,0,0,0,0,
0,0,0,0,0,0,0,0,0,0,0,0,0,0,0,0,0,0,0,0,0,0,0,0,0,0,0,0,0,0,0,0,0,0,0,0,0,0,0,0,0,0,0,0,0,0,0,0,0,0,0,0,
0,0,0,0,0,0,0,0,0,0,0,0,0,0,0,0,0,0,0,0,0,0,0,0,0,0,0,0,0,0,0,0,0,0,0,0,0,0,0,0,0,0,0,0,0,0,0,0,0,0,0,0,
0,0,0,0,0,0,0,0,0,0,0,0,0,0,0,0,0,0,0,0,0,0,0,0,0,0,0,0,0,0,0,0,0,0,0,0,0,0,0,0,0,0,0,0,0,0,0,0,0,0,0,0,
0,0,0,0,0,0,0,0,0,0,0,0,0,0,0,0,0,0,0,0,0,0,0,0,0,0,0,0,0,0,0,0,0,0,0,0,0,0,0,0,0,0,0,0,0,0,0,0,0,0,0,0,
0,0,0,0,0,0,0,0,0,0,0,0,0,0,0,0,0,0,0,0,0,0,0,0,0,0,0,0,0,0,0,0,0,0,0,0,0,0,0,0,0,0,0,0,0,0,0,0,0,0,0,0,
0,0,0,0,0,0,0,0,0,0,0,0,0,0,0,0,0,0,0,0,0,0,0,0,0,0,0,0,0,0,0,0,0,0,0,0,0,0,0,0,0,0,0,0,0,0,0,0,0,0,0,0,
0,0,0,0,0,0,0,0,0,0,0,0,0,0,0,0,0,0,0,0,0,0,0,0,0,0,0,0,0,0,0,0,0,0,0,0,0,0,0,0,0,0,0,0,0,0,0,0,0,0,0,0,
0,0,0,0,0,0,0,0,0,0,0,0,0,0,0,0,0,0,0,0,0,0,0,0,0,0,0,0,0,0,0,0,0,0,0,0,0,0,0,0,0,0,0,0,0,0,0,0,0,0,0,0,
0,0,0,0,0,0,0,0,0,0,0,0,0,0,0,0,0,0,0,0,0,0,0,0,0,0,0,0,0,0,0,0,0,0,0,0,0,0,0,0,0,0,0,0,0,0,0,0,0,0,0,0,
0,0,0,0,0,0,0,0,0,0,0,0,0,0,0,0,0,0,0,0,0,0,0,0,0,0,0,0,0,0,0,0,0,0,0,0,0,0,0,0,0,0,0,0,0,0,0,0,0,0,0,0,
0,0,0,0,0,0,0,0,0,0,0,0,0,0,0,0,0,0,0,0,0,0,0,0,0,0,0,0,0,0,0,0,0,0,0,0,0,0,0,0,0,0,0,0,0,0,0,0,0,0,0,0,
0,0,0,0,0,0,0,0,0,0,0,0,0,0,0,0,0,0,0,0,0,0,0,0,0,0,0,0,0,0,0,0,0,0,0,0,0,0,0,0,0,0,0,0,0,0,0,0,0,0,0,0,
0,0,0,0,0,0,0,0,0,0,0,0,0,0,0,0,0,0,0,0,0,0,0,0,0,0,0,0,0,0,0,0,0,0,0,0,0,0,0,0,0,0,0,0,0,0,0,0,0,0,0,0,
0,0,0,0,0,0,0,0,0,0,0,0,0,0,0,0,0,0,0,0,0,0,0,0,0,0,0,0,0,0,0,0,0,0,0,0,0,0,0,0,0,0,0,0,0,0,0,0,0,0,0,0,
0,0,0,0,0,0,0,0,0,0,0,0,0,0,0,0,0,0,0,0,0,0,0,0,0,0,0,0,0,0,0,0,0,0,0,0,0,0,0,0,0,0,0,0,0,0,0,0,0,0,0,0,
0,0,0,0,0,0,0,0,0,0,0,0,0,0,0,0,0,0,0,0,0,0,0,0,0,0,0,0,0,0,0,0,0,0,0,0,0,0,0,0,0,0,0,0,0,0,0,0,0,0,0,0,
0,0,0,0,0,0,0,0,0,0,0,0,0,0,0,0,0,0,0,0,0,0,0,0,0,0,0,0,0,0,0,0,0,0,0,0,0,0,0,0,0,0,0,0,0,0,0,0,0,0,0,0,
0,0,0,0,0,0,0,0,0,0,0,0,0,0,0,0,0,0,0,0,0,0,0,0,0,0,0,0,0,0,0,0,0,0,0,0,0,0,0,0,0,0,0,0,0,0,0,0,0,0,0,0,
0,0,0,0,0,0,0,0,0,0,0,0,0,0,0,0,0,0,0,0,0,0,0,0,0,0,0,0,0,0,0,0,0,0,0,0,0,0,0,0,0,0,0,0,0,0,0,0,0,0,0,0,
0,0,0,0,0,0,0,0,0,0,0,0,0,0,0,0,0,0,0,0,0,0,0,0,0,0,0,0,0,0,0,0,0,0,0,0,0,0,0,0,0,0,0,0,0,0,0,0,0,0,0,0,
0,0,0,0,0,0,0,0,0,0,0,0,0,0,0,0,0,0,0,0,0,0,0,0,0,0,0,0,0,0,0,0,0,0,0,0,0,0,0,0,0,0,0,0,0,0,0,0,0,0,0,0
</data>
 </layer>
 <objectgroup id="6" name="Back">
  <properties>
   <property name="TouchAction" value="ChangeIntoSwimsuit"/>
  </properties>
  <object id="46" name="TileData" x="608" y="336" width="16" height="16">
   <properties>
    <property name="TouchAction" value="MagicWarp Canyon_summit2 22 12"/>
   </properties>
  </object>
 </objectgroup>
 <objectgroup id="7" name="Buildings"/>
 <objectgroup id="8" name="Front"/>
 <objectgroup id="9" name="Paths"/>
 <objectgroup id="10" name="AlwaysFront"/>
</map>
