<?xml version="1.0" encoding="UTF-8"?>
<map version="1.10" tiledversion="1.11.0" orientation="orthogonal" renderorder="right-down" compressionlevel="0" width="40" height="39" tilewidth="16" tileheight="16" infinite="0" nextlayerid="12" nextobjectid="77">
 <properties>
  <property name="Fall_Objects" value="T"/>
  <property name="Music" value="ocean"/>
  <property name="MusicIgnoreInRain" value="t"/>
  <property name="Outdoors" value="T"/>
  <property name="Spring_Objects" value="T"/>
  <property name="Summer_Objects" value="T"/>
  <property name="Winter_Objects" value="T"/>
  <property name="forceLoadPathLayerLights" value="T"/>
 </properties>
 <tileset firstgid="1" name="island_tilesheet_1" tilewidth="16" tileheight="16" tilecount="2080" columns="32">
  <image source="island_tilesheet_1" width="512" height="1040"/>
  <tile id="7">
   <properties>
    <property name="Water" value="T"/>
   </properties>
  </tile>
  <tile id="8">
   <properties>
    <property name="Water" value="T"/>
   </properties>
  </tile>
  <tile id="33">
   <properties>
    <property name="Diggable" value="T"/>
    <property name="Type" value="Dirt"/>
   </properties>
  </tile>
  <tile id="34">
   <properties>
    <property name="Diggable" value="T"/>
    <property name="Type" value="Dirt"/>
   </properties>
  </tile>
  <tile id="35">
   <properties>
    <property name="Diggable" value="T"/>
    <property name="Type" value="Dirt"/>
   </properties>
  </tile>
  <tile id="36">
   <properties>
    <property name="Type" value="Dirt"/>
   </properties>
  </tile>
  <tile id="37">
   <properties>
    <property name="Type" value="Dirt"/>
   </properties>
  </tile>
  <tile id="38">
   <properties>
    <property name="Type" value="Dirt"/>
   </properties>
  </tile>
  <tile id="39">
   <properties>
    <property name="Type" value="Dirt"/>
   </properties>
  </tile>
  <tile id="40">
   <properties>
    <property name="Diggable" value="T"/>
    <property name="Type" value="Dirt"/>
   </properties>
  </tile>
  <tile id="41">
   <properties>
    <property name="Diggable" value="T"/>
    <property name="Type" value="Dirt"/>
   </properties>
  </tile>
  <tile id="64">
   <properties>
    <property name="Type" value="Dirt"/>
   </properties>
  </tile>
  <tile id="65">
   <properties>
    <property name="Type" value="Dirt"/>
   </properties>
  </tile>
  <tile id="66">
   <properties>
    <property name="Type" value="Dirt"/>
   </properties>
  </tile>
  <tile id="67">
   <properties>
    <property name="Type" value="Dirt"/>
   </properties>
  </tile>
  <tile id="71">
   <properties>
    <property name="Type" value="Dirt"/>
   </properties>
  </tile>
  <tile id="72">
   <properties>
    <property name="Diggable" value="T"/>
    <property name="Type" value="Dirt"/>
   </properties>
  </tile>
  <tile id="73">
   <properties>
    <property name="Diggable" value="T"/>
    <property name="Type" value="Dirt"/>
   </properties>
  </tile>
  <tile id="96">
   <properties>
    <property name="Type" value="Dirt"/>
   </properties>
  </tile>
  <tile id="97">
   <properties>
    <property name="Type" value="Dirt"/>
   </properties>
  </tile>
  <tile id="98">
   <properties>
    <property name="Type" value="Dirt"/>
   </properties>
  </tile>
  <tile id="99">
   <properties>
    <property name="Type" value="Dirt"/>
   </properties>
  </tile>
  <tile id="103">
   <properties>
    <property name="Type" value="Dirt"/>
   </properties>
  </tile>
  <tile id="104">
   <properties>
    <property name="Type" value="Dirt"/>
   </properties>
  </tile>
  <tile id="128">
   <properties>
    <property name="Type" value="Dirt"/>
   </properties>
  </tile>
  <tile id="129">
   <properties>
    <property name="Type" value="Dirt"/>
   </properties>
  </tile>
  <tile id="130">
   <properties>
    <property name="Type" value="Dirt"/>
   </properties>
  </tile>
  <tile id="131">
   <properties>
    <property name="Type" value="Dirt"/>
   </properties>
  </tile>
  <tile id="135">
   <properties>
    <property name="Water" value="T"/>
   </properties>
  </tile>
  <tile id="160">
   <properties>
    <property name="Water" value="T"/>
   </properties>
  </tile>
  <tile id="161">
   <properties>
    <property name="Water" value="T"/>
   </properties>
  </tile>
  <tile id="162">
   <properties>
    <property name="Water" value="T"/>
   </properties>
  </tile>
  <tile id="163">
   <properties>
    <property name="Water" value="T"/>
   </properties>
  </tile>
  <tile id="164">
   <properties>
    <property name="Water" value="T"/>
   </properties>
  </tile>
  <tile id="165">
   <properties>
    <property name="Water" value="T"/>
   </properties>
  </tile>
  <tile id="166">
   <properties>
    <property name="Water" value="T"/>
   </properties>
  </tile>
  <tile id="167">
   <properties>
    <property name="Water" value="T"/>
   </properties>
  </tile>
  <tile id="168">
   <properties>
    <property name="Water" value="T"/>
   </properties>
  </tile>
  <tile id="192">
   <properties>
    <property name="Water" value="T"/>
   </properties>
  </tile>
  <tile id="193">
   <properties>
    <property name="Water" value="T"/>
   </properties>
  </tile>
  <tile id="197">
   <properties>
    <property name="Type" value="Dirt"/>
    <property name="Water" value="T"/>
   </properties>
  </tile>
  <tile id="198">
   <properties>
    <property name="Water" value="T"/>
   </properties>
  </tile>
  <tile id="199">
   <properties>
    <property name="Water" value="T"/>
   </properties>
  </tile>
  <tile id="200">
   <properties>
    <property name="Water" value="T"/>
   </properties>
  </tile>
  <tile id="225">
   <properties>
    <property name="Water" value="T"/>
   </properties>
  </tile>
  <tile id="229">
   <properties>
    <property name="Water" value="T"/>
   </properties>
  </tile>
  <tile id="230">
   <properties>
    <property name="Water" value="T"/>
   </properties>
  </tile>
  <tile id="231">
   <properties>
    <property name="Water" value="T"/>
   </properties>
  </tile>
  <tile id="232">
   <properties>
    <property name="Water" value="T"/>
   </properties>
  </tile>
  <tile id="234">
   <properties>
    <property name="Water" value="T"/>
   </properties>
  </tile>
  <tile id="235">
   <properties>
    <property name="Water" value="T"/>
   </properties>
  </tile>
  <tile id="236">
   <properties>
    <property name="Water" value="T"/>
   </properties>
  </tile>
  <tile id="256">
   <properties>
    <property name="Water" value="T"/>
   </properties>
  </tile>
  <tile id="257">
   <properties>
    <property name="Water" value="T"/>
   </properties>
  </tile>
  <tile id="261">
   <properties>
    <property name="Passable" value="T"/>
   </properties>
   <animation>
    <frame tileid="261" duration="250"/>
    <frame tileid="261" duration="250"/>
    <frame tileid="261" duration="250"/>
    <frame tileid="261" duration="250"/>
    <frame tileid="262" duration="250"/>
    <frame tileid="263" duration="250"/>
    <frame tileid="264" duration="250"/>
    <frame tileid="264" duration="250"/>
    <frame tileid="265" duration="250"/>
    <frame tileid="266" duration="250"/>
    <frame tileid="267" duration="250"/>
    <frame tileid="261" duration="250"/>
    <frame tileid="261" duration="250"/>
   </animation>
  </tile>
  <tile id="262">
   <properties>
    <property name="Passable" value="T"/>
   </properties>
  </tile>
  <tile id="263">
   <properties>
    <property name="Passable" value="T"/>
   </properties>
  </tile>
  <tile id="264">
   <properties>
    <property name="Passable" value="T"/>
   </properties>
  </tile>
  <tile id="265">
   <properties>
    <property name="Passable" value="T"/>
   </properties>
  </tile>
  <tile id="266">
   <properties>
    <property name="Passable" value="T"/>
   </properties>
  </tile>
  <tile id="267">
   <properties>
    <property name="Passable" value="T"/>
   </properties>
  </tile>
  <tile id="268">
   <properties>
    <property name="Water" value="T"/>
   </properties>
  </tile>
  <tile id="288">
   <properties>
    <property name="Water" value="T"/>
   </properties>
  </tile>
  <tile id="289">
   <properties>
    <property name="Water" value="T"/>
   </properties>
  </tile>
  <tile id="293">
   <properties>
    <property name="Passable" value="T"/>
   </properties>
   <animation>
    <frame tileid="293" duration="250"/>
    <frame tileid="293" duration="250"/>
    <frame tileid="293" duration="250"/>
    <frame tileid="293" duration="250"/>
    <frame tileid="294" duration="250"/>
    <frame tileid="295" duration="250"/>
    <frame tileid="296" duration="250"/>
    <frame tileid="296" duration="250"/>
    <frame tileid="297" duration="250"/>
    <frame tileid="298" duration="250"/>
    <frame tileid="299" duration="250"/>
    <frame tileid="293" duration="250"/>
    <frame tileid="293" duration="250"/>
   </animation>
  </tile>
  <tile id="294">
   <properties>
    <property name="Passable" value="T"/>
   </properties>
  </tile>
  <tile id="295">
   <properties>
    <property name="Passable" value="T"/>
   </properties>
  </tile>
  <tile id="296">
   <properties>
    <property name="Passable" value="T"/>
   </properties>
  </tile>
  <tile id="297">
   <properties>
    <property name="Passable" value="T"/>
   </properties>
  </tile>
  <tile id="298">
   <properties>
    <property name="Passable" value="T"/>
   </properties>
  </tile>
  <tile id="299">
   <properties>
    <property name="Passable" value="T"/>
   </properties>
  </tile>
  <tile id="300">
   <properties>
    <property name="Water" value="T"/>
   </properties>
  </tile>
  <tile id="303">
   <properties>
    <property name="Diggable" value="T"/>
    <property name="Type" value="Dirt"/>
   </properties>
  </tile>
  <tile id="320">
   <properties>
    <property name="Water" value="T"/>
   </properties>
  </tile>
  <tile id="321">
   <properties>
    <property name="Water" value="T"/>
   </properties>
  </tile>
  <tile id="325">
   <properties>
    <property name="Passable" value="T"/>
   </properties>
  </tile>
  <tile id="326">
   <properties>
    <property name="Passable" value="T"/>
   </properties>
  </tile>
  <tile id="327">
   <properties>
    <property name="Passable" value="T"/>
   </properties>
  </tile>
  <tile id="328">
   <properties>
    <property name="Passable" value="T"/>
   </properties>
  </tile>
  <tile id="329">
   <properties>
    <property name="Passable" value="T"/>
   </properties>
  </tile>
  <tile id="330">
   <properties>
    <property name="Passable" value="T"/>
   </properties>
  </tile>
  <tile id="331">
   <properties>
    <property name="Passable" value="T"/>
   </properties>
  </tile>
  <tile id="335">
   <properties>
    <property name="Water" value="T"/>
   </properties>
  </tile>
  <tile id="357">
   <properties>
    <property name="Passable" value="T"/>
   </properties>
  </tile>
  <tile id="358">
   <properties>
    <property name="Passable" value="T"/>
   </properties>
  </tile>
  <tile id="359">
   <properties>
    <property name="Passable" value="T"/>
   </properties>
  </tile>
  <tile id="360">
   <properties>
    <property name="Passable" value="T"/>
   </properties>
  </tile>
  <tile id="361">
   <properties>
    <property name="Passable" value="T"/>
   </properties>
  </tile>
  <tile id="362">
   <properties>
    <property name="Passable" value="T"/>
   </properties>
  </tile>
  <tile id="363">
   <properties>
    <property name="Passable" value="T"/>
   </properties>
  </tile>
  <tile id="368">
   <properties>
    <property name="Water" value="T"/>
   </properties>
  </tile>
  <tile id="389">
   <properties>
    <property name="Passable" value="T"/>
   </properties>
  </tile>
  <tile id="390">
   <properties>
    <property name="Passable" value="T"/>
   </properties>
  </tile>
  <tile id="391">
   <properties>
    <property name="Passable" value="T"/>
   </properties>
  </tile>
  <tile id="392">
   <properties>
    <property name="Passable" value="T"/>
   </properties>
  </tile>
  <tile id="393">
   <properties>
    <property name="Passable" value="T"/>
   </properties>
  </tile>
  <tile id="394">
   <properties>
    <property name="Passable" value="T"/>
   </properties>
  </tile>
  <tile id="395">
   <properties>
    <property name="Passable" value="T"/>
   </properties>
  </tile>
  <tile id="421">
   <properties>
    <property name="Passable" value="T"/>
   </properties>
   <animation>
    <frame tileid="421" duration="250"/>
    <frame tileid="421" duration="250"/>
    <frame tileid="421" duration="250"/>
    <frame tileid="421" duration="250"/>
    <frame tileid="422" duration="250"/>
    <frame tileid="423" duration="250"/>
    <frame tileid="424" duration="250"/>
    <frame tileid="424" duration="250"/>
    <frame tileid="425" duration="250"/>
    <frame tileid="426" duration="250"/>
    <frame tileid="427" duration="250"/>
    <frame tileid="421" duration="250"/>
    <frame tileid="421" duration="250"/>
   </animation>
  </tile>
  <tile id="422">
   <properties>
    <property name="Passable" value="T"/>
   </properties>
  </tile>
  <tile id="423">
   <properties>
    <property name="Passable" value="T"/>
   </properties>
  </tile>
  <tile id="424">
   <properties>
    <property name="Passable" value="T"/>
   </properties>
  </tile>
  <tile id="425">
   <properties>
    <property name="Passable" value="T"/>
   </properties>
  </tile>
  <tile id="426">
   <properties>
    <property name="Passable" value="T"/>
   </properties>
  </tile>
  <tile id="427">
   <properties>
    <property name="Passable" value="T"/>
   </properties>
  </tile>
  <tile id="453">
   <properties>
    <property name="Passable" value="T"/>
   </properties>
   <animation>
    <frame tileid="453" duration="250"/>
    <frame tileid="453" duration="250"/>
    <frame tileid="453" duration="250"/>
    <frame tileid="453" duration="250"/>
    <frame tileid="454" duration="250"/>
    <frame tileid="455" duration="250"/>
    <frame tileid="456" duration="250"/>
    <frame tileid="456" duration="250"/>
    <frame tileid="457" duration="250"/>
    <frame tileid="458" duration="250"/>
    <frame tileid="459" duration="250"/>
    <frame tileid="453" duration="250"/>
    <frame tileid="453" duration="250"/>
   </animation>
  </tile>
  <tile id="454">
   <properties>
    <property name="Passable" value="T"/>
   </properties>
  </tile>
  <tile id="455">
   <properties>
    <property name="Passable" value="T"/>
   </properties>
  </tile>
  <tile id="456">
   <properties>
    <property name="Passable" value="T"/>
   </properties>
  </tile>
  <tile id="457">
   <properties>
    <property name="Passable" value="T"/>
   </properties>
  </tile>
  <tile id="458">
   <properties>
    <property name="Passable" value="T"/>
   </properties>
  </tile>
  <tile id="459">
   <properties>
    <property name="Passable" value="T"/>
   </properties>
  </tile>
  <tile id="485">
   <properties>
    <property name="Passable" value="T"/>
   </properties>
  </tile>
  <tile id="486">
   <properties>
    <property name="Passable" value="T"/>
   </properties>
  </tile>
  <tile id="487">
   <properties>
    <property name="Passable" value="T"/>
   </properties>
  </tile>
  <tile id="488">
   <properties>
    <property name="Passable" value="T"/>
   </properties>
  </tile>
  <tile id="489">
   <properties>
    <property name="Passable" value="T"/>
   </properties>
  </tile>
  <tile id="490">
   <properties>
    <property name="Passable" value="T"/>
   </properties>
  </tile>
  <tile id="491">
   <properties>
    <property name="Passable" value="T"/>
   </properties>
  </tile>
  <tile id="517">
   <properties>
    <property name="Type" value="Wood"/>
   </properties>
  </tile>
  <tile id="518">
   <properties>
    <property name="Type" value="Wood"/>
   </properties>
  </tile>
  <tile id="519">
   <properties>
    <property name="Type" value="Wood"/>
   </properties>
  </tile>
  <tile id="549">
   <properties>
    <property name="Type" value="Wood"/>
   </properties>
  </tile>
  <tile id="550">
   <properties>
    <property name="Type" value="Wood"/>
   </properties>
  </tile>
  <tile id="551">
   <properties>
    <property name="Type" value="Wood"/>
   </properties>
  </tile>
  <tile id="552">
   <properties>
    <property name="Type" value="Wood"/>
   </properties>
  </tile>
  <tile id="553">
   <properties>
    <property name="Type" value="Wood"/>
   </properties>
  </tile>
  <tile id="554">
   <properties>
    <property name="Type" value="Wood"/>
   </properties>
  </tile>
  <tile id="581">
   <properties>
    <property name="Type" value="Wood"/>
   </properties>
  </tile>
  <tile id="582">
   <properties>
    <property name="Type" value="Wood"/>
   </properties>
  </tile>
  <tile id="583">
   <properties>
    <property name="Type" value="Wood"/>
   </properties>
  </tile>
  <tile id="584">
   <properties>
    <property name="Type" value="Wood"/>
   </properties>
  </tile>
  <tile id="585">
   <properties>
    <property name="Type" value="Wood"/>
   </properties>
  </tile>
  <tile id="586">
   <properties>
    <property name="Type" value="Wood"/>
   </properties>
  </tile>
  <tile id="588">
   <properties>
    <property name="Water" value="T"/>
   </properties>
  </tile>
  <tile id="589">
   <properties>
    <property name="Water" value="T"/>
   </properties>
  </tile>
  <tile id="590">
   <properties>
    <property name="Water" value="T"/>
   </properties>
  </tile>
  <tile id="591">
   <properties>
    <property name="Water" value="T"/>
   </properties>
  </tile>
  <tile id="592">
   <properties>
    <property name="Water" value="T"/>
   </properties>
  </tile>
  <tile id="593">
   <properties>
    <property name="Water" value="T"/>
   </properties>
  </tile>
  <tile id="619">
   <properties>
    <property name="Water" value="T"/>
   </properties>
  </tile>
  <tile id="620">
   <properties>
    <property name="Water" value="T"/>
   </properties>
  </tile>
  <tile id="621">
   <properties>
    <property name="Water" value="T"/>
   </properties>
  </tile>
  <tile id="622">
   <properties>
    <property name="Water" value="T"/>
   </properties>
  </tile>
  <tile id="623">
   <properties>
    <property name="Water" value="T"/>
   </properties>
  </tile>
  <tile id="624">
   <properties>
    <property name="Water" value="T"/>
   </properties>
  </tile>
  <tile id="625">
   <properties>
    <property name="Water" value="T"/>
   </properties>
  </tile>
  <tile id="626">
   <properties>
    <property name="Water" value="T"/>
   </properties>
  </tile>
  <tile id="658">
   <properties>
    <property name="Water" value="T"/>
   </properties>
  </tile>
  <tile id="659">
   <properties>
    <property name="Water" value="T"/>
   </properties>
  </tile>
  <tile id="673">
   <properties>
    <property name="Diggable" value="T"/>
    <property name="Type" value="Dirt"/>
   </properties>
  </tile>
  <tile id="674">
   <properties>
    <property name="Diggable" value="T"/>
    <property name="Type" value="Dirt"/>
   </properties>
  </tile>
  <tile id="690">
   <properties>
    <property name="Water" value="T"/>
   </properties>
  </tile>
  <tile id="1651">
   <properties>
    <property name="Water" value="T"/>
   </properties>
  </tile>
  <tile id="1652">
   <properties>
    <property name="Water" value="T"/>
   </properties>
  </tile>
  <tile id="1653">
   <properties>
    <property name="Water" value="T"/>
   </properties>
  </tile>
  <tile id="1682">
   <properties>
    <property name="Water" value="T"/>
   </properties>
  </tile>
  <tile id="1683">
   <properties>
    <property name="Water" value="T"/>
   </properties>
  </tile>
  <tile id="1684">
   <properties>
    <property name="Water" value="T"/>
   </properties>
  </tile>
  <tile id="1685">
   <properties>
    <property name="Water" value="T"/>
   </properties>
  </tile>
  <tile id="1686">
   <properties>
    <property name="Water" value="T"/>
   </properties>
  </tile>
  <tile id="1714">
   <properties>
    <property name="Water" value="T"/>
   </properties>
  </tile>
  <tile id="1715">
   <properties>
    <property name="Water" value="T"/>
   </properties>
  </tile>
  <tile id="1716">
   <properties>
    <property name="Water" value="T"/>
   </properties>
  </tile>
  <tile id="1717">
   <properties>
    <property name="Water" value="T"/>
   </properties>
  </tile>
  <tile id="1718">
   <properties>
    <property name="Water" value="T"/>
   </properties>
  </tile>
  <tile id="1747">
   <properties>
    <property name="Water" value="T"/>
   </properties>
  </tile>
  <tile id="1748">
   <properties>
    <property name="Water" value="T"/>
   </properties>
  </tile>
  <tile id="1749">
   <properties>
    <property name="Water" value="T"/>
   </properties>
  </tile>
  <tile id="1750">
   <properties>
    <property name="Water" value="T"/>
   </properties>
  </tile>
  <tile id="1753">
   <properties>
    <property name="Water" value="T"/>
   </properties>
  </tile>
  <tile id="1754">
   <properties>
    <property name="Water" value="T"/>
   </properties>
  </tile>
  <tile id="1778">
   <properties>
    <property name="Water" value="T"/>
   </properties>
  </tile>
  <tile id="1779">
   <properties>
    <property name="Water" value="T"/>
   </properties>
  </tile>
  <tile id="1780">
   <properties>
    <property name="Water" value="T"/>
   </properties>
  </tile>
  <tile id="1781">
   <properties>
    <property name="Water" value="T"/>
   </properties>
  </tile>
  <tile id="1782">
   <properties>
    <property name="Water" value="T"/>
   </properties>
  </tile>
  <tile id="1783">
   <properties>
    <property name="Water" value="T"/>
   </properties>
  </tile>
  <tile id="1784">
   <properties>
    <property name="Water" value="T"/>
   </properties>
  </tile>
  <tile id="1785">
   <properties>
    <property name="Water" value="T"/>
   </properties>
  </tile>
  <tile id="1786">
   <properties>
    <property name="Water" value="T"/>
   </properties>
  </tile>
  <tile id="1810">
   <properties>
    <property name="Water" value="T"/>
   </properties>
  </tile>
  <tile id="1811">
   <properties>
    <property name="Water" value="T"/>
   </properties>
  </tile>
  <tile id="1812">
   <properties>
    <property name="Water" value="T"/>
   </properties>
  </tile>
  <tile id="1813">
   <properties>
    <property name="Water" value="T"/>
   </properties>
  </tile>
  <tile id="1814">
   <properties>
    <property name="Water" value="T"/>
   </properties>
  </tile>
  <tile id="1815">
   <properties>
    <property name="Water" value="T"/>
   </properties>
  </tile>
  <tile id="1816">
   <properties>
    <property name="Water" value="T"/>
   </properties>
  </tile>
  <tile id="1817">
   <properties>
    <property name="Water" value="T"/>
   </properties>
  </tile>
  <tile id="1818">
   <properties>
    <property name="Water" value="T"/>
   </properties>
  </tile>
 </tileset>
 <tileset firstgid="2081" name="untitled tile sheet2" tilewidth="16" tileheight="16" tilecount="1975" columns="25">
  <image source="summer_outdoorsTileSheet" width="400" height="1264"/>
 </tileset>
 <tileset firstgid="4056" source="summer_outdoorsTileSheet2.tsx"/>
 <tileset firstgid="5176" source="summer_beach.tsx"/>
 <tileset firstgid="5703" source="spring_island_tilesheet_1.tsx"/>
 <tileset firstgid="6983" source="paths.tsx"/>
 <tileset firstgid="7047" source="night_market_tilesheet_objectssa.tsx"/>
 <tileset firstgid="8871" source="spring_outdoorsTileSheet2.tsx"/>
 <tileset firstgid="9991" source="townInterior.tsx"/>
 <tileset firstgid="12167" source="untitled tile sheet.tsx"/>
 <layer id="1" name="Back" width="40" height="39">
  <data encoding="csv">
2284,2356,2356,2356,73,73,2432,2434,2457,2457,2457,2457,2484,2485,2488,2461,2461,2461,2461,2461,2438,2487,2432,2432,2432,2256,2256,2256,2256,73,73,73,2574,2431,2432,2432,2432,2432,2432,2256,
2258,2284,73,73,73,73,2432,2433,2281,2284,2256,2256,2456,2484,2485,2486,2486,2486,2486,2486,2487,2434,2457,2457,2457,2457,2457,2457,2457,2457,2432,2432,2599,2456,2484,2432,2432,2432,2256,2281,
2312,2309,73,73,73,2356,2432,2433,2331,2334,2256,2256,2256,2456,2457,2457,0,0,0,0,2457,2458,2256,2406,2407,2284,2256,2281,2282,2284,2456,2484,2432,2356,2456,2484,2432,2356,2256,2281,
2308,2309,73,2432,2432,2432,2434,2458,2356,2256,2256,2256,2256,2256,73,73,73,73,73,73,73,73,2256,2431,2432,2432,2432,2432,2263,2258,2433,2431,2432,2256,2256,2431,2432,2336,2281,2283,
2308,2309,2432,2432,2434,2458,2281,2282,2284,2256,2336,2256,34,73,73,73,73,5275,5275,5275,73,74,73,2336,2331,2334,2256,2432,2486,2487,2433,2431,2432,2256,2256,2431,2432,2256,2306,2307,
2263,2309,2432,2434,2458,2281,2283,2312,2309,2256,73,337,73,73,73,5328,5258,5328,5226,5192,5258,5258,5192,73,2256,2256,2256,2457,2457,2457,2458,2431,2432,338,2256,2431,2432,2256,2331,2333,
2259,2334,2432,2433,2356,2306,2308,2308,2309,2256,73,74,73,73,5328,5293,5311,5274,5274,5274,5274,5310,5277,34,73,2256,2256,2256,2256,2256,2256,2456,2457,2256,2256,2431,2432,2256,2256,2331,
2334,2356,2432,2433,2356,2331,2332,2332,2334,73,73,73,208,5328,5293,5311,5291,5227,5229,5228,5230,5308,5294,5192,5200,5200,5200,2256,2256,208,40,40,40,2256,2256,2431,2432,2256,2256,2256,
2356,2356,2356,2433,2356,2356,2256,2256,2256,73,73,5275,5275,5276,5311,5291,5200,5244,5218,5201,5247,5309,5310,5294,5192,5200,5200,2256,2256,240,208,208,208,339,2256,2431,2432,2256,2256,2256,
2356,2356,2356,339,2256,2231,2256,2256,2256,5258,5258,5258,5258,5293,5292,5200,5227,5246,5218,5219,5245,5230,5309,5310,5294,5192,5200,5200,5200,239,174,240,241,2256,2456,2456,2484,2432,2256,2256,
2356,2356,2356,2256,2356,2336,2256,2256,2256,5274,5274,5274,5274,5274,5291,5200,5244,5218,5218,5344,5262,5264,5200,5309,5310,5294,5257,5258,5257,5258,12266,12266,5275,208,2256,2256,2456,2432,2432,2432,
2356,2356,2356,2231,2256,2256,2256,2256,2256,5200,5200,5200,5200,5200,5200,5200,5244,5218,5195,5218,5247,5200,5200,5234,5309,5274,5274,12299,5274,12183,12319,12249,5192,5275,2256,2256,2256,2456,2484,2432,
2356,2356,2356,2256,73,73,2256,2256,2256,5200,5234,5200,5200,5200,5200,5227,5246,5218,5219,5196,5245,5229,5230,5200,5200,5200,5200,12300,12301,12285,12284,12284,5294,5192,2256,2256,2256,2256,2456,2484,
2432,2433,73,73,73,73,2256,2256,2256,5200,5227,5228,5229,5228,5229,5246,5362,5194,5214,5215,5215,5216,5245,5229,5228,5229,5228,5229,12300,12265,12265,12265,5310,5294,5192,2256,2256,2256,2256,2456,
2432,2433,73,73,73,73,2256,2256,73,5200,5244,5345,5196,5218,5344,5218,5218,5345,5231,5287,5289,5233,5218,5218,5218,5218,5218,5345,5218,5245,5230,5200,5309,5310,5294,5192,5275,208,208,208,
2432,2433,73,73,2432,2432,2433,72,304,5200,5261,5197,5199,5218,5202,5218,5218,5218,5248,5249,5249,5250,5219,5218,5218,5196,5218,5194,5201,5218,5247,5200,5200,5309,5310,5294,5257,5192,5275,5258,
2434,2458,2432,2432,2432,2434,2458,40,72,5200,5200,5200,5200,5235,5218,5218,5201,5218,5196,5345,5219,5262,5199,5218,5218,5218,5202,5344,5362,5196,5247,5200,5200,5200,5309,5274,5310,5294,5192,5275,
2458,2336,2432,2432,2434,2458,2256,5200,5200,5200,5200,5200,5200,5200,5235,5197,5198,5199,5198,5197,5198,5264,5200,5235,5198,5199,5198,5199,5198,5197,5264,5200,5200,5200,5200,5200,5309,5310,5294,5257,
39,37,2432,2434,2458,2256,2256,5200,5200,5200,5200,5200,5200,5200,5200,5234,5200,12274,12274,12274,12274,12274,12274,12274,5200,5200,5200,5200,5200,5200,5234,5200,5200,5200,5200,5200,5200,5309,5274,5274,
40,40,2457,2458,5200,5200,5200,5200,5200,5200,5200,5200,5200,5200,5200,5200,12274,12274,5341,12274,12274,12274,12274,12274,12274,5200,5200,5200,5283,5283,5283,5283,5283,5283,5283,5283,5283,5283,5283,5283,
40,40,2256,5200,5200,5200,5200,231,5283,5283,5283,5283,5283,5283,5283,5283,5283,5283,5283,5283,5283,5283,5307,5283,5283,5453,5454,5455,5283,5283,5341,5283,5283,5283,5283,5283,5283,5341,5283,5283,
2256,2434,2256,5200,5200,5283,5283,5283,5307,5283,5283,5283,5341,5283,5283,5283,5283,5283,5283,5283,5341,5283,5283,5341,5283,12464,12465,12466,5283,5266,5283,5307,5283,5283,5341,5283,5283,5283,5283,5283,
2432,2433,206,5283,5283,5283,5283,5283,5283,5341,5283,5283,5283,5283,5283,5283,5283,5283,5307,5283,5283,5283,5283,5283,5283,12464,12465,12466,5379,5285,5267,5266,5266,5300,5266,5300,5266,5300,5266,5300,
2457,2458,2256,5283,5283,5283,5283,5324,5283,5283,5283,5266,5300,5266,5300,5266,5300,5266,5300,5266,5283,5283,5341,5324,5283,12464,12465,12466,5285,5285,5285,5285,5285,5285,5285,5285,5285,5285,5285,5285,
2256,2256,5283,5283,5283,5324,5283,5283,5283,5283,5379,5285,5285,5285,5285,5285,5285,5285,5285,5285,5267,5266,5300,5266,5379,12464,12465,12466,5285,5285,5285,5305,5285,5285,5285,5285,5285,5285,5305,5285,
5283,5283,5283,5283,5283,5283,5283,5324,5283,5379,5285,5285,5285,5305,5285,5285,5285,5285,5305,5285,5285,5285,5285,5285,5285,12464,12465,12466,5596,5596,5596,5596,5596,5596,5596,5596,5596,5596,5596,5596,
5283,5283,5283,5283,5341,5283,5283,5283,5379,5285,5285,5285,5285,5285,5302,5268,5302,5268,5302,5268,5302,5268,5302,5268,5302,12464,12465,12466,5511,5511,5510,5511,5511,5510,5511,5511,5510,5511,5511,5510,
5283,5283,5283,5283,5283,5283,5300,5379,5285,5285,5305,5285,5285,5183,5251,5251,5651,5251,5251,5306,5251,5251,5251,5251,5251,12464,12465,12466,5251,5251,5251,5306,5251,5651,5251,5251,5251,5651,5251,5306,
5283,5283,5283,5283,5266,5379,5285,5285,5285,5285,5285,5285,5183,5251,5634,5251,5251,5599,5600,5251,5251,5634,5306,5251,5251,12464,12465,12466,5251,5599,5600,5251,5251,5251,5361,5251,5251,5251,5251,5251,
5283,5283,5283,5379,5285,5285,5285,5285,5285,5285,5285,5183,5251,5306,5251,5251,5251,5616,5617,5251,5651,5251,5651,5251,5251,12481,12482,12483,5251,5616,5617,5251,5251,5306,5251,5251,5251,5306,5634,5251,
5283,5300,5379,5285,5285,5285,5285,5285,5285,5285,5183,5251,5251,5251,5251,5251,5251,5251,5251,5306,5251,5251,5251,5251,5251,5549,5265,5549,5651,5306,5651,5251,5251,5251,5251,5306,5251,5251,5251,5306,
5379,5285,5285,5285,5285,5285,5285,5285,5285,5183,5251,5306,5251,5251,5251,5251,5251,5251,5251,5251,5251,5251,5251,5251,5634,5251,5251,5251,5251,5251,5251,5251,5251,5251,5251,5251,5251,5251,5251,5251,
5285,5285,5285,5285,5302,5268,5302,5268,5183,5251,5634,5251,5251,5251,5251,5251,5251,5251,5251,5251,5251,5251,5251,5251,5251,5251,5251,5251,5251,5251,5251,5651,5251,5251,5251,5251,5251,5251,5251,5251,
5285,5285,5285,5183,5251,5306,5251,5251,5251,5251,5251,5251,5251,5251,5306,5251,5251,5251,5251,5251,5251,5251,5251,5251,5251,5251,5251,5251,5251,5251,5251,5251,5251,5251,5251,5251,5251,5251,5251,5251,
5305,5285,5183,5251,5634,5251,5251,5251,5251,5251,5251,5251,5251,5251,5251,5651,5251,5251,5651,5251,5251,5251,5251,5251,5251,5251,5251,5251,5251,5251,5251,5251,5251,5251,5251,5251,5251,5251,5251,5251,
5285,5183,5251,5251,5251,5251,5251,5251,5251,5251,5251,5251,5251,5251,5651,5361,5251,5306,5251,5634,5251,5251,5251,5251,5251,5251,5251,5251,5251,5251,5251,5251,5251,5251,5306,5251,5251,5251,5251,5251,
5183,5251,5306,5251,5251,5251,5251,5251,5251,5251,5251,5251,5251,5306,5251,5251,5251,5251,5251,5251,5251,5251,5251,5251,5251,5251,5251,5251,5251,5251,5251,5251,5306,5651,5251,5251,5251,5251,5251,5251,
5251,5251,5251,5251,5251,5251,5251,5251,5251,5251,5251,5251,5251,5251,5251,5251,5251,5251,5251,5251,5251,5251,5251,5251,5251,5251,5251,5251,5251,5251,5251,5251,5251,5251,5634,5251,5306,5251,5251,5251,
5251,5361,5251,5306,5251,5251,5251,5251,5251,5251,5251,5251,5251,5251,5251,5251,5251,5251,5251,5251,5251,5251,5251,5251,5251,5251,5251,5251,5251,5251,5306,5251,5251,5251,5306,5251,5251,5251,5251,5251
</data>
 </layer>
 <layer id="10" name="Back2" width="40" height="39">
  <data encoding="csv">
0,0,0,0,0,0,0,0,0,0,0,0,0,0,0,0,0,0,0,0,0,0,0,0,0,0,0,0,0,0,0,0,0,0,0,0,0,0,0,0,
0,0,0,0,0,0,0,0,0,0,0,0,0,0,0,0,0,0,0,0,0,0,0,0,0,0,0,0,0,0,0,0,0,0,0,0,0,0,0,0,
0,0,0,0,0,0,0,0,0,0,0,0,0,0,0,0,0,0,0,0,0,0,0,0,0,0,0,0,0,0,0,0,0,0,0,0,0,0,0,0,
0,0,0,0,0,0,0,0,0,0,0,0,0,0,0,0,0,0,0,0,0,0,0,0,0,0,0,0,0,0,0,0,0,0,0,0,0,0,0,0,
0,0,0,0,0,0,0,0,0,0,0,0,0,0,0,0,0,0,0,0,0,0,0,0,0,0,0,0,0,0,0,0,0,0,0,0,0,0,0,0,
0,0,0,0,0,0,0,0,0,0,0,0,0,0,0,0,0,0,0,0,0,0,0,0,0,0,0,0,0,0,0,0,0,0,0,0,0,0,0,0,
0,0,0,0,0,0,0,0,0,0,0,0,0,0,0,0,0,0,0,0,0,0,0,0,0,0,0,0,0,0,0,0,0,0,0,0,0,0,0,0,
0,0,0,0,0,0,0,0,0,0,0,0,0,0,0,0,0,0,0,0,0,0,0,0,0,0,0,0,0,0,0,0,0,0,0,0,0,0,0,0,
0,0,0,0,0,0,0,0,0,0,0,0,0,0,0,0,0,0,0,0,0,0,0,0,0,0,0,0,0,0,0,0,0,0,0,0,0,0,0,0,
0,0,0,0,0,0,0,0,0,0,0,0,0,0,0,0,0,0,0,0,0,0,0,0,0,0,0,0,0,0,0,0,0,0,0,0,0,0,0,0,
0,0,0,0,0,0,0,0,0,0,0,0,0,0,0,0,0,0,0,0,0,0,0,0,0,0,0,0,0,0,0,0,0,0,0,0,0,0,0,0,
0,0,0,0,0,0,0,0,0,0,0,0,0,0,0,0,0,0,0,0,0,0,0,0,0,0,0,0,0,0,0,0,0,0,0,0,0,0,0,0,
0,0,0,0,0,0,0,0,0,0,0,0,0,0,0,0,0,0,0,0,0,0,0,0,0,0,0,0,0,0,0,0,0,0,0,0,0,0,0,0,
0,0,0,0,0,0,0,0,0,0,0,0,0,0,0,0,0,0,0,0,0,0,0,0,0,0,0,0,0,0,0,0,0,0,0,0,0,0,0,0,
0,0,0,0,0,0,0,0,0,0,0,0,0,0,0,0,0,0,0,0,0,0,0,0,0,0,0,0,0,0,0,0,0,0,0,0,0,0,0,0,
0,0,0,0,0,0,0,0,0,0,0,0,0,0,0,0,0,0,0,0,0,0,0,0,0,0,0,0,0,0,0,0,0,0,0,0,0,0,0,0,
0,0,0,0,0,0,0,0,0,0,0,0,0,0,0,0,0,0,0,0,0,0,0,0,0,0,0,0,0,0,0,0,0,0,0,0,0,0,0,0,
0,0,0,0,0,0,0,0,0,0,0,0,0,0,0,0,0,0,0,0,0,0,0,0,0,0,0,0,0,0,0,0,0,0,0,0,0,0,0,0,
0,0,0,0,0,0,0,0,0,0,0,0,0,0,0,0,0,0,0,0,0,0,0,0,0,0,0,0,0,0,0,0,0,0,0,0,0,0,0,0,
0,0,0,0,0,0,0,0,0,0,0,0,0,0,0,0,0,0,0,0,0,0,0,0,0,0,0,0,0,0,0,0,0,0,0,0,0,0,0,0,
0,0,0,0,0,0,0,0,0,0,0,0,0,0,0,0,0,0,0,0,0,0,0,0,0,0,0,0,0,0,0,0,0,0,0,0,0,0,0,0,
0,0,0,0,0,0,0,0,0,0,0,0,0,0,0,0,0,0,0,0,0,0,0,0,0,0,0,0,0,0,0,0,0,0,0,0,0,0,0,0,
0,0,0,0,0,0,0,0,0,0,0,0,0,0,0,0,0,0,0,0,0,0,0,0,0,0,0,0,0,0,0,0,0,0,0,0,0,0,0,0,
0,0,0,0,0,0,0,0,0,0,0,0,0,0,0,0,0,0,0,0,0,0,0,0,0,0,0,0,0,0,0,0,0,0,0,0,0,0,0,0,
0,0,0,0,0,0,0,0,0,0,0,0,0,0,0,0,0,0,0,0,0,0,0,0,0,0,0,0,0,0,0,0,0,0,0,0,0,0,0,0,
0,0,0,0,0,0,0,0,0,0,0,0,0,0,0,0,0,0,0,0,0,0,0,0,0,0,0,5594,0,0,0,5683,0,0,0,5679,0,0,0,0,
0,0,0,0,0,0,0,0,0,0,0,0,0,0,0,0,0,0,0,0,0,0,0,0,0,0,0,0,0,0,0,0,0,0,0,0,0,0,0,0,
0,0,0,0,0,0,0,0,0,0,0,0,0,0,0,0,0,0,0,0,0,0,0,0,0,0,0,0,0,0,0,0,0,0,0,0,0,0,0,0,
0,0,0,0,0,0,0,0,0,0,0,0,0,0,0,0,0,0,0,0,0,0,0,0,0,0,0,0,0,0,0,0,0,0,0,0,0,0,0,0,
0,0,0,0,0,0,0,0,0,0,0,0,0,0,0,0,0,0,0,0,0,0,0,0,0,0,0,0,0,0,0,0,0,0,0,0,0,0,0,0,
0,0,0,0,0,0,0,0,0,0,0,0,0,0,0,0,0,0,0,0,0,0,0,0,0,0,0,0,0,0,0,0,0,0,0,0,0,0,0,0,
0,0,0,0,0,0,0,0,0,0,0,0,0,0,0,0,0,0,0,0,0,0,0,0,0,0,0,0,0,0,0,0,0,0,0,0,0,0,0,0,
0,0,0,0,0,0,0,0,0,0,0,0,0,0,0,0,0,0,0,0,0,0,0,0,0,0,0,0,0,0,0,0,0,0,0,0,0,0,0,0,
0,0,0,0,0,0,0,0,0,0,0,0,0,0,0,0,0,0,0,0,0,0,0,0,0,0,0,0,0,0,0,0,0,0,0,0,0,0,0,0,
0,0,0,0,0,0,0,0,0,0,0,0,0,0,0,0,0,0,0,0,0,0,0,0,0,0,0,0,0,0,0,0,0,0,0,0,0,0,0,0,
0,0,0,0,0,0,0,0,0,0,0,0,0,0,0,0,0,0,0,0,0,0,0,0,0,0,0,0,0,0,0,0,0,0,0,0,0,0,0,0,
0,0,0,0,0,0,0,0,0,0,0,0,0,0,0,0,0,0,0,0,0,0,0,0,0,0,0,0,0,0,0,0,0,0,0,0,0,0,0,0,
0,0,0,0,0,0,0,0,0,0,0,0,0,0,0,0,0,0,0,0,0,0,0,0,0,0,0,0,0,0,0,0,0,0,0,0,0,0,0,0,
0,0,0,0,0,0,0,0,0,0,0,0,0,0,0,0,0,0,0,0,0,0,0,0,0,0,0,0,0,0,0,0,0,0,0,0,0,0,0,0
</data>
 </layer>
 <layer id="2" name="Buildings" width="40" height="39">
  <data encoding="csv">
0,0,0,0,2423,2449,2550,3004,3005,4031,4032,0,0,0,5242,5243,5242,5243,0,5242,5243,0,3004,3005,2597,2598,2599,2598,2599,2598,2598,2599,2472,0,0,0,0,0,2518,0,
0,0,2375,2376,2448,2474,2575,0,0,0,0,2224,2225,6637,5259,5260,5259,5260,0,5259,5260,0,0,6637,2622,2623,2624,2623,2624,2623,2623,2624,2497,0,9033,2249,2250,2518,2256,2256,
0,0,2400,2401,2473,2499,2600,0,0,0,0,2249,2250,0,0,0,0,0,0,0,0,12333,12334,0,0,0,0,0,0,0,0,0,2522,0,9049,9051,2520,2496,0,0,
0,0,2425,2426,2498,2524,2625,0,3152,3153,3154,2313,2388,6637,2423,2449,0,0,0,0,2545,2521,0,0,0,0,0,0,0,0,0,0,2547,2372,9065,9067,2472,0,0,0,
0,0,2450,2451,2523,0,2224,2225,0,3152,3153,3154,2423,2449,2448,2474,0,3078,0,0,2570,2546,2548,2549,2548,2371,2372,0,9065,9066,9067,0,2572,2397,9081,9083,2497,2388,0,2363,
0,0,2500,0,0,0,2249,2250,0,2313,2423,2449,2448,2474,2473,2499,3873,3103,0,0,2595,2571,2573,2574,2573,2396,2397,0,9081,9082,9083,6637,2597,2422,0,0,2522,2313,0,0,
0,0,2475,0,0,0,2363,0,0,2376,2448,2474,2473,2499,2498,2524,3898,3128,0,3901,0,2596,2598,2599,2598,2421,2422,0,0,0,0,2338,2622,2397,0,0,2547,2521,2338,0,
0,0,2500,0,0,0,0,0,0,2448,2473,2499,2498,2524,2523,3127,3127,2516,0,5259,5260,2621,2623,2624,2623,2446,2522,0,2363,2423,2548,2549,2371,2422,0,0,2572,2546,2545,2521,
0,0,2256,0,0,0,0,0,0,2473,2498,2524,2523,0,0,5342,5343,0,0,5342,5343,0,0,0,0,0,2547,2548,2549,2448,2573,2574,2396,2397,4031,4032,2597,2571,2570,2546,
2482,0,0,2256,0,2313,2475,0,0,2498,2523,0,0,2954,2955,0,0,0,0,0,0,0,5259,5260,0,0,2572,2573,2574,2473,2598,2599,2421,2422,2388,0,2622,2596,2595,2571,
0,0,0,0,0,0,2500,0,0,2450,0,12333,12334,11828,0,5259,5260,0,0,0,0,12333,12334,0,5259,5260,2597,2598,2599,2498,2623,2624,2446,2447,0,0,0,2621,2620,2596,
0,0,12333,12334,2338,2313,2525,4031,4032,2475,5327,0,0,5327,0,0,5327,0,0,0,0,0,0,0,0,5327,2622,2623,2624,2523,0,0,6637,2522,2338,12333,12334,0,0,2621,
0,0,0,0,2423,2449,2550,2388,0,2500,0,5259,5260,0,12333,12334,0,0,0,0,0,0,0,0,0,5470,5471,5472,12333,12334,2954,2955,11828,2526,2545,2521,2338,2313,0,0,
2249,2250,2375,2376,2448,2474,2575,0,2313,2525,0,2363,5327,7808,0,0,0,0,0,0,0,0,0,0,0,5487,5488,5489,0,0,0,0,0,2572,2570,2546,2545,2521,770,0,
0,2338,2400,2401,2473,2499,2600,2375,2376,2550,0,0,0,0,0,0,0,0,0,0,0,0,0,0,0,0,7808,0,12286,12287,12288,12289,12290,2597,2595,2571,2570,2546,2545,2521,
0,0,2425,2426,2498,2524,2625,2400,2401,2575,5316,0,0,0,0,0,0,0,0,0,0,0,0,0,0,0,0,0,12303,12304,12305,5315,5316,2622,2620,2596,2595,2571,2570,2546,
4031,4032,2450,2623,2523,0,2338,2425,2426,2600,5278,5279,5280,5281,5282,0,0,0,0,0,0,0,0,0,0,0,0,0,12320,12321,12322,5332,5333,12333,12334,2621,2620,2596,2595,2571,
0,0,2525,0,2388,0,0,2450,2451,2625,5312,5313,5314,5315,5316,0,7808,0,0,0,0,0,0,0,0,0,0,0,0,0,5346,5278,5279,5280,5281,5282,0,2621,2620,2596,
2423,2449,2550,0,0,12333,12334,2525,5316,0,5329,5330,5331,5332,7807,0,0,5402,5334,5317,5334,5317,5334,5351,0,0,0,0,0,7807,0,5295,5296,5297,5298,5299,5327,7807,0,2621,
2448,2474,2575,770,2423,2376,2549,2550,5327,7807,0,0,5346,5316,0,5327,5402,5419,0,0,0,0,0,5368,5351,0,0,0,5402,5334,5317,5334,5317,5334,5317,5334,5317,5334,5317,5334,
2473,2499,2375,2376,2448,2401,2574,5334,5317,5334,5317,5334,5317,5334,5317,5334,5419,7432,7432,7432,7432,7432,7432,7432,5368,0,0,7854,5419,33,33,33,33,33,33,33,33,33,0,0,
2498,2524,2400,2401,2473,2426,2599,4751,7432,7432,7432,7432,7432,7432,7432,7432,7432,7432,0,0,0,0,7432,7432,6228,0,0,0,6227,33,0,0,0,0,0,0,0,0,0,0,
2523,0,2425,4763,4766,4761,4762,4767,33,33,33,33,33,0,0,33,0,0,0,0,0,0,0,7432,6228,0,0,0,6227,0,0,0,0,0,0,0,0,0,0,0,
0,2338,2450,0,0,33,0,0,0,0,7432,7432,7432,7432,7432,7432,0,0,0,0,0,0,0,7432,6228,0,0,0,6227,0,0,0,0,0,0,0,0,0,0,0,
0,0,2525,5384,0,0,0,0,7432,7432,7432,7432,7432,7432,7432,7432,0,0,0,0,0,0,0,7432,6228,0,0,0,5460,5735,5735,5735,5735,5735,5735,5735,5735,5735,5735,5735,
2549,2549,2550,0,5384,0,0,7432,7432,7432,0,0,0,0,0,0,0,0,0,0,0,0,0,7432,6228,0,0,0,0,0,0,0,0,0,0,0,0,0,0,0,
2574,2574,2575,0,0,5384,7432,7432,7432,0,0,0,0,0,0,0,0,0,0,0,0,0,0,0,6228,0,0,0,5698,5698,5697,5698,5698,5697,5698,5698,5697,5698,5698,5697,
2599,2599,4751,0,0,7432,7432,7432,0,0,0,0,17,17,17,17,0,0,0,0,0,0,0,0,6228,0,0,0,5460,0,0,0,0,0,0,0,0,0,0,0,
4761,4762,4767,7432,7432,7432,7432,0,0,0,0,0,17,17,17,17,0,0,0,0,0,0,0,0,6228,7649,0,0,5460,0,0,0,0,0,0,0,0,0,0,0,
0,0,7432,7432,7432,0,0,0,0,0,0,0,17,17,17,17,0,0,0,0,0,0,0,0,6260,5493,0,5493,5460,0,0,0,0,0,0,0,0,0,0,0,
7432,7432,7432,0,0,0,0,0,0,0,0,0,17,17,17,17,0,0,0,0,0,0,0,0,0,6319,6320,6321,0,0,0,0,0,0,0,0,0,0,0,0,
7432,7432,7432,0,0,0,0,0,0,0,0,0,17,17,17,17,17,0,0,0,0,0,0,0,0,0,0,0,0,0,0,0,0,0,0,0,0,0,0,0,
7432,0,0,0,0,0,0,0,0,0,0,0,17,17,17,17,17,0,0,0,0,0,0,0,0,0,0,0,0,0,0,0,0,0,0,0,0,0,0,0,
0,0,0,0,0,0,0,0,0,0,0,0,17,17,17,17,0,0,0,0,0,0,0,0,0,0,0,0,0,0,8330,0,0,0,0,0,0,0,0,0,
0,0,0,0,0,0,0,0,0,0,0,0,17,17,17,17,17,17,0,0,0,0,0,0,0,0,0,0,0,0,0,0,0,0,0,0,0,0,0,0,
0,0,0,0,0,0,0,0,0,0,0,0,17,17,17,17,17,17,0,0,0,0,0,0,0,0,0,0,0,0,8378,0,0,0,0,0,0,0,0,0,
0,0,0,0,0,0,0,0,0,0,0,0,17,17,17,17,17,17,0,0,0,0,0,0,0,0,0,0,0,0,0,0,0,0,0,0,0,0,0,0,
0,0,0,0,0,0,0,0,0,0,0,0,0,0,0,0,0,0,0,0,0,0,0,0,0,0,0,0,0,0,0,0,0,0,0,0,0,0,0,0,
0,0,0,0,0,0,0,0,0,0,0,0,0,0,0,0,0,0,0,0,0,0,0,0,0,0,0,0,0,0,0,0,0,0,0,0,0,0,0,0
</data>
 </layer>
 <layer id="3" name="Front" width="40" height="39">
  <data encoding="csv">
0,0,0,0,2122,2123,2124,2125,2126,2127,0,2174,2175,2176,2177,0,0,0,0,0,0,0,0,0,0,0,0,0,0,0,0,0,0,0,0,9020,9021,0,0,0,
0,0,0,0,2147,2148,2149,2150,2151,2152,0,2199,2200,0,0,0,0,0,0,0,0,12316,12317,0,0,0,0,0,0,0,0,0,0,0,0,9036,9037,3078,0,0,
0,0,0,0,2172,2173,2174,2175,2176,2177,0,0,0,0,0,0,0,0,0,0,0,0,0,0,0,0,0,0,0,0,0,0,0,0,0,9052,9053,3103,0,0,
0,0,0,0,0,0,2199,2200,0,0,0,0,0,0,0,0,0,0,0,0,0,0,0,0,0,0,0,0,0,0,0,0,0,0,0,0,0,3128,0,0,
0,0,0,0,0,0,0,0,0,0,0,0,0,0,0,0,5206,0,0,5206,0,0,0,0,0,0,0,0,0,0,0,0,0,0,0,0,0,0,0,0,
0,0,0,0,0,0,0,0,3078,0,0,0,0,0,0,0,3873,3874,0,0,0,5205,5206,5207,0,0,0,0,0,0,0,0,0,0,0,0,0,0,0,0,
0,0,0,0,0,0,0,0,3103,2375,0,0,2529,0,2529,3102,3102,2491,0,0,0,5209,5206,5207,0,0,0,0,0,0,0,0,0,0,0,0,0,0,0,0,
2099,0,2101,0,0,0,0,0,3128,2400,0,2529,0,0,0,12316,12317,0,0,12316,12317,5205,5209,5209,5206,5207,5208,0,0,0,0,2527,0,0,4006,4007,0,0,0,0,
2124,2125,2126,2127,0,0,0,0,0,2425,0,0,0,2929,2930,0,0,0,0,0,0,5222,5242,5209,5209,5207,5208,0,0,0,0,0,0,0,0,0,0,0,0,0,
0,2150,2151,2152,0,0,0,0,0,2450,0,12316,12317,0,0,5242,5243,0,0,0,0,12316,12317,5222,5242,5243,5225,0,0,0,0,0,0,0,0,0,0,0,0,0,
2174,2175,12316,12317,0,0,0,4006,4007,0,0,0,0,0,0,0,0,0,0,0,0,0,0,0,0,0,0,0,0,0,0,0,0,0,0,12316,12317,0,0,0,
2199,2200,0,0,0,0,0,0,0,0,0,5242,5243,0,12316,12317,0,0,0,0,0,0,0,0,0,0,0,0,12316,12317,2929,2930,0,0,0,0,0,0,0,0,
2224,2225,0,0,0,0,0,0,0,0,0,0,0,0,0,0,0,0,0,0,0,0,0,0,0,0,0,0,0,0,0,0,0,0,0,0,0,0,738,0,
0,0,0,0,0,0,0,0,0,0,0,0,0,0,0,0,0,0,0,0,0,0,0,0,0,0,0,0,0,0,0,0,0,0,0,0,0,0,0,0,
0,0,0,0,0,0,0,0,0,0,0,0,0,0,0,0,0,0,0,0,0,0,0,0,0,0,0,0,0,0,0,0,0,0,0,0,0,0,0,0,
4006,4007,0,0,0,0,0,0,0,0,0,0,0,0,0,0,0,0,0,0,0,0,0,0,0,0,0,0,0,0,0,0,0,12316,12317,0,0,0,0,0,
0,0,0,0,0,0,0,0,0,0,0,0,0,0,0,0,0,0,0,0,0,0,0,0,0,0,0,0,0,0,0,0,0,0,0,0,0,0,0,0,
0,0,2525,0,0,12316,12317,0,0,0,0,0,0,0,0,0,0,0,0,0,0,0,0,0,0,0,0,0,0,0,0,0,0,0,0,0,0,0,0,0,
2423,2449,2550,738,0,0,0,0,0,0,0,0,0,0,0,0,0,0,0,0,0,0,0,0,0,0,0,0,0,0,0,0,0,0,0,0,0,0,0,0,
2448,2474,2575,0,0,0,0,0,0,0,0,0,0,0,0,0,0,0,0,0,0,0,0,0,0,0,0,0,0,0,0,0,0,0,0,0,0,0,0,0,
2473,2499,2600,0,0,0,0,2575,0,0,0,0,0,0,0,0,0,0,0,0,0,0,0,0,0,0,0,0,0,0,0,0,0,0,0,0,0,0,0,0,
2498,2524,2625,0,4606,4601,4602,4607,0,0,0,0,0,0,0,0,0,0,0,0,0,0,0,0,0,0,0,0,0,0,0,0,0,0,0,0,0,0,0,0,
2523,0,0,4621,4622,0,0,0,0,0,0,0,0,0,0,0,0,0,0,0,0,0,0,0,0,0,0,0,0,0,0,0,0,0,0,0,0,0,0,0,
0,0,0,0,0,0,0,0,0,0,0,0,0,0,0,0,0,0,0,0,0,0,0,0,0,0,0,0,0,0,0,0,0,0,0,0,0,0,0,0,
0,0,0,0,0,0,0,0,0,0,0,0,0,0,0,0,0,0,0,0,0,0,0,0,0,0,0,0,0,0,0,0,0,0,0,0,0,0,0,0,
0,0,0,0,0,0,0,0,0,0,0,0,0,0,0,0,0,0,0,0,0,0,0,0,0,0,0,0,0,0,0,0,0,0,0,0,0,0,0,0,
0,0,0,0,0,0,0,0,0,0,0,0,0,0,0,0,0,0,0,0,0,0,0,0,0,0,0,0,0,0,0,0,0,0,0,0,0,0,0,0,
4601,4602,4607,0,0,0,0,0,0,0,0,0,0,0,0,0,0,0,0,0,0,0,0,0,0,0,0,0,0,0,0,0,0,0,0,0,0,0,0,0,
0,0,0,0,0,0,0,0,0,0,0,0,0,0,0,0,0,0,0,0,0,0,0,0,0,0,0,0,0,0,0,0,0,0,0,0,0,0,0,0,
0,0,0,0,0,0,0,0,0,0,0,0,0,0,0,0,0,0,0,0,0,0,0,0,0,0,0,0,0,0,0,0,0,0,0,0,0,0,0,0,
0,0,0,0,0,0,0,0,0,0,0,0,0,0,0,0,0,0,0,0,0,0,0,0,0,0,0,0,0,0,0,0,0,0,0,0,0,0,0,0,
0,0,0,0,0,0,0,0,0,0,0,0,0,0,0,0,0,0,0,0,0,0,0,0,0,0,0,0,0,0,0,0,0,0,0,0,0,0,0,0,
0,0,0,0,0,0,0,0,0,0,0,0,0,0,0,0,0,0,0,0,0,0,0,0,0,0,0,0,0,0,0,0,0,0,0,0,0,0,0,0,
0,0,0,0,0,0,0,0,0,0,0,0,0,0,0,0,0,0,0,0,0,0,0,0,0,0,0,0,0,0,0,0,0,0,0,0,0,0,0,0,
0,0,0,0,0,0,0,0,0,0,0,0,0,0,0,0,0,0,0,0,0,0,0,0,0,0,8363,8364,0,0,0,0,0,0,0,0,0,0,0,0,
0,0,0,0,0,0,0,0,0,0,0,0,0,0,0,0,0,0,0,0,0,0,0,0,0,0,0,0,0,8390,0,0,0,0,0,0,0,0,0,0,
0,0,0,0,0,0,0,0,0,0,0,0,0,0,0,0,0,0,0,0,0,0,0,0,0,0,0,0,0,0,0,0,0,0,0,0,0,0,0,0,
0,0,0,0,0,0,0,0,0,0,0,0,0,0,0,0,0,0,0,0,0,0,0,0,0,0,0,0,0,0,0,0,0,0,0,0,0,0,0,0,
0,0,0,0,0,0,0,0,0,0,0,0,0,0,0,0,0,0,0,0,0,0,0,0,0,0,0,0,0,0,0,0,0,0,0,0,0,0,0,0
</data>
 </layer>
 <layer id="4" name="AlwaysFront" width="40" height="39">
  <data encoding="csv">
3027,3027,3023,3021,3024,3072,0,0,0,2172,2173,0,0,5222,5223,5224,5223,5224,5241,5223,5224,5225,0,0,0,3100,3150,3027,3023,3027,3021,3027,3027,3022,3027,3072,0,3050,3051,3076,
3027,3027,3021,3046,3022,3097,0,0,0,0,0,0,0,0,0,0,0,0,0,0,0,0,0,0,3099,3125,3150,3101,3027,3023,3027,3024,3024,3021,3022,3097,0,3074,3050,3051,
3027,3023,3021,3022,3047,3073,0,0,0,0,0,0,0,0,0,0,2457,2457,2457,2457,0,0,0,0,3100,3150,3021,3027,3024,3046,3022,3046,3022,3046,3022,3047,0,0,3074,3050,
3027,3046,3022,3047,3073,0,0,0,0,0,0,0,0,0,0,0,3823,3824,3825,3826,3099,3123,3124,3123,3125,3150,3126,3046,3021,3022,3047,3048,3049,3048,3049,3073,0,0,0,0,
3027,3021,3121,3122,3098,0,0,0,0,0,0,0,0,0,0,0,3848,3849,3850,3851,3075,3150,3126,3150,3126,3148,3027,3022,3047,3049,3073,0,0,0,0,0,0,0,0,0,
3025,3076,3027,3121,3122,3123,3098,0,0,0,0,0,0,0,0,0,0,0,3875,3876,3125,3051,3025,3051,3101,3021,3046,3047,3073,0,0,0,0,0,0,0,0,0,0,0,
3051,3126,3021,3027,3021,3121,3122,3123,3098,0,0,0,0,0,0,0,0,0,3099,3125,3022,3047,3049,3050,3051,3027,3022,3072,0,0,0,0,0,0,0,0,0,0,0,0,
3050,3051,3025,3021,3025,3021,3027,3121,3122,3098,0,0,0,0,0,0,0,0,3074,3048,3049,0,0,3074,3050,3051,3047,3073,0,0,0,0,0,0,0,0,0,0,0,0,
3074,3050,3051,3046,3051,3126,3096,3027,3121,3072,0,0,0,0,0,0,0,0,0,0,0,0,5223,0,3074,3048,3073,0,0,0,0,0,0,0,0,0,0,0,0,0,
2149,3074,3048,3049,3050,3051,3025,3046,3022,3097,0,0,0,0,0,0,0,0,0,0,0,0,0,0,5223,5224,0,0,534,535,0,0,0,0,0,0,0,0,0,0,
0,0,2176,2177,3074,3048,3048,3049,3047,3073,0,0,0,0,0,0,0,0,0,0,0,0,0,0,0,0,0,0,566,567,0,0,0,0,0,0,0,0,0,0,
0,0,0,0,0,0,0,0,0,0,0,0,0,0,0,0,0,0,0,0,0,0,0,0,0,0,0,0,0,0,0,0,0,0,0,0,0,0,0,0,
0,0,0,0,0,0,0,0,0,0,0,0,0,0,0,0,0,0,0,0,0,0,0,0,0,0,0,0,0,0,0,0,0,0,0,0,0,0,0,0,
0,0,0,0,0,0,0,0,0,0,0,0,0,0,0,0,0,0,0,0,0,0,0,0,0,0,0,0,0,0,0,0,0,0,0,0,0,0,0,0,
0,0,0,0,0,0,0,0,0,0,0,0,0,0,0,0,0,0,0,0,0,0,0,0,0,0,0,0,0,0,0,0,0,0,0,0,0,0,0,0,
0,249,0,0,0,0,0,0,0,0,0,0,0,0,0,0,0,0,0,0,0,0,0,0,0,0,0,0,0,0,0,0,0,0,0,0,0,0,0,0,
0,0,0,0,0,0,0,0,0,0,0,0,0,0,0,0,0,0,0,0,0,0,0,0,0,0,0,0,0,0,0,0,0,0,0,0,0,0,0,0,
0,0,0,0,0,0,0,0,0,0,0,0,0,0,0,0,0,0,0,0,0,0,0,0,0,0,0,0,0,0,0,0,0,0,0,0,0,0,0,0,
0,0,0,0,0,0,0,0,0,0,0,0,0,0,0,0,0,0,0,0,0,0,0,0,0,0,0,0,0,0,0,0,0,0,0,0,0,0,0,0,
0,0,0,0,0,0,0,0,0,0,0,0,0,0,0,0,0,0,0,0,0,0,0,0,0,0,0,0,0,0,0,0,0,0,0,0,0,0,0,0,
0,0,0,0,0,0,0,0,0,0,0,0,0,0,0,0,0,0,0,0,0,0,0,0,0,0,0,0,0,0,0,0,0,0,0,0,0,0,0,0,
0,0,0,0,0,0,0,0,0,0,0,0,0,0,0,0,0,0,0,0,0,0,0,0,0,0,0,0,0,0,0,0,0,0,0,0,0,0,0,0,
0,533,0,0,0,0,0,0,0,0,0,0,0,0,0,0,0,0,0,0,0,0,0,0,0,0,0,0,0,0,0,0,0,0,0,0,0,0,0,0,
564,565,0,0,0,0,0,0,0,0,0,0,0,0,0,0,0,0,0,0,0,0,0,0,0,0,0,0,0,0,0,0,0,0,0,0,0,0,0,0,
0,0,0,0,0,0,0,0,0,0,0,0,0,0,0,0,0,0,0,0,0,0,0,0,0,0,0,0,0,0,0,0,0,0,0,0,0,0,0,0,
0,0,0,0,0,0,0,0,0,0,0,0,0,0,0,0,0,0,0,0,0,0,0,0,0,0,0,0,0,0,0,0,0,0,0,0,0,0,0,0,
0,0,0,0,0,0,0,0,0,0,0,0,0,0,0,0,0,0,0,0,0,0,0,0,0,0,0,0,0,0,0,0,0,0,0,0,0,0,0,0,
0,0,0,0,0,0,0,0,0,0,0,0,0,0,0,0,0,0,0,8175,8176,8177,8178,8179,0,0,0,0,8184,8185,0,0,0,0,0,0,0,0,0,0,
0,0,0,0,0,0,0,0,0,0,0,0,0,0,0,0,0,0,0,8199,0,0,0,0,0,0,0,0,0,0,0,0,0,0,0,0,0,0,0,0,
0,0,0,0,0,0,0,0,0,0,0,0,0,0,0,0,0,0,0,8223,0,0,0,0,0,0,0,0,0,0,0,0,0,0,0,0,0,0,0,0,
0,0,0,0,0,0,0,0,0,0,0,0,0,0,0,0,0,0,0,8247,0,0,0,0,0,0,0,0,0,0,0,0,0,0,0,0,0,0,0,0,
0,0,0,0,0,0,0,0,0,0,0,0,0,0,0,0,0,0,0,0,0,0,0,0,0,0,0,0,0,0,0,0,0,0,0,0,0,0,0,0,
0,0,0,0,0,0,0,0,0,0,0,0,0,0,0,0,0,0,0,0,0,0,0,0,0,0,0,0,0,0,0,0,0,0,0,0,0,0,0,0,
0,0,0,0,0,0,0,0,0,0,0,0,0,0,0,0,0,0,0,0,0,0,0,0,0,0,0,0,0,0,0,0,0,0,0,0,0,0,0,0,
0,0,0,0,0,0,0,0,0,0,0,0,0,0,0,0,0,0,0,0,0,0,0,0,0,0,0,0,0,0,0,0,0,0,0,0,0,0,0,0,
0,0,0,0,0,0,0,0,0,0,0,0,0,0,0,0,0,0,0,0,0,0,0,0,0,0,0,0,0,0,0,0,0,0,0,0,0,0,0,0,
0,0,0,0,0,0,0,0,0,0,0,0,0,0,0,0,0,0,0,0,0,0,0,0,0,0,0,0,0,0,0,0,0,0,0,0,0,0,0,0,
0,0,0,0,0,0,0,0,0,0,0,0,0,0,0,0,0,0,0,0,0,0,0,0,0,0,0,0,0,0,0,0,0,0,0,0,0,0,0,0,
0,0,0,0,0,0,0,0,0,0,0,0,0,0,0,0,0,0,0,0,0,0,0,0,0,0,0,0,0,0,0,0,0,0,0,0,0,0,0,0
</data>
 </layer>
 <layer id="9" name="Paths" width="40" height="39" visible="0">
  <data encoding="csv">
7007,0,0,0,0,0,0,0,0,0,0,0,0,0,0,0,0,0,0,0,0,0,0,0,0,0,0,0,0,0,0,0,0,0,7008,0,0,0,0,0,
0,0,0,0,0,0,0,0,0,0,0,0,0,0,0,0,0,0,0,0,0,0,0,0,0,0,0,0,0,0,0,0,0,0,0,0,0,0,0,0,
0,0,0,0,0,0,0,0,0,0,0,0,0,0,0,0,0,0,0,0,0,0,0,0,0,0,0,0,0,0,0,0,0,0,0,0,0,0,0,0,
0,0,0,0,0,0,0,0,0,0,0,0,0,0,0,0,0,0,0,0,0,0,0,6993,0,0,0,0,0,0,7008,0,0,0,0,0,0,0,0,0,
0,0,0,0,0,0,0,0,0,0,0,0,0,0,0,0,0,0,0,0,0,0,0,0,0,0,0,0,0,0,0,0,0,0,0,0,0,0,0,0,
0,0,0,0,0,0,0,0,0,0,0,0,0,0,0,0,0,0,0,0,0,0,0,0,0,0,0,0,0,0,0,0,0,0,0,0,0,0,0,0,
0,0,0,0,0,0,0,0,0,0,0,0,0,0,0,0,0,0,0,0,0,0,0,0,0,0,0,0,0,0,0,0,0,0,0,6992,0,0,0,0,
0,0,0,0,0,0,7007,0,0,0,0,0,0,0,0,0,0,0,0,0,0,0,0,0,0,0,0,0,0,0,0,0,0,0,0,0,0,0,0,0,
0,0,0,0,0,0,0,0,0,0,0,0,0,0,0,0,0,0,0,0,0,0,0,0,0,0,0,0,0,0,0,0,0,0,0,0,0,0,0,0,
0,0,0,0,0,0,0,0,0,0,0,0,0,0,0,0,0,0,0,0,0,0,0,0,0,0,0,0,0,0,0,0,0,0,0,0,0,0,0,0,
0,0,0,0,0,0,0,0,0,0,0,0,0,0,0,0,0,0,0,0,0,0,0,0,0,0,0,0,0,0,0,0,0,0,0,0,0,0,0,0,
0,0,0,0,0,0,0,0,0,0,0,0,0,0,0,0,0,0,0,0,0,0,0,0,0,0,0,0,0,0,0,0,0,0,0,0,0,0,0,0,
0,0,0,0,0,0,0,0,0,0,0,0,0,0,0,0,0,0,0,0,0,0,0,0,0,0,0,0,0,0,0,0,0,0,0,0,0,0,0,0,
0,0,0,0,0,0,0,0,0,0,0,0,0,0,0,0,0,0,0,0,0,0,0,0,0,0,0,0,0,0,0,0,0,0,0,0,0,0,0,0,
0,0,0,0,0,0,0,0,0,0,0,0,0,0,0,0,0,0,0,0,0,0,0,0,0,0,0,0,0,0,0,0,0,0,0,0,0,0,0,0,
0,0,0,0,0,0,0,0,0,0,0,0,0,0,0,0,0,0,0,0,0,0,0,0,0,0,0,0,0,0,0,0,0,0,0,0,0,0,0,0,
0,0,0,0,0,0,0,0,0,0,0,0,0,0,0,0,0,0,0,0,0,0,0,0,0,0,0,0,0,0,0,0,0,0,0,0,0,0,0,0,
0,0,0,0,0,0,0,0,0,0,0,0,0,0,0,0,0,0,0,0,0,0,0,0,0,0,0,0,0,0,0,0,0,0,0,0,0,0,0,0,
0,0,0,0,0,0,0,0,0,0,0,0,0,0,0,0,0,0,0,0,0,0,0,0,0,0,0,0,0,0,0,0,0,0,0,0,0,0,0,0,
0,0,0,0,0,0,0,0,0,0,0,0,0,0,0,0,0,0,0,0,0,0,0,0,0,0,0,0,0,0,0,0,0,0,0,0,0,0,0,0,
0,0,0,0,0,0,0,0,0,0,0,0,0,0,0,0,0,0,0,0,0,0,0,0,0,0,0,0,0,0,0,0,0,0,0,0,0,0,0,0,
0,0,0,0,0,0,0,0,0,0,0,0,0,0,0,0,0,0,0,0,0,0,0,0,0,0,0,0,0,0,0,0,0,0,0,0,0,0,0,0,
0,0,0,0,0,0,0,0,0,0,0,0,0,0,0,0,0,0,0,0,0,0,0,0,0,0,0,0,0,0,0,0,0,0,0,0,0,0,0,0,
0,0,0,0,0,0,0,0,0,0,0,0,0,0,0,0,0,0,0,0,0,0,0,0,0,0,0,0,0,0,0,0,0,0,0,0,0,0,0,0,
0,0,0,0,0,0,0,0,0,0,0,0,0,0,0,0,0,0,0,0,0,0,0,0,0,0,0,0,0,0,0,0,0,0,0,0,0,0,0,0,
0,0,0,0,0,0,0,0,0,0,0,0,0,0,0,0,0,0,0,0,0,0,0,0,0,0,0,0,0,0,0,0,0,0,0,0,0,0,0,0,
0,0,0,0,0,0,0,0,0,0,0,0,0,0,0,0,0,0,0,0,0,0,0,0,0,0,0,0,0,0,0,0,0,0,0,0,0,0,0,0,
0,0,0,0,0,0,0,0,0,0,0,0,0,0,0,0,0,0,0,0,0,0,0,0,0,0,0,0,0,0,0,0,0,0,0,0,0,0,0,0,
0,0,0,0,0,0,0,0,0,0,0,0,0,0,0,0,0,0,0,0,0,0,0,0,0,0,0,0,0,0,0,0,0,0,0,0,0,0,0,0,
0,0,0,0,0,0,0,0,0,0,0,0,0,0,0,0,0,0,0,0,0,0,0,0,0,0,0,0,0,0,0,0,0,0,0,0,0,0,0,0,
0,0,0,0,0,0,0,0,0,0,0,0,0,0,0,0,0,0,0,0,0,0,0,0,0,0,0,0,0,0,0,0,0,0,0,0,0,0,0,0,
0,0,0,0,0,0,0,0,0,0,0,0,0,0,0,0,0,0,0,0,0,0,0,0,0,0,0,0,0,0,0,0,0,0,0,0,0,0,0,0,
0,0,0,0,0,0,0,0,0,0,0,0,0,0,0,0,0,0,0,0,0,0,0,0,0,0,0,0,0,0,0,0,0,0,0,0,0,0,0,0,
0,0,0,0,0,0,0,0,0,0,0,0,0,0,0,0,0,0,0,0,0,0,0,0,0,0,0,0,0,0,0,0,0,0,0,0,0,0,0,0,
0,0,0,0,0,0,0,0,0,0,0,0,0,0,0,0,0,0,0,0,0,0,0,0,0,0,0,0,0,0,0,0,0,0,0,0,0,0,0,0,
0,0,0,0,0,0,0,0,0,0,0,0,0,0,0,0,0,0,0,0,0,0,0,0,0,0,0,0,0,0,0,0,0,0,0,0,0,0,0,0,
0,0,0,0,0,0,0,0,0,0,0,0,0,0,0,0,0,0,0,0,0,0,0,0,0,0,0,0,0,0,0,0,0,0,0,0,0,0,0,0,
0,0,0,0,0,0,0,0,0,0,0,0,0,0,0,0,0,0,0,0,0,0,0,0,0,0,0,0,0,0,0,0,0,0,0,0,0,0,0,0,
0,0,0,0,0,0,0,0,0,0,0,0,0,0,0,0,0,0,0,0,0,0,0,0,0,0,0,0,0,0,0,0,0,0,0,0,0,0,0,0
</data>
 </layer>
 <objectgroup id="5" name="Back">
  <object id="16" name="TileData" x="624" y="400" width="16" height="16">
   <properties>
    <property name="Type" value="Wood"/>
   </properties>
  </object>
  <object id="17" name="TileData" x="608" y="400" width="16" height="16">
   <properties>
    <property name="Type" value="Wood"/>
   </properties>
  </object>
  <object id="18" name="TileData" x="592" y="400" width="16" height="16">
   <properties>
    <property name="Type" value="Wood"/>
   </properties>
  </object>
  <object id="19" name="TileData" x="576" y="400" width="16" height="16">
   <properties>
    <property name="Type" value="Wood"/>
   </properties>
  </object>
  <object id="20" name="TileData" x="560" y="400" width="16" height="16">
   <properties>
    <property name="Type" value="Wood"/>
   </properties>
  </object>
  <object id="21" name="TileData" x="544" y="400" width="16" height="16">
   <properties>
    <property name="Type" value="Wood"/>
   </properties>
  </object>
  <object id="22" name="TileData" x="528" y="400" width="16" height="16">
   <properties>
    <property name="Type" value="Wood"/>
   </properties>
  </object>
  <object id="23" name="TileData" x="512" y="400" width="16" height="16">
   <properties>
    <property name="Type" value="Wood"/>
   </properties>
  </object>
  <object id="24" name="TileData" x="496" y="400" width="16" height="16">
   <properties>
    <property name="Type" value="Wood"/>
   </properties>
  </object>
  <object id="25" name="TileData" x="480" y="400" width="16" height="16">
   <properties>
    <property name="Type" value="Wood"/>
   </properties>
  </object>
  <object id="26" name="TileData" x="464" y="400" width="16" height="16">
   <properties>
    <property name="Type" value="Wood"/>
   </properties>
  </object>
  <object id="27" name="TileData" x="448" y="400" width="16" height="16">
   <properties>
    <property name="Type" value="Wood"/>
   </properties>
  </object>
  <object id="28" name="TileData" x="432" y="304" width="16" height="16">
   <properties>
    <property name="Type" value="Dirt"/>
   </properties>
  </object>
  <object id="29" name="TileData" x="416" y="304" width="16" height="16">
   <properties>
    <property name="Type" value="Dirt"/>
   </properties>
  </object>
  <object id="31" name="TileData" x="416" y="304" width="16" height="16">
   <properties>
    <property name="Type" value="Dirt"/>
   </properties>
  </object>
  <object id="30" name="TileData" x="400" y="304" width="16" height="16">
   <properties>
    <property name="Type" value="Dirt"/>
   </properties>
  </object>
  <object id="32" name="TileData" x="400" y="288" width="16" height="16">
   <properties>
    <property name="Type" value="Dirt"/>
   </properties>
  </object>
  <object id="33" name="TileData" x="416" y="288" width="16" height="16">
   <properties>
    <property name="Type" value="Dirt"/>
   </properties>
  </object>
  <object id="34" name="TileData" x="432" y="288" width="16" height="16">
   <properties>
    <property name="Type" value="Dirt"/>
   </properties>
  </object>
  <object id="35" name="TileData" x="384" y="288" width="16" height="16">
   <properties>
    <property name="Type" value="Dirt"/>
   </properties>
  </object>
  <object id="36" name="TileData" x="352" y="272" width="16" height="16">
   <properties>
    <property name="Type" value="Dirt"/>
   </properties>
  </object>
  <object id="39" name="TileData" x="304" y="256" width="16" height="16">
   <properties>
    <property name="Type" value="Stone"/>
   </properties>
  </object>
  <object id="40" name="TileData" x="272" y="224" width="16" height="16">
   <properties>
    <property name="Type" value="Stone"/>
   </properties>
  </object>
  <object id="41" name="TileData" x="256" y="208" width="16" height="16">
   <properties>
    <property name="Type" value="Stone"/>
   </properties>
  </object>
  <object id="42" name="TileData" x="288" y="240" width="16" height="16">
   <properties>
    <property name="Type" value="Stone"/>
   </properties>
  </object>
  <object id="43" name="TileData" x="288" y="224" width="16" height="16">
   <properties>
    <property name="Type" value="Stone"/>
   </properties>
  </object>
  <object id="44" name="TileData" x="288" y="208" width="16" height="16">
   <properties>
    <property name="Type" value="Stone"/>
   </properties>
  </object>
  <object id="45" name="TileData" x="304" y="224" width="16" height="16">
   <properties>
    <property name="Type" value="Stone"/>
   </properties>
  </object>
  <object id="46" name="TileData" x="304" y="208" width="16" height="16">
   <properties>
    <property name="Type" value="Stone"/>
   </properties>
  </object>
  <object id="47" name="TileData" x="320" y="208" width="16" height="16">
   <properties>
    <property name="Type" value="Stone"/>
   </properties>
  </object>
  <object id="48" name="TileData" x="336" y="208" width="16" height="16">
   <properties>
    <property name="Type" value="Stone"/>
   </properties>
  </object>
  <object id="49" name="TileData" x="336" y="224" width="16" height="16">
   <properties>
    <property name="Type" value="Stone"/>
   </properties>
  </object>
  <object id="50" name="TileData" x="336" y="240" width="16" height="16">
   <properties>
    <property name="Type" value="Stone"/>
   </properties>
  </object>
  <object id="51" name="TileData" x="320" y="240" width="16" height="16">
   <properties>
    <property name="Type" value="Stone"/>
   </properties>
  </object>
  <object id="52" name="TileData" x="320" y="224" width="16" height="16">
   <properties>
    <property name="Type" value="Stone"/>
   </properties>
  </object>
  <object id="37" name="TileData" x="368" y="272" width="16" height="16">
   <properties>
    <property name="Type" value="Dirt"/>
   </properties>
  </object>
  <object id="38" name="TileData" x="384" y="272" width="16" height="16">
   <properties>
    <property name="Type" value="Dirt"/>
   </properties>
  </object>
 </objectgroup>
 <objectgroup id="6" name="Buildings">
  <object id="65" name="TileData" x="448" y="304" width="16" height="16">
   <properties>
    <property name="NPCPassable" value="T"/>
    <property name="Passable" value="F"/>
   </properties>
  </object>
  <object id="66" name="TileData" x="464" y="304" width="16" height="16">
   <properties>
    <property name="NPCPassable" value="T"/>
    <property name="Passable" value="F"/>
   </properties>
  </object>
  <object id="67" name="TileData" x="480" y="304" width="16" height="16">
   <properties>
    <property name="NPCPassable" value="T"/>
    <property name="Passable" value="F"/>
   </properties>
  </object>
  <object id="68" name="TileData" x="496" y="304" width="16" height="16">
   <properties>
    <property name="NPCPassable" value="T"/>
    <property name="Passable" value="F"/>
   </properties>
  </object>
  <object id="69" name="TileData" x="512" y="304" width="16" height="16">
   <properties>
    <property name="NPCPassable" value="T"/>
    <property name="Passable" value="F"/>
   </properties>
  </object>
  <object id="70" name="TileData" x="528" y="304" width="16" height="16">
   <properties>
    <property name="NPCPassable" value="T"/>
    <property name="Passable" value="F"/>
   </properties>
  </object>
  <object id="71" name="TileData" x="560" y="304" width="16" height="16">
   <properties>
    <property name="NPCPassable" value="T"/>
    <property name="Passable" value="F"/>
   </properties>
  </object>
  <object id="72" name="TileData" x="544" y="304" width="16" height="16">
   <properties>
    <property name="NPCPassable" value="T"/>
    <property name="Passable" value="F"/>
   </properties>
  </object>
  <object id="73" name="TileData" x="576" y="304" width="16" height="16">
   <properties>
    <property name="NPCPassable" value="T"/>
    <property name="Passable" value="F"/>
   </properties>
  </object>
  <object id="74" name="TileData" x="592" y="304" width="16" height="16">
   <properties>
    <property name="NPCPassable" value="T"/>
    <property name="Passable" value="F"/>
   </properties>
  </object>
  <object id="75" name="TileData" x="608" y="304" width="16" height="16">
   <properties>
    <property name="NPCPassable" value="T"/>
    <property name="Passable" value="F"/>
   </properties>
  </object>
  <object id="76" name="TileData" x="624" y="304" width="16" height="16">
   <properties>
    <property name="NPCPassable" value="T"/>
    <property name="Passable" value="F"/>
   </properties>
  </object>
 </objectgroup>
 <objectgroup id="7" name="Front"/>
 <objectgroup id="8" name="AlwaysFront"/>
</map>
