<?xml version="1.0" encoding="UTF-8"?>
<map version="1.10" tiledversion="1.11.0" orientation="orthogonal" renderorder="right-down" compressionlevel="0" width="36" height="22" tilewidth="16" tileheight="16" infinite="0" nextlayerid="14" nextobjectid="7">
 <properties>
  <property name="AmbientLight" value="115 95 95"/>
  <property name="Music" value="submarine_song"/>
 </properties>
 <tileset firstgid="1" name="paths" tilewidth="16" tileheight="16" tilecount="64" columns="4">
  <image source="paths" width="64" height="256"/>
 </tileset>
 <tileset firstgid="65" name="submarine tiles" tilewidth="16" tileheight="16" tilecount="528" columns="24">
  <image source="submarine_tilesheet" width="384" height="352"/>
  <tile id="186">
   <properties>
    <property name="Water" value="T"/>
   </properties>
  </tile>
  <tile id="187">
   <properties>
    <property name="Water" value="T"/>
   </properties>
  </tile>
  <tile id="193">
   <animation>
    <frame tileid="193" duration="100"/>
    <frame tileid="444" duration="100"/>
    <frame tileid="444" duration="100"/>
    <frame tileid="444" duration="100"/>
    <frame tileid="444" duration="100"/>
    <frame tileid="444" duration="100"/>
    <frame tileid="444" duration="100"/>
    <frame tileid="444" duration="100"/>
    <frame tileid="444" duration="100"/>
    <frame tileid="444" duration="100"/>
    <frame tileid="444" duration="100"/>
    <frame tileid="444" duration="100"/>
    <frame tileid="444" duration="100"/>
    <frame tileid="445" duration="100"/>
    <frame tileid="446" duration="100"/>
    <frame tileid="445" duration="100"/>
    <frame tileid="444" duration="100"/>
    <frame tileid="444" duration="100"/>
    <frame tileid="444" duration="100"/>
    <frame tileid="444" duration="100"/>
    <frame tileid="444" duration="100"/>
    <frame tileid="444" duration="100"/>
    <frame tileid="444" duration="100"/>
    <frame tileid="444" duration="100"/>
    <frame tileid="444" duration="100"/>
    <frame tileid="444" duration="100"/>
    <frame tileid="444" duration="100"/>
    <frame tileid="444" duration="100"/>
    <frame tileid="444" duration="100"/>
    <frame tileid="444" duration="100"/>
    <frame tileid="444" duration="100"/>
    <frame tileid="444" duration="100"/>
    <frame tileid="444" duration="100"/>
    <frame tileid="444" duration="100"/>
    <frame tileid="444" duration="100"/>
    <frame tileid="444" duration="100"/>
    <frame tileid="444" duration="100"/>
    <frame tileid="444" duration="100"/>
    <frame tileid="444" duration="100"/>
    <frame tileid="444" duration="100"/>
    <frame tileid="444" duration="100"/>
    <frame tileid="444" duration="100"/>
    <frame tileid="444" duration="100"/>
    <frame tileid="444" duration="100"/>
    <frame tileid="444" duration="100"/>
    <frame tileid="444" duration="100"/>
    <frame tileid="444" duration="100"/>
    <frame tileid="447" duration="100"/>
    <frame tileid="447" duration="100"/>
    <frame tileid="444" duration="100"/>
    <frame tileid="444" duration="100"/>
    <frame tileid="447" duration="100"/>
    <frame tileid="447" duration="100"/>
    <frame tileid="444" duration="100"/>
    <frame tileid="444" duration="100"/>
    <frame tileid="444" duration="100"/>
    <frame tileid="444" duration="100"/>
    <frame tileid="444" duration="100"/>
    <frame tileid="444" duration="100"/>
    <frame tileid="444" duration="100"/>
    <frame tileid="444" duration="100"/>
    <frame tileid="444" duration="100"/>
    <frame tileid="444" duration="100"/>
    <frame tileid="444" duration="100"/>
    <frame tileid="444" duration="100"/>
    <frame tileid="444" duration="100"/>
    <frame tileid="444" duration="100"/>
    <frame tileid="444" duration="100"/>
    <frame tileid="444" duration="100"/>
    <frame tileid="444" duration="100"/>
    <frame tileid="444" duration="100"/>
    <frame tileid="444" duration="100"/>
    <frame tileid="444" duration="100"/>
    <frame tileid="444" duration="100"/>
    <frame tileid="444" duration="100"/>
    <frame tileid="444" duration="100"/>
    <frame tileid="444" duration="100"/>
    <frame tileid="444" duration="100"/>
    <frame tileid="444" duration="100"/>
    <frame tileid="444" duration="100"/>
    <frame tileid="444" duration="100"/>
    <frame tileid="444" duration="100"/>
    <frame tileid="444" duration="100"/>
    <frame tileid="444" duration="100"/>
    <frame tileid="444" duration="100"/>
    <frame tileid="444" duration="100"/>
    <frame tileid="444" duration="100"/>
    <frame tileid="447" duration="100"/>
    <frame tileid="447" duration="100"/>
    <frame tileid="447" duration="100"/>
    <frame tileid="444" duration="100"/>
    <frame tileid="444" duration="100"/>
    <frame tileid="444" duration="100"/>
    <frame tileid="444" duration="100"/>
    <frame tileid="444" duration="100"/>
    <frame tileid="444" duration="100"/>
    <frame tileid="444" duration="100"/>
    <frame tileid="444" duration="100"/>
    <frame tileid="444" duration="100"/>
   </animation>
  </tile>
  <tile id="200">
   <properties>
    <property name="Water" value="T"/>
   </properties>
  </tile>
  <tile id="211">
   <properties>
    <property name="Water" value="T"/>
   </properties>
  </tile>
  <tile id="282">
   <properties>
    <property name="Water" value="T"/>
   </properties>
  </tile>
  <tile id="283">
   <properties>
    <property name="Water" value="T"/>
   </properties>
  </tile>
 </tileset>
 <tileset firstgid="593" source="night_market_tilesheet_objectssa.tsx"/>
 <tileset firstgid="2417" source="townInterior.tsx"/>
 <tileset firstgid="4593" source="townInterior_2.tsx"/>
 <tileset firstgid="5905" source="spring_island_tilesheet_1.tsx"/>
 <layer id="1" name="Back" width="36" height="22">
  <data encoding="csv">
0,0,0,0,0,0,0,0,0,0,0,0,0,0,0,0,0,0,0,0,0,0,0,0,0,0,0,0,0,0,0,0,0,0,0,0,
0,0,0,0,0,0,0,0,0,0,0,0,0,0,0,0,0,0,0,0,0,0,0,0,0,0,0,0,0,0,0,0,0,0,0,0,
0,0,0,0,0,0,0,0,0,0,4302,0,0,0,0,0,0,0,0,0,0,0,0,0,0,0,0,0,0,0,0,0,0,0,0,0,
0,0,0,0,0,0,0,0,0,0,0,0,0,0,0,0,0,0,0,0,0,0,0,0,0,0,0,0,0,0,0,0,0,0,0,0,
0,0,0,0,2147486936,2147486936,2147486936,2147486936,2147486936,2147486936,2147486936,2147486936,2147486936,2147487479,2147486936,2147486936,2147486936,2147486936,2147486936,2147486936,2147486936,2147485629,2147485628,2147485627,2147485626,2147485621,2147485620,2147485613,2147485612,2147485611,0,0,0,0,0,0,
0,0,0,2147488198,2147488198,2147488198,2147488198,2147488198,2147488198,2147485045,2147485045,2147485045,2147485045,2147485045,2147485045,2147485045,2147485045,2147485045,2147485045,2147485045,2147486936,2147485653,2147485652,2147485651,2147485650,2147485645,2147485644,2147485637,2147485636,2147485635,0,0,0,0,0,0,
0,0,0,2147487511,2147487511,2147487511,2147485063,1411,2147485060,1413,3852,1415,1416,1411,2147485045,1413,1414,1415,1416,1411,2147486936,1413,1414,1415,1416,2147485669,2147485668,1413,2147485660,2147485659,0,0,0,0,0,0,
0,0,0,2147487543,2147487543,2147487543,2147485087,1435,2147485084,1437,3884,1439,1440,1435,2147485069,1437,1438,1439,1440,1435,2147486936,1437,1438,1439,1440,1421,1439,1437,2147485684,2147485683,0,0,0,0,0,0,
0,0,0,3689,1329,1329,1329,1329,1329,1329,4302,4547,4547,4547,4547,2478,2445,2445,2445,2445,2445,2445,2445,2445,2446,1484,1487,1487,1484,1460,0,0,0,0,0,0,
0,0,0,3721,1376,1376,1376,1376,1376,1376,4579,4579,4579,4579,4579,2479,2477,2477,2477,2477,2477,2477,2477,2477,2444,1484,1484,1484,1484,3690,0,0,0,0,0,0,
0,0,0,4523,1329,1329,1329,1329,1329,1329,4579,4579,4579,4579,4579,2479,2477,2477,2477,2477,2477,2477,2477,2477,2444,1484,1484,1484,1484,4523,0,0,0,0,0,0,
0,0,0,4523,1329,1329,1329,1329,1329,1329,4579,4579,4579,4579,4579,2479,2477,2477,2477,2477,2477,2477,2477,2477,2444,1484,1484,1484,1484,4523,0,0,0,0,0,0,
0,0,1484,1484,1329,1329,1329,1352,1329,1329,4579,1484,4579,4579,4579,2479,2477,2477,2477,2477,2477,2477,2477,2477,2444,1484,1484,1484,1484,4523,0,0,0,0,0,0,
0,0,0,4496,1484,1484,1484,1376,1484,1484,1484,1484,1484,1484,1484,1484,1484,1484,1484,1484,1484,1484,1484,4496,4496,4496,4496,4496,4496,4496,0,0,0,0,0,0,
0,0,0,0,0,0,0,4495,0,0,0,0,0,0,0,0,0,0,0,0,0,0,0,0,0,0,0,0,0,0,0,0,0,0,0,0,
0,0,0,0,0,0,0,0,0,0,0,0,0,0,0,0,0,0,0,0,0,0,0,0,0,0,0,0,0,0,0,0,0,0,0,0,
0,0,0,0,0,0,0,0,0,0,0,0,0,0,0,0,0,0,0,0,0,0,0,0,0,0,0,0,0,0,0,0,0,2147485710,0,0,
0,0,0,0,0,0,0,0,0,0,0,0,0,0,0,0,0,0,0,0,0,0,0,0,0,0,0,0,0,0,0,0,0,0,0,0,
0,0,0,0,0,0,0,0,0,0,0,0,0,0,0,0,0,0,0,0,0,0,0,0,0,0,0,0,0,0,0,0,0,0,0,0,
0,0,0,0,0,0,0,0,0,0,0,0,0,0,0,0,0,0,0,0,0,0,0,0,0,0,0,0,0,0,0,0,0,0,0,0,
0,0,0,0,0,0,0,0,0,0,0,0,0,0,0,0,0,0,0,0,0,0,0,0,0,0,0,0,0,0,0,0,0,0,0,0,
0,0,0,0,0,0,0,0,0,0,0,0,0,0,0,0,0,0,0,0,0,0,0,0,0,0,0,0,0,0,0,0,0,0,0,0
</data>
 </layer>
 <layer id="11" name="Buildings" width="36" height="22">
  <data encoding="csv">
0,0,0,0,0,0,0,0,0,0,0,0,0,0,0,0,0,0,0,0,0,0,0,0,0,0,0,0,0,0,0,0,0,0,0,0,
0,0,0,0,0,0,0,0,0,0,0,0,0,0,0,0,0,0,0,0,0,0,0,0,0,0,0,0,0,0,0,0,0,0,0,0,
0,0,0,0,0,0,0,0,0,0,0,0,0,0,0,0,0,0,0,0,0,0,0,0,0,0,0,0,0,0,0,0,0,0,0,0,
0,0,0,0,0,0,0,0,0,0,0,0,0,0,0,0,0,0,0,0,0,0,0,0,0,0,0,0,0,0,0,0,0,0,0,0,
0,1673,1674,2147485039,2147485039,2147485039,2147485039,2147485039,2147485039,2147485039,2147485039,2147485039,2147485039,2147485039,2147485039,2147485039,2147485039,2147485039,2147485039,2147485039,2147485033,1097,1097,1097,1097,1097,1097,1097,1097,1097,1673,1674,2147484554,0,0,0,
0,1673,1674,1392,3821,3820,3820,4106,3821,3823,3824,3820,3820,3820,3820,3820,3820,3820,3821,3823,3820,3820,3820,3820,3820,3824,3820,3823,3821,1393,1673,1674,2147484578,0,0,0,
0,1673,1674,1416,3853,3852,3852,4138,3853,3855,3738,3852,3852,3852,3852,3852,3852,3852,3853,3855,3852,3852,3852,3852,3852,3856,3852,3855,3853,1417,905,905,2147484554,0,0,0,
0,1673,1674,1440,3885,3884,3884,4170,3885,3887,3770,3884,3884,3884,3884,3884,3884,3884,3885,3887,3884,3884,3884,3884,3884,3888,3884,3887,3885,1441,905,929,2147484554,0,0,0,
0,1673,1674,0,5361,5362,5363,5364,5365,5375,0,0,0,0,0,3903,0,0,0,5801,4799,4800,0,0,3784,4123,4124,4125,4126,1462,905,905,2147484554,0,0,0,
0,1673,1674,2147484848,0,0,3596,0,0,0,0,0,0,0,0,0,3710,3711,3712,0,3810,3710,3711,3712,0,3645,3250,3596,0,0,905,905,905,905,905,0,
0,1673,1674,2147484872,2857,3810,0,0,0,0,0,0,0,0,0,0,0,0,0,0,0,0,0,0,0,3231,0,3675,3251,0,905,1678,1049,929,929,0,
0,1673,1674,0,3771,0,4598,0,3736,3737,0,3311,3312,3311,3312,0,3710,3711,3712,3810,0,3710,3711,3712,0,0,0,0,0,0,929,1678,1678,953,953,0,
0,1673,1674,0,3776,3777,0,0,3768,3769,0,3343,3344,3343,3344,0,0,0,0,0,0,0,0,0,0,0,0,0,0,0,953,1678,1678,1678,0,0,
0,1673,1674,1680,1673,1674,0,0,0,1673,1673,1673,1673,1673,1673,1673,1673,1673,1673,1673,1673,1673,1673,1673,1673,1673,1673,1674,1674,1674,1674,1674,1049,1678,0,0,
0,1673,1674,1680,1681,1682,1673,1674,1674,1678,1678,1678,1678,1678,1678,1678,1678,1678,1678,1678,1678,1678,1678,1678,1678,1678,1678,1679,1680,1681,1682,1025,2147484554,0,0,0,
0,1673,1674,1678,1678,1678,1678,1678,1678,1678,1678,1678,1678,1678,1678,1678,1678,1678,1678,1678,1678,1678,1678,1678,1678,1678,1679,1680,1681,1682,1097,1025,2147484578,0,0,0,
0,0,1025,1025,1049,1025,1025,1049,1049,1073,1073,1073,1073,1073,1073,1073,1073,1049,1073,1073,1073,1073,1073,1073,1073,1073,1073,1073,1073,1073,1025,1049,2147484554,0,0,0,
0,0,1025,1025,1073,1049,1049,1073,1073,1097,1097,1097,1097,1097,1097,1097,1097,1049,1097,1097,1097,1097,1097,1097,1097,1097,1097,1097,1097,1097,1049,1073,2147484554,0,0,0,
0,0,1025,1025,1025,1025,1073,1025,1025,1025,1025,1025,1025,1025,1025,1025,1025,1049,1025,1025,1097,1097,1097,1097,1097,1097,1097,1097,1097,1025,1025,1097,1025,0,0,0,
0,0,1049,1025,1049,1025,1097,1049,1049,1049,1049,1049,1049,1049,1049,1049,1049,1049,1049,1025,1025,1025,1025,1025,1025,1025,1025,1025,1025,1049,1049,1049,1049,0,0,0,
0,0,1073,1049,1073,1049,1073,1073,1073,1073,1073,1073,1073,1073,1073,1073,1073,1049,1073,1049,1049,1049,1049,1049,1049,1049,1049,1049,1049,1073,1073,1073,1073,0,0,0,
0,0,1097,1073,1097,1073,1097,1097,1097,1097,1097,1097,1097,1097,1097,1097,1097,1097,1097,1073,1073,1073,1073,1073,1073,1073,1073,1073,1073,1097,1097,1097,1097,0,0,0
</data>
 </layer>
 <layer id="12" name="Front" width="36" height="22">
  <data encoding="csv">
0,0,0,0,0,0,0,0,0,0,0,0,0,0,0,0,0,0,0,0,0,0,0,0,0,0,0,0,0,0,0,0,0,0,0,0,
0,0,0,0,0,0,0,0,0,0,0,0,0,0,0,0,0,0,0,0,0,0,0,0,0,0,0,0,0,0,0,0,0,0,0,0,
0,0,0,0,0,0,0,0,0,0,0,0,0,0,0,0,0,0,0,0,0,0,0,0,0,0,0,0,0,0,0,0,0,0,0,0,
0,0,0,0,0,0,0,0,0,0,0,0,0,0,0,0,0,0,0,0,0,0,0,0,0,0,0,0,0,0,0,0,0,0,0,0,
0,0,0,0,0,0,0,0,0,0,0,0,0,0,0,0,0,0,0,0,0,0,0,0,0,0,0,0,0,0,0,0,0,0,0,0,
0,0,0,0,2631,0,1998,1999,3672,0,3706,1998,1999,5335,5335,5335,1998,1999,3244,0,5335,1998,1999,1565,0,0,1998,1999,0,0,0,0,0,0,0,0,
0,0,0,0,0,2599,2022,2023,0,0,0,2022,2023,5367,5367,5367,2022,2023,0,0,5367,2022,2023,0,0,0,2022,2023,0,0,0,0,0,0,0,0,
0,0,0,0,5329,5330,5331,5332,5333,5343,0,0,0,0,0,0,0,0,0,0,0,0,0,0,3752,4091,4092,4093,4094,0,0,0,0,0,0,0,
0,0,0,0,0,0,0,0,0,0,0,0,0,0,0,0,3678,3679,3680,0,0,3678,3679,3680,0,0,0,0,0,0,0,0,0,0,0,0,
0,0,0,0,2825,0,0,0,0,0,0,0,0,0,0,0,0,0,0,0,0,0,0,0,0,0,0,0,0,0,0,0,0,0,0,0,
0,0,0,0,3739,0,0,0,0,0,0,3279,3280,3279,3280,0,3678,3679,3680,0,0,3678,3679,3680,0,0,0,0,0,0,0,0,0,0,0,0,
0,0,0,0,3744,3745,0,0,0,0,0,0,2751,2831,0,0,0,0,0,0,0,0,0,0,0,0,0,0,0,0,0,0,0,0,0,0,
0,0,0,0,3744,3745,0,0,0,0,0,0,0,0,0,0,0,0,0,0,0,0,0,0,0,0,0,0,0,0,0,0,0,0,0,0,
0,0,0,0,0,0,0,0,0,0,0,0,0,0,0,0,0,0,0,0,0,0,0,0,0,0,0,0,0,0,0,0,0,0,0,0,
0,0,0,0,0,0,0,0,0,0,0,0,0,0,0,0,0,0,0,0,0,0,0,0,0,0,0,0,0,0,0,0,0,0,0,0,
0,0,0,0,0,0,0,0,0,0,0,0,0,0,0,0,0,0,0,0,0,0,0,0,0,0,0,0,0,0,0,0,0,0,0,0,
0,0,0,0,0,0,0,0,0,0,0,0,0,0,0,0,0,0,0,0,0,0,0,0,0,0,0,0,0,0,0,0,0,0,0,0,
0,0,0,0,0,0,0,0,0,0,0,0,0,0,0,0,0,0,0,0,0,0,0,0,0,0,0,0,0,0,0,0,0,0,0,0,
0,0,0,0,0,0,0,0,0,0,0,0,0,0,0,0,0,0,0,0,0,0,0,0,0,0,0,0,0,0,0,0,0,0,0,0,
0,0,0,0,0,0,0,0,0,0,0,0,0,0,0,0,0,0,0,0,0,0,0,0,0,0,0,0,0,0,0,0,0,0,0,0,
0,0,0,0,0,0,0,0,0,0,0,0,0,0,0,0,0,0,0,0,0,0,0,0,0,0,0,0,0,0,0,0,0,0,0,0,
0,0,0,0,0,0,0,0,0,0,0,0,0,0,0,0,0,0,0,0,0,0,0,0,0,0,0,0,0,0,0,0,0,0,0,0
</data>
 </layer>
 <layer id="13" name="AlwaysFront" width="36" height="22">
  <data encoding="csv">
1678,1678,1678,1678,1678,1678,1678,1678,1678,1678,1678,1678,1678,1678,1678,1678,1678,1678,1678,1678,1678,1678,1678,1678,1678,1678,1678,1678,1678,1678,1678,1678,1678,1678,1678,1678,
1678,1678,1678,1678,1678,1678,1678,1678,1678,1678,1678,1678,1678,1678,1678,1678,1678,1678,1678,1678,1678,1678,1678,1678,1678,1678,1678,1678,1678,1678,1678,1678,1678,1678,1678,1678,
1678,1678,1678,1678,1678,1678,1678,1678,1678,1678,1678,1678,1678,1678,1678,1678,1678,1678,1678,1678,1678,1678,1678,1678,1678,1678,1678,1678,1678,1678,1678,1678,1678,1678,1678,1678,
1678,1678,1678,1678,1678,1678,1678,1678,1678,1678,1678,1678,1678,1678,1678,1678,1678,1678,1678,1678,1678,1678,1678,1678,1678,1678,1678,1678,1678,1678,1678,1678,1678,1678,1678,1678,
1678,1678,1678,2147485042,2147484791,2147484790,0,0,0,0,0,0,0,0,0,0,0,0,0,0,1391,1391,1391,1391,1391,1391,1391,1391,1391,1394,0,1678,1678,1678,1678,1678,
1678,1678,1678,2147485066,0,3257,0,0,0,0,0,0,0,0,0,0,0,0,0,0,0,0,1142,1143,0,0,0,0,0,1394,0,1678,1678,1678,1678,1678,
1678,1678,1678,2147485090,2723,0,0,1143,3315,3447,0,0,0,0,0,0,0,0,0,0,0,0,0,0,0,4059,4060,4061,0,1418,1678,1678,1678,1678,1678,1678,
1678,1678,1678,2147485090,4586,2929,0,1167,0,0,0,0,0,0,0,0,3646,3647,3648,0,0,3646,3647,3648,0,0,0,0,0,1442,1678,1678,1678,1678,1678,1678,
1678,1678,1678,2147485090,0,0,0,0,0,0,0,0,0,0,0,0,0,0,0,0,0,0,0,0,0,0,0,0,0,1442,1678,1678,1678,1678,1678,1678,
1678,1678,1678,2147485090,0,0,0,0,0,0,0,0,0,0,0,0,3646,3647,3648,0,0,3646,3647,3648,0,0,0,0,0,1442,1678,1678,1678,1678,1678,1678,
1678,1678,1678,1433,0,0,0,0,3704,3705,0,0,0,0,0,0,0,0,0,0,0,0,0,0,0,0,0,0,0,1442,1678,1678,1678,1678,1678,1678,
1678,1678,1678,1601,0,0,0,0,0,0,0,0,0,0,0,0,0,0,0,0,0,0,0,0,0,0,0,0,0,1442,1678,1678,1678,1678,1678,1678,
1678,1678,1678,1649,1654,1655,1651,0,1653,1654,1655,1654,1655,1654,1655,1654,1655,1654,1655,1654,1655,1654,1655,1654,1655,1654,1655,1654,1655,1658,1678,1678,1678,1678,1678,1678,
1678,1678,0,0,0,0,1675,1676,1677,0,0,0,0,0,0,0,0,0,0,0,0,0,0,0,0,0,0,0,0,0,1678,0,1678,1678,1678,1678,
1678,1678,0,0,0,0,0,0,0,0,0,0,0,0,0,0,0,0,0,0,0,0,0,0,0,0,0,0,0,0,0,1678,1678,1678,1678,1678,
1678,1678,1678,0,0,0,0,0,0,0,0,0,0,0,0,0,0,0,0,0,0,0,0,0,1678,1678,1678,1678,1678,1678,1678,1678,1678,1678,1678,1678,
1678,1678,1678,1678,1678,1678,1678,1678,1678,1678,1678,1678,1678,1678,1678,1678,1678,1678,1678,1678,1678,1678,1678,1678,1678,1678,1678,1678,1678,1678,1678,1678,1678,1678,1678,1678,
1678,1678,1678,1678,1678,1678,1678,1678,1678,1678,1678,1678,1678,1678,1678,1678,1678,1678,1678,1678,1678,1678,1678,1678,1678,1678,1678,1678,1678,1678,1678,1678,1678,1678,1678,1678,
1678,1678,1678,1678,1678,1678,1678,1678,1678,1678,1678,1678,1678,1678,1678,1678,1678,1678,1678,1678,1678,1678,1678,1678,1678,1678,1678,1678,1678,1678,1678,1678,1678,1678,1678,1678,
1678,1678,1678,1678,1678,1678,1678,1678,1678,1678,1678,1678,1678,1678,1678,1678,1678,1678,1678,1678,1678,1678,1678,1678,1678,1678,1678,1678,1678,1678,1678,1678,1678,1678,1678,1678,
1678,1678,1678,1678,1678,1678,1678,1678,1678,1678,1678,1678,1678,1678,1678,1678,1678,1678,1678,1678,1678,1678,1678,1678,1678,1678,1678,1678,1678,1678,1678,1678,1678,1678,1678,1678,
1678,1678,1678,1678,1678,1678,1678,1678,1678,1678,1678,1678,1678,1678,1678,1678,1678,1678,1678,1678,1678,1678,1678,1678,1678,1678,1678,1678,1678,1678,1678,1678,1678,1678,1678,1678
</data>
 </layer>
 <layer id="5" name="Paths" width="36" height="22">
  <data encoding="csv">
0,0,0,0,0,0,0,0,0,0,0,0,0,0,0,0,0,0,0,0,0,0,0,0,0,0,0,0,0,0,0,0,0,0,0,0,
0,0,0,0,0,0,0,0,0,0,0,0,0,0,0,0,0,0,0,0,0,0,0,0,0,0,0,0,0,0,0,0,0,0,0,0,
0,0,0,0,0,0,0,0,0,0,0,0,0,0,0,0,0,0,0,0,0,0,0,0,0,0,0,0,0,0,0,0,0,0,0,0,
0,0,0,0,0,0,0,0,0,0,0,0,0,0,0,0,0,0,0,0,0,0,0,0,0,0,0,0,0,0,0,0,0,0,0,0,
0,0,0,0,0,0,0,0,0,0,0,0,0,0,0,0,0,0,0,0,0,0,0,0,0,0,0,0,0,0,0,0,0,0,0,0,
0,0,0,0,0,0,0,0,0,0,0,0,0,0,0,0,0,0,9,0,0,0,0,0,0,0,0,0,0,0,0,0,0,0,0,0,
0,0,0,0,0,0,0,0,0,0,0,0,0,0,0,0,0,0,0,0,0,0,0,0,0,0,0,0,0,0,0,0,0,0,0,0,
0,0,0,0,0,0,0,0,0,0,0,0,0,0,0,0,0,0,0,0,0,0,0,0,0,0,0,0,0,0,0,0,0,0,0,0,
0,0,0,0,0,0,0,0,0,0,0,0,0,0,0,0,0,0,0,0,0,0,0,0,0,0,0,0,0,0,0,0,0,0,0,0,
0,0,0,0,0,0,0,0,0,0,0,0,0,0,0,0,0,0,0,0,0,0,0,0,0,0,0,0,0,0,0,0,0,0,0,0,
0,0,0,0,0,0,0,0,0,0,0,0,0,0,0,0,0,0,0,0,0,0,0,0,0,0,0,0,0,0,0,0,0,0,0,0,
0,0,0,0,0,0,0,0,0,0,0,0,0,0,0,0,0,0,0,0,0,0,0,0,0,0,0,0,0,0,0,0,0,0,0,0,
0,0,0,0,0,0,0,0,0,0,0,0,0,0,0,0,0,0,0,0,0,0,0,0,0,0,0,0,0,0,0,0,0,0,0,0,
0,0,0,0,0,0,0,0,0,0,0,0,0,0,0,0,0,0,0,0,0,0,0,0,0,0,0,0,0,0,0,0,0,0,0,0,
0,0,0,0,0,0,0,0,0,0,0,0,0,0,0,0,0,0,0,0,0,0,0,0,0,0,0,0,0,0,0,0,0,0,0,0,
0,0,0,0,0,0,0,0,0,0,0,0,0,0,0,0,0,0,0,0,0,0,0,0,0,0,0,0,0,0,0,0,0,0,0,0,
0,0,0,0,0,0,0,0,0,0,0,0,0,0,0,0,0,0,0,0,0,0,0,0,0,0,0,0,0,0,0,0,0,0,0,0,
0,0,0,0,0,0,0,0,0,0,0,0,0,0,0,0,0,0,0,0,0,0,0,0,0,0,0,0,0,0,0,0,0,0,0,0,
0,0,0,0,0,0,0,0,0,0,0,0,0,0,0,0,0,0,0,0,0,0,0,0,0,0,0,0,0,0,0,0,0,0,0,0,
0,0,0,0,0,0,0,0,0,0,0,0,0,0,0,0,0,0,0,0,0,0,0,0,0,0,0,0,0,0,0,0,0,0,0,0,
0,0,0,0,0,0,0,0,0,0,0,0,0,0,0,0,0,0,0,0,0,0,0,0,0,0,0,0,0,0,0,0,0,0,0,0,
0,0,0,0,0,0,0,0,0,0,0,0,0,0,0,0,0,0,0,0,0,0,0,0,0,0,0,0,0,0,0,0,0,0,0,0
</data>
 </layer>
 <objectgroup id="6" name="Back"/>
 <objectgroup id="7" name="Buildings">
  <object id="1" name="TileData" x="160" y="112" width="16" height="16">
   <properties>
    <property name="Action" value="Warp 16 18 Sub_Deck 16 18"/>
   </properties>
  </object>
 </objectgroup>
 <objectgroup id="8" name="Front"/>
 <objectgroup id="9" name="AlwaysFront"/>
 <objectgroup id="10" name="Paths"/>
</map>
