<?xml version="1.0" encoding="UTF-8"?>
<map version="1.10" tiledversion="1.11.0" orientation="orthogonal" renderorder="right-down" compressionlevel="0" width="36" height="22" tilewidth="16" tileheight="16" infinite="0" nextlayerid="16" nextobjectid="35">
 <properties>
  <property name="Music" value="ocean"/>
  <property name="Outdoors" value="T"/>
  <property name="forceLoadPathLayerLights" value="t"/>
 </properties>
 <tileset firstgid="1" name="paths" tilewidth="16" tileheight="16" tilecount="64" columns="4">
  <image source="paths" width="64" height="256"/>
 </tileset>
 <tileset firstgid="65" name="submarine tiles" tilewidth="16" tileheight="16" tilecount="528" columns="24">
  <image source="submarine_tilesheet" width="384" height="352"/>
  <tile id="186">
   <properties>
    <property name="Water" value="T"/>
   </properties>
  </tile>
  <tile id="187">
   <properties>
    <property name="Water" value="T"/>
   </properties>
  </tile>
  <tile id="193">
   <animation>
    <frame tileid="193" duration="100"/>
    <frame tileid="444" duration="100"/>
    <frame tileid="444" duration="100"/>
    <frame tileid="444" duration="100"/>
    <frame tileid="444" duration="100"/>
    <frame tileid="444" duration="100"/>
    <frame tileid="444" duration="100"/>
    <frame tileid="444" duration="100"/>
    <frame tileid="444" duration="100"/>
    <frame tileid="444" duration="100"/>
    <frame tileid="444" duration="100"/>
    <frame tileid="444" duration="100"/>
    <frame tileid="444" duration="100"/>
    <frame tileid="445" duration="100"/>
    <frame tileid="446" duration="100"/>
    <frame tileid="445" duration="100"/>
    <frame tileid="444" duration="100"/>
    <frame tileid="444" duration="100"/>
    <frame tileid="444" duration="100"/>
    <frame tileid="444" duration="100"/>
    <frame tileid="444" duration="100"/>
    <frame tileid="444" duration="100"/>
    <frame tileid="444" duration="100"/>
    <frame tileid="444" duration="100"/>
    <frame tileid="444" duration="100"/>
    <frame tileid="444" duration="100"/>
    <frame tileid="444" duration="100"/>
    <frame tileid="444" duration="100"/>
    <frame tileid="444" duration="100"/>
    <frame tileid="444" duration="100"/>
    <frame tileid="444" duration="100"/>
    <frame tileid="444" duration="100"/>
    <frame tileid="444" duration="100"/>
    <frame tileid="444" duration="100"/>
    <frame tileid="444" duration="100"/>
    <frame tileid="444" duration="100"/>
    <frame tileid="444" duration="100"/>
    <frame tileid="444" duration="100"/>
    <frame tileid="444" duration="100"/>
    <frame tileid="444" duration="100"/>
    <frame tileid="444" duration="100"/>
    <frame tileid="444" duration="100"/>
    <frame tileid="444" duration="100"/>
    <frame tileid="444" duration="100"/>
    <frame tileid="444" duration="100"/>
    <frame tileid="444" duration="100"/>
    <frame tileid="444" duration="100"/>
    <frame tileid="447" duration="100"/>
    <frame tileid="447" duration="100"/>
    <frame tileid="444" duration="100"/>
    <frame tileid="444" duration="100"/>
    <frame tileid="447" duration="100"/>
    <frame tileid="447" duration="100"/>
    <frame tileid="444" duration="100"/>
    <frame tileid="444" duration="100"/>
    <frame tileid="444" duration="100"/>
    <frame tileid="444" duration="100"/>
    <frame tileid="444" duration="100"/>
    <frame tileid="444" duration="100"/>
    <frame tileid="444" duration="100"/>
    <frame tileid="444" duration="100"/>
    <frame tileid="444" duration="100"/>
    <frame tileid="444" duration="100"/>
    <frame tileid="444" duration="100"/>
    <frame tileid="444" duration="100"/>
    <frame tileid="444" duration="100"/>
    <frame tileid="444" duration="100"/>
    <frame tileid="444" duration="100"/>
    <frame tileid="444" duration="100"/>
    <frame tileid="444" duration="100"/>
    <frame tileid="444" duration="100"/>
    <frame tileid="444" duration="100"/>
    <frame tileid="444" duration="100"/>
    <frame tileid="444" duration="100"/>
    <frame tileid="444" duration="100"/>
    <frame tileid="444" duration="100"/>
    <frame tileid="444" duration="100"/>
    <frame tileid="444" duration="100"/>
    <frame tileid="444" duration="100"/>
    <frame tileid="444" duration="100"/>
    <frame tileid="444" duration="100"/>
    <frame tileid="444" duration="100"/>
    <frame tileid="444" duration="100"/>
    <frame tileid="444" duration="100"/>
    <frame tileid="444" duration="100"/>
    <frame tileid="444" duration="100"/>
    <frame tileid="444" duration="100"/>
    <frame tileid="447" duration="100"/>
    <frame tileid="447" duration="100"/>
    <frame tileid="447" duration="100"/>
    <frame tileid="444" duration="100"/>
    <frame tileid="444" duration="100"/>
    <frame tileid="444" duration="100"/>
    <frame tileid="444" duration="100"/>
    <frame tileid="444" duration="100"/>
    <frame tileid="444" duration="100"/>
    <frame tileid="444" duration="100"/>
    <frame tileid="444" duration="100"/>
    <frame tileid="444" duration="100"/>
   </animation>
  </tile>
  <tile id="200">
   <properties>
    <property name="Water" value="T"/>
   </properties>
  </tile>
  <tile id="211">
   <properties>
    <property name="Water" value="T"/>
   </properties>
  </tile>
  <tile id="282">
   <properties>
    <property name="Water" value="T"/>
   </properties>
  </tile>
  <tile id="283">
   <properties>
    <property name="Water" value="T"/>
   </properties>
  </tile>
 </tileset>
 <tileset firstgid="593" source="night_market_tilesheet_objectssa.tsx"/>
 <tileset firstgid="2417" source="townInterior.tsx"/>
 <tileset firstgid="4593" source="townInterior_2.tsx"/>
 <tileset firstgid="5905" source="untitled tile sheet.tsx"/>
 <layer id="1" name="Back" width="36" height="22">
  <data encoding="csv">
0,0,0,0,0,0,0,0,0,0,0,0,0,0,0,0,0,0,0,0,0,0,0,0,0,0,0,0,0,0,0,0,0,0,0,0,
0,0,0,0,0,0,0,0,0,0,0,0,0,0,0,0,0,0,0,0,0,0,0,0,0,0,0,0,0,0,0,0,0,0,0,0,
0,0,0,0,0,0,0,0,0,0,0,0,0,0,0,0,0,0,0,0,0,0,0,0,0,0,0,0,0,0,0,0,0,0,0,0,
0,0,0,0,0,0,0,0,0,0,0,0,0,0,0,0,0,0,0,0,0,0,0,0,0,0,0,0,0,0,0,0,0,0,0,0,
0,0,0,0,0,0,0,0,0,0,0,0,0,0,0,0,0,0,0,0,0,0,0,0,0,0,0,0,0,0,0,0,0,0,0,0,
0,0,0,0,0,0,0,0,0,0,0,0,0,0,0,0,0,0,0,0,0,0,0,0,0,0,0,0,0,0,0,0,0,0,0,0,
0,0,0,0,0,0,0,0,0,0,0,0,0,0,0,0,0,0,0,0,0,0,0,0,0,0,0,0,0,0,0,0,0,0,0,0,
0,0,0,0,0,0,0,0,0,0,0,0,0,0,0,0,0,0,0,0,0,0,0,0,0,0,0,0,0,0,0,0,0,0,0,0,
0,0,0,0,0,0,0,0,0,0,0,0,0,0,0,0,0,0,0,0,0,0,0,0,0,0,0,0,0,0,0,0,0,0,0,0,
0,0,0,0,0,0,0,0,0,0,0,0,0,0,0,0,0,0,0,0,0,0,0,0,0,0,0,0,0,0,0,0,0,0,0,0,
0,0,0,0,0,0,0,0,0,0,0,0,0,0,0,0,0,0,0,0,0,0,0,0,0,0,0,0,0,0,0,0,0,0,0,0,
0,0,0,0,0,0,0,0,0,0,0,0,0,0,0,0,0,0,0,0,0,0,0,0,0,0,0,0,0,0,0,0,0,0,0,0,
0,0,0,0,0,0,0,0,0,0,0,0,0,0,0,0,0,0,0,0,0,0,0,0,0,0,0,0,0,0,0,0,0,0,0,0,
0,0,0,0,0,0,0,0,0,0,0,0,0,0,0,0,0,0,0,0,0,0,0,0,0,0,0,0,0,0,0,0,0,0,0,0,
0,0,0,0,0,0,0,0,0,0,0,0,0,0,0,0,0,0,0,0,0,0,0,0,0,0,0,0,0,0,0,0,0,0,0,0,
0,0,0,0,0,0,0,2254,2254,2254,2254,2254,2254,2254,2254,2254,2254,2254,2254,2254,2254,2254,2254,2254,2254,2254,2254,2254,2254,0,0,0,0,0,0,0,
0,0,0,0,0,0,0,2922,2922,2922,2922,2922,2922,2922,2922,2922,2922,2922,2922,2922,2922,2922,2922,2922,2922,2922,2922,2922,2922,0,0,0,0,0,0,0,
0,0,0,0,0,0,0,2922,2922,2922,2922,2922,2922,2922,2922,2922,2922,2922,2922,2922,2922,2922,2922,2922,2922,2922,2922,2922,2922,0,0,0,0,0,0,0,
0,0,0,0,0,0,0,2922,2922,2922,2922,2922,2922,2922,2922,2922,2922,2922,2922,2922,2922,2922,2922,2922,2922,2922,2922,2922,2922,0,0,0,0,0,0,0,
0,0,0,0,0,0,0,2922,2922,2922,2922,2922,2922,2922,2922,2922,2922,2922,2922,2922,2922,2922,2922,2922,2922,2922,2922,2922,2922,0,0,0,0,0,0,0,
0,0,0,0,0,0,0,2922,2922,2922,2922,2922,2922,2922,2922,2922,2922,2922,2922,2922,2922,2922,2922,2922,2922,2922,2922,2922,2922,0,0,0,0,0,0,0,
0,0,0,0,0,0,0,3358,3359,3360,3361,3360,3361,3360,3361,3360,3361,3360,3361,3360,3361,3360,3361,3360,3361,3360,3361,3364,3365,0,0,0,0,0,0,0
</data>
 </layer>
 <layer id="15" name="Back1" width="36" height="22">
  <data encoding="csv">
0,0,0,0,0,0,0,0,0,0,0,0,0,0,0,0,0,0,0,0,0,0,0,0,0,0,0,0,0,0,0,0,0,0,0,0,
0,0,0,0,0,0,0,0,0,0,0,0,0,0,0,0,0,0,0,0,0,0,0,0,0,0,0,0,0,0,0,0,0,0,0,0,
0,0,0,0,0,0,0,0,0,0,0,0,0,0,0,0,0,0,0,0,0,0,0,0,0,0,0,0,0,0,0,0,0,0,0,0,
0,0,0,0,0,0,0,0,0,0,0,0,0,0,0,0,0,0,0,0,0,0,0,0,0,0,0,0,0,0,0,0,0,0,0,0,
0,0,0,0,0,0,0,0,0,0,0,0,0,0,0,0,0,0,0,0,0,0,0,0,0,0,0,0,0,0,0,0,0,0,0,0,
0,0,0,0,0,0,0,0,0,0,0,0,0,0,0,0,0,0,0,0,0,0,0,0,0,0,0,0,0,0,0,0,0,0,0,0,
0,0,0,0,0,0,0,0,0,0,0,0,0,0,0,0,0,0,0,0,0,0,0,0,0,0,0,0,0,0,0,0,0,0,0,0,
0,0,0,0,0,0,0,0,0,0,0,0,0,0,0,0,0,0,0,0,0,0,0,0,0,0,0,0,0,0,0,0,0,0,0,0,
0,0,0,0,0,0,0,0,0,0,0,0,0,0,0,0,0,0,0,0,0,0,0,0,0,0,0,0,0,0,0,0,0,0,0,0,
0,0,0,0,0,0,0,0,0,0,0,0,0,0,0,0,0,0,0,0,0,0,0,0,0,0,0,0,0,0,0,0,0,0,0,0,
0,0,0,0,0,0,0,0,0,0,0,0,0,0,0,0,0,0,0,0,0,0,0,0,0,0,0,0,0,0,0,0,0,0,0,0,
2170,2171,2172,2173,2174,2175,2170,2171,2172,2173,2174,2175,2170,2171,2172,2173,2174,2170,2171,2172,2173,2174,2170,2171,2172,2173,2174,2170,2171,2172,2170,2171,2172,2173,2174,2175,
2194,2195,2196,2197,2198,2199,2194,2195,2196,2197,2198,2199,2194,2195,2196,2197,2198,2194,2195,2196,2197,2198,2194,2195,2196,2197,2198,2194,2195,2196,2194,2195,2196,2197,2198,2199,
2218,2219,2220,2221,2222,2223,2368,2368,2218,2219,2220,2221,2222,2223,2368,2368,2218,2219,2220,2218,2219,2220,2221,2222,2218,2219,2220,2221,2222,2223,2218,2219,2220,2221,2222,2223,
2386,2387,2388,2389,2390,2391,2392,2392,2392,2392,2392,2392,2392,2392,2392,2392,2392,2392,2392,2392,2392,2392,2392,2392,2392,2392,2392,2392,2392,2386,2387,2388,2389,2390,2391,2392,
2266,2267,2268,2269,2270,2271,2416,2416,2416,2416,2416,2416,2416,2416,2416,2416,2416,2416,2416,2416,2416,2416,2416,2416,2416,2416,2416,2416,2416,2266,2267,2268,2269,2270,2271,2416,
2266,2266,2267,2268,2269,2270,2271,0,0,0,0,0,0,0,0,0,0,0,0,5173,5174,5175,5176,0,5173,5174,5175,5176,0,2266,2267,2268,2269,2270,2271,2271,
2266,2266,2267,2268,2269,2270,2271,0,0,5656,5657,5658,5659,5660,0,0,0,0,0,5205,5206,5207,5208,0,5205,5206,5207,5208,0,2266,2267,2268,2269,2270,2271,2271,
2266,2266,2267,2268,2269,2270,2271,0,0,5688,5689,5690,5691,5692,0,0,0,0,0,5237,5238,5239,0,0,5237,5238,5239,5240,0,2266,2266,2267,2268,2269,2270,2271,
2266,2266,2267,2268,2269,2270,2271,0,0,5720,5721,5722,5723,5724,0,0,0,0,0,0,0,0,0,0,0,0,0,0,0,2266,2267,2268,2269,2270,2271,2271,
2266,2266,2267,2268,2269,2270,2271,0,0,0,0,0,0,0,0,0,0,0,0,0,0,0,0,0,0,0,0,0,0,2266,2267,2268,2269,2270,2271,2271,
2266,2266,2267,2268,2269,2270,2271,0,0,0,0,0,0,0,0,0,0,0,0,0,0,0,0,0,0,0,0,0,0,2266,2267,2268,2269,2270,2271,2271
</data>
 </layer>
 <layer id="14" name="Back2" width="36" height="22">
  <data encoding="csv">
0,0,0,0,0,0,0,0,0,0,0,0,0,0,0,0,0,0,0,0,0,0,0,0,0,0,0,0,0,0,0,0,0,0,0,0,
0,0,0,0,0,0,0,0,0,0,0,0,0,0,0,0,0,0,0,0,0,0,0,0,0,0,0,0,0,0,0,0,0,0,0,0,
0,0,0,0,0,0,0,0,0,0,0,0,0,0,0,0,0,0,0,0,0,0,0,0,0,0,0,0,0,0,0,0,0,0,0,0,
0,0,0,0,0,0,0,0,0,0,0,0,0,0,0,0,0,0,0,0,0,0,0,0,0,0,0,0,0,0,0,0,0,0,0,0,
0,0,0,0,0,0,0,0,0,0,0,0,0,0,0,0,0,0,0,0,0,0,0,0,0,0,0,0,0,0,0,0,0,0,0,0,
0,0,0,0,0,0,0,0,0,0,0,0,0,0,0,0,0,0,0,0,0,0,0,0,0,0,0,0,0,0,0,0,0,0,0,0,
0,0,0,0,0,0,0,0,0,0,0,0,0,0,0,0,0,0,0,0,0,0,0,0,0,0,0,0,0,0,0,0,0,0,0,0,
0,0,0,0,0,0,0,0,0,0,0,0,0,0,0,0,0,0,0,0,0,0,0,0,0,0,0,0,0,0,0,0,0,0,0,0,
0,0,0,0,0,0,0,0,0,0,0,0,0,0,0,0,0,0,0,0,0,0,0,0,0,0,0,0,0,0,0,0,0,0,0,0,
0,0,0,0,0,0,0,0,0,0,0,0,0,0,0,0,0,0,0,0,0,0,0,0,0,0,0,0,0,0,0,0,0,0,0,0,
0,0,0,0,0,0,0,0,0,0,0,0,0,0,0,0,0,0,0,0,0,0,0,0,0,0,0,0,0,0,0,0,0,0,0,0,
0,0,0,0,0,0,0,0,0,0,0,0,0,0,0,0,0,0,0,0,0,0,0,0,0,0,0,0,0,0,0,0,0,0,0,0,
0,0,0,0,0,0,0,0,0,0,0,0,0,0,0,0,0,0,0,0,0,0,0,0,0,0,0,0,0,0,0,0,0,0,0,0,
0,0,0,0,0,0,0,0,0,0,0,0,0,0,0,0,0,0,0,0,0,0,0,0,0,0,0,0,0,0,0,0,0,0,0,0,
0,0,0,0,0,0,0,0,0,0,0,0,0,0,0,0,0,0,0,0,0,0,0,0,0,0,0,0,0,0,0,0,0,0,0,0,
0,0,0,0,0,0,0,0,0,0,0,0,0,0,0,0,0,0,0,0,3267,3267,0,0,0,0,0,0,0,0,0,0,0,0,0,0,
0,0,0,0,0,0,0,0,0,0,0,0,0,0,0,0,0,0,0,0,0,0,0,0,0,0,0,0,0,0,0,0,0,0,0,0,
0,0,0,0,0,0,0,0,0,0,0,0,0,0,0,0,0,0,0,0,0,0,0,0,0,0,0,0,0,0,0,0,0,0,0,0,
0,0,0,0,0,0,0,0,0,0,0,0,0,0,0,0,0,0,0,0,0,0,0,0,0,0,0,0,0,0,0,0,0,0,0,0,
0,0,0,0,0,0,0,0,0,0,0,0,0,0,0,0,0,0,0,0,0,0,0,0,0,0,0,0,0,0,0,0,0,0,0,0,
0,0,0,0,0,0,0,0,0,0,0,0,0,0,0,0,0,0,0,0,0,0,0,0,0,0,0,0,0,0,0,0,0,0,0,0,
0,0,0,0,0,0,0,0,0,0,0,0,0,0,0,0,0,0,0,0,0,0,0,0,0,0,0,0,0,0,0,0,0,0,0,0
</data>
 </layer>
 <layer id="11" name="Buildings" width="36" height="22">
  <data encoding="csv">
0,0,0,0,0,0,0,0,0,0,0,0,0,0,0,0,0,0,0,0,0,0,0,0,0,0,0,0,0,0,0,0,0,0,0,0,
0,0,0,0,0,0,0,0,0,0,0,0,0,0,0,0,0,0,0,0,0,0,0,0,0,0,0,0,0,0,0,0,0,0,0,0,
0,0,0,0,0,0,0,0,0,0,0,0,0,0,0,0,0,0,0,0,0,0,0,0,0,0,0,0,0,0,0,0,0,0,0,0,
0,0,0,0,0,0,0,0,0,0,0,0,0,0,0,0,0,0,0,0,0,0,0,0,0,0,0,0,0,0,0,0,0,0,0,0,
0,0,0,0,0,0,0,0,0,0,0,0,0,0,0,0,0,0,0,0,0,0,0,0,0,0,0,0,0,0,0,0,0,0,0,0,
0,0,0,0,0,0,0,0,0,0,0,0,0,0,0,0,0,0,0,0,0,0,0,0,0,0,0,0,0,0,0,0,0,0,0,0,
0,0,0,0,0,0,0,0,0,0,0,0,0,0,0,0,0,0,0,0,0,0,0,0,0,0,0,0,0,0,0,0,0,0,0,0,
0,0,0,0,0,0,0,0,0,0,0,0,0,0,0,0,0,0,0,0,0,0,0,0,0,0,0,0,0,0,0,0,0,0,0,0,
0,0,0,0,0,0,0,0,0,0,0,0,0,0,0,0,0,0,0,0,0,0,0,0,0,0,0,0,0,0,0,0,0,0,0,0,
0,0,0,0,0,0,0,0,0,0,0,0,0,0,0,0,0,0,0,0,0,0,0,0,0,0,0,0,0,0,0,0,0,0,0,0,
0,0,0,0,0,0,0,0,0,0,0,0,0,0,0,0,0,0,0,0,0,0,0,0,0,0,0,0,0,0,0,0,0,0,0,0,
0,0,0,0,0,0,0,1622,1623,1622,1623,1622,1623,1616,0,0,0,0,0,0,0,0,0,1622,1623,1622,1623,1622,1623,0,0,0,0,0,0,0,
0,0,0,0,0,0,0,1646,1647,1646,1647,1646,1647,1640,3784,5770,5769,5770,5769,5770,5769,5770,5769,1646,1647,1646,1647,1646,1647,0,0,0,0,0,0,0,
0,0,0,0,0,0,0,1670,1671,1670,1671,1670,1671,1664,0,0,1665,0,0,0,0,0,0,1670,1671,1670,1671,1670,1671,0,0,0,0,0,0,0,
0,0,0,0,0,0,0,1670,1671,1670,1671,1670,1671,1670,1671,1670,1671,1670,1671,1670,1671,1670,1671,1670,1671,1670,1671,1670,1671,0,0,0,0,0,0,0,
0,0,0,0,0,0,0,3262,3263,3267,3267,3267,3267,3267,3267,3267,3267,3267,3267,3267,2971,2972,3267,3267,3267,3267,3267,3268,3269,0,0,0,0,0,0,0,
0,0,0,0,0,0,0,2921,3640,2930,3560,0,0,0,5801,1195,3309,3303,4116,0,3003,3004,2634,3479,3903,3303,3272,3273,3903,0,0,0,0,0,0,0,
0,0,0,0,0,0,0,3903,0,3479,0,0,3776,3777,0,0,0,0,0,0,3035,3036,2952,0,0,0,3304,3305,2923,0,0,0,0,0,0,0,
0,0,0,0,0,0,0,4564,3784,0,0,0,0,0,0,0,0,0,0,0,4564,5801,3784,0,0,0,0,3303,2923,0,0,0,0,0,0,0,
0,0,0,0,0,0,0,2921,4564,0,0,0,0,0,0,1195,3576,0,0,3744,3745,3784,3765,0,0,0,4564,0,2923,0,0,0,0,0,0,0,
0,0,0,0,0,0,0,4564,0,3776,3777,0,0,0,0,0,0,0,0,3776,3777,0,0,0,0,4564,0,4564,3784,0,0,0,0,0,0,0,
0,0,0,0,0,0,0,3358,3359,3360,3361,3360,3361,3360,3361,3360,3361,3360,3361,3360,3361,3360,3361,3360,3361,3360,3361,3364,3365,0,0,0,0,0,0,0
</data>
 </layer>
 <layer id="12" name="Front" width="36" height="22">
  <data encoding="csv">
0,0,0,0,0,0,0,0,0,0,0,0,0,0,0,0,0,0,0,0,0,0,0,0,0,0,0,0,0,0,0,0,0,0,0,0,
0,0,0,0,0,0,0,0,0,0,0,0,0,0,0,0,0,0,0,0,0,0,0,0,0,0,0,0,0,0,0,0,0,0,0,0,
0,0,0,0,0,0,0,0,0,0,0,0,0,0,0,0,0,0,0,0,0,0,0,0,0,0,0,0,0,0,0,0,0,0,0,0,
0,0,0,0,0,0,0,0,0,0,0,0,0,0,0,0,0,0,0,0,0,0,0,0,0,0,0,0,0,0,0,0,0,0,0,0,
0,0,0,0,0,0,0,0,0,0,0,0,0,0,0,0,0,0,0,0,0,0,0,0,0,0,0,0,0,0,0,0,0,0,0,0,
0,0,0,0,0,0,0,0,0,0,0,0,0,0,0,0,0,0,0,0,0,0,0,0,0,0,0,0,0,0,0,0,0,0,0,0,
0,0,0,0,0,0,0,0,0,0,0,0,0,0,0,0,0,0,0,0,0,0,0,0,0,0,0,0,0,0,0,0,0,0,0,0,
0,0,0,0,0,0,0,0,0,0,0,0,0,0,0,0,0,0,0,0,0,0,0,0,0,0,0,0,0,0,0,0,0,0,0,0,
0,0,0,0,0,0,0,0,0,0,0,0,0,0,0,0,0,0,0,0,0,0,0,0,0,0,0,0,0,0,0,0,0,0,0,0,
0,0,0,0,0,0,0,0,0,0,0,0,0,0,0,0,0,0,0,0,0,0,0,0,0,0,0,0,0,0,0,0,0,0,0,0,
0,0,0,0,0,0,0,0,0,0,0,0,0,0,0,0,0,0,0,0,0,0,0,0,0,0,0,0,0,0,0,0,0,0,0,0,
0,0,0,0,0,0,0,0,0,0,0,0,0,0,1617,1622,1623,1622,1623,1622,1623,1622,1623,0,0,0,0,0,0,0,0,0,0,0,0,0,
0,0,0,0,0,0,0,5134,0,0,0,0,0,0,1641,1646,1647,1646,1647,1646,1647,1646,1647,0,0,0,0,0,5133,0,0,0,0,0,0,0,
0,0,0,0,0,0,0,5134,0,0,0,0,0,0,1671,1670,1671,1670,1671,1670,1671,1670,1671,0,0,0,0,0,5133,0,0,0,0,0,0,0,
0,0,0,0,0,0,0,5134,0,0,0,0,0,0,0,0,0,0,0,0,0,0,0,0,0,0,0,0,5133,0,0,0,0,0,0,0,
0,0,0,0,0,0,0,5166,0,0,3528,0,0,0,0,0,3277,0,4084,0,0,0,0,0,0,0,0,0,5133,0,0,0,0,0,0,0,
0,0,0,0,0,0,0,0,0,0,0,0,3744,3745,0,0,0,0,0,0,0,0,2920,0,0,0,0,3511,0,0,0,0,0,0,0,0,
0,0,0,0,0,0,0,4532,3752,0,0,0,0,0,0,0,0,0,0,0,3746,3747,2827,0,0,0,0,0,0,0,0,0,0,0,0,0,
0,0,0,0,0,0,0,0,4532,0,0,0,0,0,0,0,0,0,0,0,3778,3779,0,0,0,0,4532,0,0,0,0,0,0,0,0,0,
0,0,0,0,0,0,0,4532,0,3744,3745,0,0,0,0,0,0,0,0,0,0,0,0,0,0,4532,0,4532,3752,0,0,0,0,0,0,0,
0,0,0,0,0,0,0,0,0,0,0,0,0,0,0,0,0,0,0,0,0,0,0,0,0,0,0,0,0,0,0,0,0,0,0,0,
0,0,0,0,0,0,0,0,0,0,0,0,0,0,0,0,0,0,0,0,0,0,0,0,0,0,0,0,0,0,0,0,0,0,0,0
</data>
 </layer>
 <layer id="13" name="AlwaysFront" width="36" height="22">
  <data encoding="csv">
0,0,0,0,0,0,0,0,0,0,0,0,0,0,0,0,0,0,0,0,0,0,0,0,0,0,0,0,0,0,0,0,0,0,0,0,
0,0,0,0,0,0,0,0,0,0,0,0,0,0,0,0,0,0,0,0,0,0,0,0,0,0,0,0,0,0,0,0,0,0,0,0,
0,0,0,0,0,0,0,0,0,0,0,0,0,0,0,0,0,0,0,0,0,0,0,0,0,0,0,0,0,0,0,0,0,0,0,0,
0,0,0,0,0,0,0,0,0,0,0,0,0,0,0,0,0,0,0,0,0,0,0,0,0,0,0,0,0,0,0,0,0,0,0,0,
0,0,0,0,0,0,0,0,0,0,0,0,0,0,0,0,0,0,0,0,0,0,0,0,0,0,0,0,0,0,0,0,0,0,0,0,
0,0,0,0,0,0,0,0,0,0,0,0,0,0,0,0,0,0,0,0,0,0,0,0,0,0,0,0,0,0,0,0,0,0,0,0,
0,0,0,0,0,0,0,0,0,0,0,0,0,0,0,0,0,0,0,0,0,0,0,0,0,0,0,0,0,0,0,0,0,0,0,0,
0,0,0,0,0,0,0,0,0,0,0,0,0,0,0,0,0,0,0,0,0,0,0,0,0,0,0,0,0,0,0,0,0,0,0,0,
0,0,0,0,0,0,0,0,0,0,0,0,0,0,0,0,0,0,0,0,0,0,0,0,0,0,0,0,0,0,0,0,0,0,0,0,
0,0,0,0,0,0,0,0,0,0,0,0,0,0,0,0,0,0,0,0,0,0,0,0,0,0,0,0,0,0,0,0,0,0,0,0,
0,0,0,0,0,0,0,0,0,0,0,0,0,0,0,0,1191,0,0,0,2147484791,0,0,0,0,0,0,0,0,0,0,0,0,0,0,0,
0,0,0,0,0,0,1615,0,0,0,0,0,0,0,0,1142,1143,0,0,0,0,0,0,0,0,0,0,0,0,1624,0,0,0,0,0,0,
0,0,0,0,0,0,1639,0,0,0,0,0,0,0,4884,3315,0,0,0,0,2147484839,3315,2147484837,0,4855,4856,0,0,0,1648,0,0,0,0,0,0,
0,0,0,0,0,0,1663,0,0,0,0,0,0,0,4916,0,1191,0,0,0,2147484791,0,0,0,4887,4888,0,0,0,1672,0,0,0,0,0,0,
0,0,0,0,0,0,1663,0,0,0,0,0,0,0,0,0,0,0,0,0,0,0,0,0,0,0,0,0,0,1672,0,0,0,0,0,0,
0,0,0,0,0,0,1663,0,0,0,0,0,0,0,0,0,0,0,0,0,2147484839,2147484838,2147484837,0,0,0,0,0,0,1672,0,0,0,0,0,0,
0,0,0,0,0,0,1663,0,0,0,0,0,0,0,0,0,0,0,0,0,0,0,0,0,0,0,0,0,0,1672,0,0,0,0,0,0,
0,0,0,0,0,0,1663,0,0,0,0,0,0,0,0,0,0,0,0,0,0,3674,0,0,0,0,0,0,0,1672,0,0,0,0,0,0,
0,0,0,0,0,0,1663,0,0,0,0,0,0,0,0,0,0,0,0,0,0,2592,0,0,0,0,0,0,0,1672,0,0,0,0,0,0,
0,0,0,0,0,0,1663,0,0,0,0,0,0,0,0,0,0,0,0,0,0,0,0,0,0,0,0,0,0,1672,0,0,0,0,0,0,
0,0,0,0,0,0,1663,0,0,0,0,0,0,0,0,0,0,0,0,0,0,0,0,0,0,0,0,0,0,1672,0,0,0,0,0,0,
0,0,0,0,0,0,1687,0,0,0,0,0,0,0,0,0,0,0,0,0,0,0,0,0,0,0,0,0,0,1696,0,0,0,0,0,0
</data>
 </layer>
 <layer id="5" name="Paths" width="36" height="22">
  <data encoding="csv">
0,0,0,0,0,0,0,0,0,0,0,0,0,0,0,0,0,0,0,0,0,0,0,0,0,0,0,0,0,0,0,0,0,0,0,0,
0,0,0,0,0,0,0,0,0,0,0,0,0,0,0,0,0,0,0,0,0,0,0,0,0,0,0,0,0,0,0,0,0,0,0,0,
0,0,0,0,0,0,0,0,0,0,0,0,0,0,0,0,0,0,0,0,0,0,0,0,0,0,0,0,0,0,0,0,0,0,0,0,
0,0,0,0,0,0,0,0,0,0,0,0,0,0,0,0,0,0,0,0,0,0,0,0,0,0,0,0,0,0,0,0,0,0,0,0,
0,0,0,0,0,0,0,0,0,0,0,0,0,0,0,0,0,0,0,0,0,0,0,0,0,0,0,0,0,0,0,0,0,0,0,0,
0,0,0,0,0,0,0,0,0,0,0,0,0,0,0,0,0,0,0,0,0,0,0,0,0,0,0,0,0,0,0,0,0,0,0,0,
0,0,0,0,0,0,0,0,0,0,0,0,0,0,0,0,0,0,0,0,0,0,0,0,0,0,0,0,0,0,0,0,0,0,0,0,
0,0,0,0,0,0,0,0,0,0,0,0,0,0,0,0,0,0,0,0,0,0,0,0,0,0,0,0,0,0,0,0,0,0,0,0,
0,0,0,0,0,0,0,0,0,0,0,0,0,0,0,0,0,0,0,0,0,0,0,0,0,0,0,0,0,0,0,0,0,0,0,0,
0,0,0,0,0,0,0,0,0,0,0,0,0,0,0,0,0,0,0,0,0,0,0,0,0,0,0,0,0,0,0,0,0,0,0,0,
0,0,0,0,0,0,0,0,0,0,0,0,0,0,0,0,0,0,0,0,0,0,0,0,0,0,0,0,0,0,0,0,0,0,0,0,
0,0,0,0,0,0,0,0,0,0,0,0,0,0,0,0,0,0,0,0,0,0,0,0,0,0,0,0,0,0,0,0,0,0,0,0,
0,0,0,0,0,0,0,0,0,0,0,0,0,0,0,0,0,0,0,0,0,0,0,0,0,0,0,0,0,0,0,0,0,0,0,0,
0,0,0,0,0,0,0,0,0,0,0,0,0,0,0,0,0,0,0,0,0,0,0,0,0,0,0,0,0,0,0,0,0,0,0,0,
0,0,0,0,0,0,0,0,0,0,0,0,0,0,0,0,0,0,0,0,0,0,0,0,0,0,0,0,0,0,0,0,0,0,0,0,
0,0,0,0,0,0,0,0,0,0,0,0,0,0,0,0,0,0,0,0,0,0,0,0,0,0,0,0,0,0,0,0,0,0,0,0,
0,0,0,0,0,0,0,0,0,0,0,0,0,0,0,0,0,0,0,0,0,0,0,0,0,0,0,0,0,0,0,0,0,0,0,0,
0,0,0,0,0,0,0,0,0,0,0,0,0,0,0,0,0,0,0,0,0,0,0,0,0,0,0,0,0,0,0,0,0,0,0,0,
0,0,0,0,0,0,0,0,0,0,0,0,0,0,0,0,0,0,0,0,0,0,0,0,0,0,0,0,0,0,0,0,0,0,0,0,
0,0,0,0,0,0,0,0,0,0,0,0,0,0,0,0,0,0,0,0,0,0,0,0,0,0,0,0,0,0,0,0,0,0,0,0,
0,0,0,0,0,0,0,0,0,0,0,0,0,0,0,0,0,0,0,0,0,0,0,0,0,0,0,0,0,0,0,0,0,0,0,0,
0,0,0,0,0,0,0,0,0,0,9,9,9,0,0,0,9,9,9,0,0,0,9,9,9,0,0,0,0,0,0,0,0,0,0,0
</data>
 </layer>
 <objectgroup id="6" name="Back" visible="0">
  <object id="6" name="TileData" x="256" y="288" width="16" height="16">
   <properties>
    <property name="Type" value="Wood"/>
   </properties>
  </object>
  <object id="7" name="TileData" x="240" y="288" width="16" height="16">
   <properties>
    <property name="Type" value="Wood"/>
   </properties>
  </object>
  <object id="8" name="TileData" x="224" y="288" width="16" height="16">
   <properties>
    <property name="Type" value="Wood"/>
   </properties>
  </object>
  <object id="9" name="TileData" x="224" y="272" width="16" height="16">
   <properties>
    <property name="Type" value="Wood"/>
   </properties>
  </object>
  <object id="10" name="TileData" x="240" y="272" width="16" height="16">
   <properties>
    <property name="Type" value="Wood"/>
   </properties>
  </object>
  <object id="11" name="TileData" x="256" y="272" width="16" height="16">
   <properties>
    <property name="Type" value="Wood"/>
   </properties>
  </object>
  <object id="12" name="TileData" x="272" y="272" width="16" height="16">
   <properties>
    <property name="Type" value="Wood"/>
   </properties>
  </object>
  <object id="13" name="TileData" x="272" y="288" width="16" height="16">
   <properties>
    <property name="Type" value="Wood"/>
   </properties>
  </object>
  <object id="14" name="TileData" x="288" y="288" width="16" height="16">
   <properties>
    <property name="Type" value="Wood"/>
   </properties>
  </object>
  <object id="15" name="TileData" x="288" y="272" width="16" height="16">
   <properties>
    <property name="Type" value="Wood"/>
   </properties>
  </object>
  <object id="16" name="TileData" x="304" y="272" width="16" height="16">
   <properties>
    <property name="Type" value="Wood"/>
   </properties>
  </object>
  <object id="17" name="TileData" x="304" y="256" width="16" height="16">
   <properties>
    <property name="Type" value="Wood"/>
   </properties>
  </object>
  <object id="18" name="TileData" x="304" y="288" width="16" height="16">
   <properties>
    <property name="Type" value="Wood"/>
   </properties>
  </object>
  <object id="19" name="TileData" x="272" y="304" width="16" height="16">
   <properties>
    <property name="Type" value="Wood"/>
   </properties>
  </object>
  <object id="20" name="TileData" x="288" y="304" width="16" height="16">
   <properties>
    <property name="Type" value="Wood"/>
   </properties>
  </object>
  <object id="33" name="TileData" x="304" y="304" width="16" height="16">
   <properties>
    <property name="Type" value="Wood"/>
   </properties>
  </object>
  <object id="34" name="TileData" x="320" y="304" width="16" height="16">
   <properties>
    <property name="Type" value="Wood"/>
   </properties>
  </object>
  <object id="21" name="TileData" x="288" y="320" width="16" height="16">
   <properties>
    <property name="Type" value="Wood"/>
   </properties>
  </object>
  <object id="22" name="TileData" x="272" y="320" width="16" height="16">
   <properties>
    <property name="Type" value="Wood"/>
   </properties>
  </object>
  <object id="23" name="TileData" x="256" y="320" width="16" height="16">
   <properties>
    <property name="Type" value="Wood"/>
   </properties>
  </object>
  <object id="24" name="TileData" x="240" y="320" width="16" height="16">
   <properties>
    <property name="Type" value="Wood"/>
   </properties>
  </object>
  <object id="25" name="TileData" x="208" y="320" width="16" height="16">
   <properties>
    <property name="Type" value="Wood"/>
   </properties>
  </object>
  <object id="28" name="TileData" x="192" y="320" width="16" height="16">
   <properties>
    <property name="Type" value="Wood"/>
   </properties>
  </object>
  <object id="29" name="TileData" x="176" y="320" width="16" height="16">
   <properties>
    <property name="Type" value="Wood"/>
   </properties>
  </object>
  <object id="30" name="TileData" x="176" y="256" width="16" height="16">
   <properties>
    <property name="Type" value="Wood"/>
   </properties>
  </object>
  <object id="31" name="TileData" x="192" y="256" width="16" height="16">
   <properties>
    <property name="Type" value="Wood"/>
   </properties>
  </object>
  <object id="32" name="TileData" x="208" y="256" width="16" height="16">
   <properties>
    <property name="Type" value="Wood"/>
   </properties>
  </object>
  <object id="26" name="TileData" x="224" y="304" width="16" height="16">
   <properties>
    <property name="Type" value="Wood"/>
   </properties>
  </object>
  <object id="27" name="TileData" x="224" y="320" width="16" height="16">
   <properties>
    <property name="Type" value="Wood"/>
   </properties>
  </object>
 </objectgroup>
 <objectgroup id="7" name="Buildings" visible="0">
  <object id="4" name="TileData" x="256" y="304" width="16" height="16">
   <properties>
    <property name="NPCPassable" value="T"/>
   </properties>
  </object>
  <object id="5" name="TileData" x="256" y="304" width="16" height="16">
   <properties>
    <property name="Action" value="Warp 10 8 Sub_Back 10 8"/>
   </properties>
  </object>
 </objectgroup>
 <objectgroup id="8" name="Front"/>
 <objectgroup id="9" name="AlwaysFront"/>
 <objectgroup id="10" name="Paths"/>
</map>
