<?xml version="1.0" encoding="UTF-8"?>
<map version="1.10" tiledversion="1.11.0" orientation="orthogonal" renderorder="right-down" compressionlevel="0" width="22" height="16" tilewidth="16" tileheight="16" infinite="0" nextlayerid="9" nextobjectid="4">
 <properties>
  <property name="AmbientLight" value="180 135 135"/>
  <property name="forceLoadPathLayerLights" value="T"/>
 </properties>
 <tileset firstgid="1" name="p" tilewidth="16" tileheight="16" tilecount="64" columns="4">
  <image source="paths" width="64" height="256"/>
 </tileset>
 <tileset firstgid="65" name="untitled tile sheet" tilewidth="16" tileheight="16" tilecount="2176" columns="32">
  <image source="townInterior" width="512" height="1088"/>
 </tileset>
 <tileset firstgid="2241" source="train.tsx"/>
 <layer id="1" name="Back" width="22" height="16" opacity="0.97">
  <data encoding="csv">
2258,2258,2258,2258,2258,2258,2258,2258,2258,2258,2258,2258,2258,2258,2258,2258,2258,2258,2258,2258,2258,2258,
2258,2258,2258,2258,2258,2258,2258,2258,2258,2258,2258,2258,2258,2258,2258,2258,2258,2258,2258,2258,2258,2258,
2258,2258,2258,2258,2258,2258,2258,2258,2258,2258,2258,2258,2258,2258,2258,2258,2258,2258,2258,2258,2258,2258,
2258,2258,2258,2258,2258,2258,2258,2258,2258,2258,2258,2258,2258,2258,2258,2258,2258,2258,2258,2258,2258,2258,
2258,2258,2258,2258,2258,2390,2391,2392,2393,2394,2395,2396,2397,2398,2399,2400,2401,2402,2258,2258,2258,2258,
2258,2258,2258,2258,2258,2408,2409,2410,2411,2412,2413,2414,2415,2416,2417,2418,2419,2420,2258,2258,2258,2258,
2258,2258,2258,2258,2258,2426,2427,2428,2429,2430,2431,2432,2433,2434,2435,2436,2437,2438,2258,2258,2258,2258,
2258,2258,2258,2258,2258,2444,2445,2446,2447,2448,2449,2450,2451,2452,2453,2454,2455,2456,2258,2258,2258,2258,
2258,2258,2258,2258,2258,2462,2463,2464,2465,2466,2467,2468,2469,2470,2471,2472,2473,2474,2258,2258,2258,2258,
2258,2258,2258,2258,2258,2480,2481,2482,2483,2484,2485,2486,2487,2488,2489,2490,2491,2492,2258,2258,2258,2258,
2258,2258,2258,2258,2258,2498,2499,2500,2501,2502,2503,2504,2505,2506,2507,2508,2509,2510,2258,2258,2258,2258,
2258,2258,2258,2258,2258,2516,2517,2518,2519,2520,2521,2522,2523,2524,2525,2479,2527,2528,2258,2258,2258,2258,
2258,2258,2258,2258,2258,2258,2258,2258,2258,2258,2258,2258,2258,2258,2258,2258,2258,2258,2258,2258,2258,2258,
2258,2258,2258,2258,2258,2258,2258,2258,2258,2258,2258,2258,2258,2258,2258,2258,2258,2258,2258,2258,2258,2258,
2258,2258,2258,2258,2258,2258,2258,2258,2258,2258,2258,2258,2258,2258,2258,2258,2258,2258,2258,2258,2258,2258,
2258,2258,2258,2258,2258,2258,2258,2258,2258,2258,2258,2258,2258,2258,2258,2258,2258,2258,2258,2258,2258,2258
</data>
 </layer>
 <layer id="2" name="Buildings" width="22" height="16">
  <data encoding="csv">
0,0,0,0,0,0,0,0,0,0,0,0,0,0,0,0,0,0,0,0,0,0,
0,0,0,0,0,0,0,0,0,0,0,0,0,0,0,0,0,0,0,0,0,0,
0,0,0,0,0,0,0,0,0,0,0,0,0,0,0,0,0,0,0,0,0,0,
0,0,0,0,0,0,0,0,0,0,0,0,0,0,0,0,0,0,0,0,0,0,
0,0,0,0,0,0,0,0,0,0,0,0,0,0,0,0,0,0,0,0,0,0,
0,2404,2405,0,0,0,0,0,0,0,2413,2414,2415,0,0,0,0,0,0,0,0,0,
0,0,0,0,0,0,0,0,0,0,2431,2432,2433,0,0,0,0,0,0,0,0,0,
0,0,0,0,0,0,0,0,0,0,2449,2450,2451,0,0,0,0,0,0,0,0,0,
0,0,2459,2460,2461,2462,2463,2464,2465,2466,2467,2468,2469,2470,2471,2472,2473,0,0,0,0,0,
0,0,2477,2478,0,0,2481,2482,2483,0,0,0,0,0,0,0,0,2348,0,0,0,0,
0,0,2495,2496,2479,0,0,2500,2502,2503,2504,2505,2506,0,2363,0,2365,2366,0,0,0,0,
2367,2368,2369,2370,2371,2372,2373,2374,2375,2376,2377,2378,2379,2380,2381,2382,2383,0,0,0,0,0,
0,0,0,0,0,0,0,0,0,0,0,0,0,0,0,0,0,0,0,0,0,0,
0,0,0,0,0,0,0,0,0,0,0,0,0,0,0,0,0,0,0,0,0,0,
0,0,0,0,0,0,0,0,0,0,0,0,0,0,0,0,0,0,0,0,0,0,
0,0,0,0,0,0,0,0,0,0,0,0,0,0,0,0,0,0,0,0,0,0
</data>
 </layer>
 <layer id="3" name="Front" width="22" height="16">
  <data encoding="csv">
0,0,0,0,0,0,0,0,0,0,0,0,0,0,0,0,0,0,0,0,0,0,
0,0,0,0,0,0,0,0,0,0,0,0,0,0,0,0,0,0,0,0,0,0,
0,0,0,0,0,0,0,0,0,0,0,0,0,0,0,0,0,0,0,0,0,0,
0,0,0,0,0,0,0,0,0,0,0,0,0,0,0,0,0,0,0,0,0,0,
2241,2242,2243,2244,2245,2246,2247,2248,2249,2250,2251,2252,2253,2254,2255,2256,2257,2258,0,0,0,0,
2259,2260,2261,2262,2263,2264,2265,2266,2267,2268,2269,2270,2271,2272,2273,2274,2275,2276,0,0,0,0,
2277,2422,2423,2280,2281,2282,2283,2284,2285,2286,2287,2288,2289,2290,2291,2292,2293,2294,0,0,0,0,
2295,2296,2297,2298,2299,2300,2301,2302,2303,2304,2305,2306,2307,2308,2309,2310,2311,2312,0,0,0,0,
2313,2314,2315,2316,2317,2318,2319,2320,2321,2322,2323,2324,2325,2326,2327,2328,2329,2330,0,0,0,0,
2331,2332,2477,0,2335,2336,2337,2338,2339,2340,2341,2342,2343,2344,2345,2346,2347,2348,0,0,0,0,
2349,2350,2351,2352,2353,2354,2355,2356,2357,2358,2359,2360,2361,2362,2363,2364,2365,2366,0,0,0,0,
2367,2368,2369,2370,2371,2372,2373,2374,2375,2376,2377,2378,2379,2380,2381,2382,2383,2384,0,0,0,0,
0,0,0,0,0,0,0,0,0,0,0,0,0,0,0,0,0,0,0,0,0,0,
0,0,0,0,0,0,0,0,0,0,0,0,0,0,0,0,0,0,0,0,0,0,
0,0,0,0,0,0,0,0,0,0,0,0,0,0,0,0,0,0,0,0,0,0,
0,0,0,0,0,0,0,0,0,0,0,0,0,0,0,0,0,0,0,0,0,0
</data>
 </layer>
 <layer id="4" name="Paths" width="22" height="16">
  <data encoding="csv">
0,0,0,0,0,0,0,0,0,0,0,0,0,0,0,0,0,0,0,0,0,0,
0,0,0,0,0,0,0,0,0,0,0,0,0,0,0,0,0,0,0,0,0,0,
0,0,0,0,0,0,0,0,0,0,0,0,0,0,0,0,0,0,0,0,0,0,
0,0,0,0,0,0,0,0,0,0,0,0,0,0,0,0,0,0,0,0,0,0,
0,0,0,0,0,0,0,0,0,0,0,0,0,0,0,0,0,0,0,0,0,0,
0,0,0,0,0,0,0,0,0,0,0,0,0,0,0,0,0,0,0,0,0,0,
0,0,0,0,0,0,0,0,0,0,0,9,9,0,0,0,0,0,0,0,0,0,
0,0,0,0,0,0,0,0,0,0,0,0,0,0,0,0,0,0,0,0,0,0,
0,0,0,0,0,0,0,0,0,0,0,0,0,0,0,0,0,0,0,0,0,0,
0,0,0,0,0,0,0,0,0,0,0,0,0,0,0,0,0,0,0,0,0,0,
0,0,0,0,0,0,0,0,0,0,0,0,0,0,0,0,0,0,0,0,0,0,
0,0,0,0,0,0,0,0,0,0,0,0,0,0,0,0,0,0,0,0,0,0,
0,0,0,0,0,0,0,0,0,0,0,0,0,0,0,0,0,0,0,0,0,0,
0,0,0,0,0,0,0,0,0,0,0,0,0,0,0,0,0,0,0,0,0,0,
0,0,0,0,0,0,0,0,0,0,0,0,0,0,0,0,0,0,0,0,0,0,
0,0,0,0,0,0,0,0,0,0,0,0,0,0,0,0,0,0,0,0,0,0
</data>
 </layer>
 <objectgroup id="5" name="Back"/>
 <objectgroup id="6" name="Buildings">
  <object id="2" name="TileData" x="176" y="128" width="16" height="16">
   <properties>
    <property name="Action" value="Message &quot;tarotrain.1&quot;"/>
   </properties>
  </object>
 </objectgroup>
 <objectgroup id="7" name="Front"/>
 <objectgroup id="8" name="Paths"/>
</map>
