<?xml version="1.0" encoding="UTF-8"?>
<map version="1.10" tiledversion="1.11.0" orientation="orthogonal" renderorder="right-down" compressionlevel="0" width="10" height="12" tilewidth="16" tileheight="16" infinite="0" nextlayerid="9" nextobjectid="6">
 <properties>
  <property name="Light" value="3 1 6 6 1 6 8 8 1 7 6 1 1 7 1"/>
 </properties>
 <tileset firstgid="1" name="mermaid_tiles" tilewidth="16" tileheight="16" tilecount="117" columns="9">
  <image source="mermaid_house_tiles" width="144" height="208"/>
 </tileset>
 <tileset firstgid="118" source="train.tsx"/>
 <layer id="1" name="Back" width="10" height="12">
  <data encoding="csv">
640,641,642,643,644,645,646,647,648,649,
658,659,660,661,662,663,664,665,666,667,
676,677,678,679,680,681,682,683,684,685,
694,695,696,697,698,699,700,701,702,703,
712,713,714,715,716,717,718,719,720,721,
730,731,732,733,734,735,736,737,738,739,
748,749,750,751,752,753,754,755,756,757,
766,767,768,769,770,771,772,773,774,775,
784,785,786,787,788,789,790,791,792,793,
802,803,804,805,806,807,808,809,810,811,
820,821,822,823,824,825,826,827,828,829,
1,1,1,1,1,1,1,1,1,0
</data>
 </layer>
 <layer id="2" name="Buildings" width="10" height="12">
  <data encoding="csv">
0,0,0,0,0,0,0,0,0,0,
0,0,0,661,0,0,664,0,0,0,
0,0,0,0,0,0,0,0,0,0,
0,0,0,697,698,699,700,0,0,0,
0,0,0,715,0,0,718,0,0,0,
0,731,732,733,0,0,736,737,0,0,
0,749,0,0,0,0,754,755,0,0,
0,767,0,0,0,0,0,773,774,0,
0,785,0,0,0,0,0,791,0,0,
0,803,0,0,0,0,0,809,0,0,
0,1,1,1,0,1,1,1,1,0,
1,1,1,1,827,1,1,1,1,0
</data>
 </layer>
 <layer id="3" name="AlwaysFront" width="10" height="12">
  <data encoding="csv">
0,0,0,0,0,0,0,0,0,0,
0,0,0,0,0,0,0,0,0,0,
0,0,0,0,0,0,0,0,0,0,
0,0,0,0,0,0,0,0,0,0,
0,0,0,0,0,0,0,0,0,0,
0,0,0,0,0,0,0,0,0,0,
0,0,0,0,0,0,0,0,0,0,
0,0,0,0,0,0,0,0,0,0,
0,0,0,0,0,0,0,0,0,0,
0,838,0,840,0,842,844,844,843,0,
91,1,1,823,841,825,1,1,99,0,
0,1,1,1,1,1,1,1,0,0
</data>
 </layer>
 <layer id="4" name="Front" width="10" height="12">
  <data encoding="csv">
0,0,0,0,0,0,0,0,0,0,
0,0,0,0,0,0,0,0,0,0,
0,0,0,0,0,0,0,0,0,0,
0,0,0,0,0,0,0,0,0,0,
0,0,0,0,0,0,0,0,0,0,
0,0,0,0,0,0,0,0,0,0,
0,0,0,0,0,0,0,0,0,0,
0,0,0,0,0,0,0,0,0,0,
0,0,0,0,0,0,0,0,0,0,
0,0,0,0,0,0,0,0,0,0,
0,0,0,0,0,0,0,0,0,0,
0,0,0,0,0,0,0,0,0,0
</data>
 </layer>
 <objectgroup id="5" name="Back"/>
 <objectgroup id="6" name="Buildings">
  <object id="2" name="TileData" x="80" y="48" width="16" height="16">
   <properties>
    <property name="Action" value="Message &quot;Maps.1&quot;"/>
   </properties>
  </object>
  <object id="3" name="TileData" x="112" y="128" width="16" height="16">
   <properties>
    <property name="Action" value="Message &quot;Reports.1&quot;"/>
   </properties>
  </object>
  <object id="4" name="TileData" x="96" y="80" width="16" height="16">
   <properties>
    <property name="Action" value="Message &quot;Snail.1&quot;"/>
   </properties>
  </object>
  <object id="5" name="TileData" x="16" y="112" width="16" height="16">
   <properties>
    <property name="Action" value="Message &quot;Object.1&quot;"/>
   </properties>
  </object>
 </objectgroup>
 <objectgroup id="7" name="AlwaysFront"/>
 <objectgroup id="8" name="Front"/>
</map>
