<?xml version="1.0" encoding="UTF-8"?>
<map version="1.10" tiledversion="1.11.0" orientation="orthogonal" renderorder="right-down" compressionlevel="0" width="31" height="32" tilewidth="16" tileheight="16" infinite="0" nextlayerid="11" nextobjectid="65">
 <properties>
  <property name="BrookSounds" value="7 4 0 26 8 0 21 24 0"/>
  <property name="Fall_Objects" value="T"/>
  <property name="Outdoors" value="T"/>
  <property name="Spring_Objects" value="T"/>
  <property name="Summer_Objects" value="T"/>
  <property name="Winter_Objects" value="T"/>
 </properties>
 <tileset firstgid="1" name="Paths" tilewidth="16" tileheight="16" tilecount="64" columns="4">
  <image source="paths" width="64" height="256"/>
 </tileset>
 <tileset firstgid="65" name="untitled tile sheet" tilewidth="16" tileheight="16" tilecount="1975" columns="25">
  <image source="spring_outdoorsTileSheet" width="400" height="1264"/>
  <tile id="0">
   <animation>
    <frame tileid="151" duration="700"/>
    <frame tileid="152" duration="700"/>
   </animation>
  </tile>
  <tile id="150">
   <properties>
    <property name="Spawnable" value="T"/>
    <property name="Type" value="Grass"/>
   </properties>
  </tile>
  <tile id="151">
   <properties>
    <property name="Type" value="Grass"/>
   </properties>
   <animation>
    <frame tileid="152" duration="700"/>
    <frame tileid="151" duration="700"/>
   </animation>
  </tile>
  <tile id="175">
   <properties>
    <property name="Spawnable" value="T"/>
    <property name="Type" value="Grass"/>
   </properties>
  </tile>
  <tile id="176">
   <properties>
    <property name="Diggable" value="T"/>
    <property name="Type" value="Dirt"/>
   </properties>
  </tile>
  <tile id="177">
   <properties>
    <property name="Type" value="Dirt"/>
   </properties>
  </tile>
  <tile id="178">
   <properties>
    <property name="Type" value="Dirt"/>
   </properties>
  </tile>
  <tile id="179">
   <properties>
    <property name="Type" value="Grass"/>
   </properties>
  </tile>
  <tile id="180">
   <properties>
    <property name="Spawnable" value="T"/>
    <property name="Type" value="Grass"/>
   </properties>
  </tile>
  <tile id="181">
   <properties>
    <property name="Type" value="Dirt"/>
   </properties>
  </tile>
  <tile id="182">
   <properties>
    <property name="Type" value="Dirt"/>
   </properties>
  </tile>
  <tile id="200">
   <properties>
    <property name="Spawnable" value="T"/>
    <property name="Type" value="Grass"/>
   </properties>
  </tile>
  <tile id="202">
   <properties>
    <property name="Type" value="Dirt"/>
   </properties>
  </tile>
  <tile id="203">
   <properties>
    <property name="Type" value="Grass"/>
   </properties>
  </tile>
  <tile id="204">
   <properties>
    <property name="Type" value="Grass"/>
   </properties>
  </tile>
  <tile id="205">
   <properties>
    <property name="Type" value="Grass"/>
   </properties>
  </tile>
  <tile id="206">
   <properties>
    <property name="Diggable" value="T"/>
    <property name="Type" value="Dirt"/>
   </properties>
  </tile>
  <tile id="207">
   <properties>
    <property name="Diggable" value="T"/>
    <property name="Type" value="Dirt"/>
   </properties>
  </tile>
  <tile id="209">
   <properties>
    <property name="Water" value="T"/>
   </properties>
   <animation>
    <frame tileid="209" duration="1000"/>
    <frame tileid="1260" duration="1000"/>
   </animation>
  </tile>
  <tile id="225">
   <properties>
    <property name="Type" value="Dirt"/>
   </properties>
  </tile>
  <tile id="226">
   <properties>
    <property name="Diggable" value="T"/>
    <property name="Type" value="Dirt"/>
   </properties>
  </tile>
  <tile id="227">
   <properties>
    <property name="Diggable" value="T"/>
    <property name="Type" value="Dirt"/>
   </properties>
  </tile>
  <tile id="228">
   <properties>
    <property name="Type" value="Dirt"/>
   </properties>
  </tile>
  <tile id="229">
   <properties>
    <property name="Type" value="Grass"/>
   </properties>
  </tile>
  <tile id="230">
   <properties>
    <property name="Type" value="Grass"/>
   </properties>
  </tile>
  <tile id="231">
   <properties>
    <property name="Diggable" value="T"/>
    <property name="Type" value="Dirt"/>
   </properties>
  </tile>
  <tile id="234">
   <properties>
    <property name="Water" value="T"/>
   </properties>
  </tile>
  <tile id="250">
   <properties>
    <property name="Type" value="Grass"/>
   </properties>
  </tile>
  <tile id="251">
   <properties>
    <property name="Type" value="Dirt"/>
   </properties>
  </tile>
  <tile id="252">
   <properties>
    <property name="Diggable" value="T"/>
    <property name="Type" value="Dirt"/>
   </properties>
  </tile>
  <tile id="253">
   <properties>
    <property name="Type" value="Grass"/>
   </properties>
  </tile>
  <tile id="254">
   <properties>
    <property name="Type" value="Grass"/>
   </properties>
  </tile>
  <tile id="255">
   <properties>
    <property name="Type" value="Grass"/>
   </properties>
  </tile>
  <tile id="256">
   <properties>
    <property name="Type" value="Grass"/>
   </properties>
  </tile>
  <tile id="265">
   <properties>
    <property name="Type" value="Dirt"/>
   </properties>
  </tile>
  <tile id="276">
   <properties>
    <property name="Type" value="Grass"/>
   </properties>
  </tile>
  <tile id="277">
   <properties>
    <property name="Spawnable" value="T"/>
    <property name="Type" value="Grass"/>
   </properties>
  </tile>
  <tile id="278">
   <properties>
    <property name="Type" value="Grass"/>
   </properties>
  </tile>
  <tile id="279">
   <properties>
    <property name="Type" value="Grass"/>
   </properties>
  </tile>
  <tile id="285">
   <properties>
    <property name="Water" value="T"/>
   </properties>
  </tile>
  <tile id="301">
   <properties>
    <property name="Type" value="Grass"/>
   </properties>
  </tile>
  <tile id="302">
   <properties>
    <property name="Spawnable" value="T"/>
    <property name="Type" value="Grass"/>
   </properties>
  </tile>
  <tile id="303">
   <properties>
    <property name="Type" value="Grass"/>
   </properties>
  </tile>
  <tile id="304">
   <properties>
    <property name="Type" value="Grass"/>
   </properties>
  </tile>
  <tile id="305">
   <properties>
    <property name="Type" value="Grass"/>
   </properties>
  </tile>
  <tile id="308">
   <properties>
    <property name="Water" value="T"/>
   </properties>
  </tile>
  <tile id="309">
   <properties>
    <property name="Water" value="T"/>
   </properties>
  </tile>
  <tile id="310">
   <properties>
    <property name="Water" value="T"/>
   </properties>
  </tile>
  <tile id="325">
   <properties>
    <property name="Type" value="Grass"/>
   </properties>
  </tile>
  <tile id="326">
   <properties>
    <property name="Type" value="Grass"/>
   </properties>
  </tile>
  <tile id="327">
   <properties>
    <property name="Type" value="Grass"/>
   </properties>
  </tile>
  <tile id="328">
   <properties>
    <property name="Type" value="Grass"/>
   </properties>
  </tile>
  <tile id="329">
   <properties>
    <property name="Type" value="Grass"/>
   </properties>
  </tile>
  <tile id="333">
   <properties>
    <property name="Water" value="T"/>
   </properties>
  </tile>
  <tile id="334">
   <properties>
    <property name="Water" value="T"/>
   </properties>
  </tile>
  <tile id="335">
   <properties>
    <property name="Water" value="T"/>
   </properties>
  </tile>
  <tile id="336">
   <properties>
    <property name="Water" value="T"/>
   </properties>
  </tile>
  <tile id="350">
   <properties>
    <property name="Type" value="Grass"/>
   </properties>
  </tile>
  <tile id="351">
   <properties>
    <property name="Spawnable" value="T"/>
    <property name="Type" value="Grass"/>
   </properties>
  </tile>
  <tile id="352">
   <properties>
    <property name="Type" value="Grass"/>
   </properties>
  </tile>
  <tile id="353">
   <properties>
    <property name="Type" value="Grass"/>
   </properties>
  </tile>
  <tile id="354">
   <properties>
    <property name="Type" value="Grass"/>
   </properties>
  </tile>
  <tile id="355">
   <properties>
    <property name="Type" value="Grass"/>
   </properties>
  </tile>
  <tile id="356">
   <properties>
    <property name="Type" value="Grass"/>
   </properties>
  </tile>
  <tile id="375">
   <properties>
    <property name="Type" value="Grass"/>
   </properties>
  </tile>
  <tile id="376">
   <properties>
    <property name="Type" value="Grass"/>
   </properties>
  </tile>
  <tile id="377">
   <properties>
    <property name="Type" value="Grass"/>
   </properties>
  </tile>
  <tile id="378">
   <properties>
    <property name="Type" value="Grass"/>
   </properties>
  </tile>
  <tile id="379">
   <properties>
    <property name="Type" value="Grass"/>
   </properties>
  </tile>
  <tile id="380">
   <properties>
    <property name="Spawnable" value="T"/>
    <property name="Type" value="Grass"/>
   </properties>
  </tile>
  <tile id="381">
   <properties>
    <property name="Type" value="Grass"/>
   </properties>
  </tile>
  <tile id="400">
   <properties>
    <property name="Type" value="Grass"/>
   </properties>
  </tile>
  <tile id="401">
   <properties>
    <property name="Type" value="Grass"/>
   </properties>
  </tile>
  <tile id="402">
   <properties>
    <property name="Spawnable" value="T"/>
    <property name="Type" value="Grass"/>
   </properties>
  </tile>
  <tile id="403">
   <properties>
    <property name="Spawnable" value="T"/>
    <property name="Type" value="Grass"/>
   </properties>
  </tile>
  <tile id="404">
   <properties>
    <property name="Type" value="Grass"/>
   </properties>
  </tile>
  <tile id="405">
   <properties>
    <property name="Type" value="Grass"/>
   </properties>
  </tile>
  <tile id="406">
   <properties>
    <property name="Type" value="Grass"/>
   </properties>
  </tile>
  <tile id="512">
   <properties>
    <property name="Type" value="Dirt"/>
   </properties>
  </tile>
  <tile id="534">
   <properties>
    <property name="Type" value="Dirt"/>
   </properties>
  </tile>
  <tile id="536">
   <properties>
    <property name="Type" value="Dirt"/>
   </properties>
  </tile>
  <tile id="537">
   <properties>
    <property name="Type" value="Dirt"/>
   </properties>
  </tile>
  <tile id="538">
   <properties>
    <property name="Type" value="Dirt"/>
   </properties>
  </tile>
  <tile id="558">
   <properties>
    <property name="Diggable" value="T"/>
    <property name="Type" value="Dirt"/>
   </properties>
  </tile>
  <tile id="559">
   <animation>
    <frame tileid="559" duration="1000"/>
    <frame tileid="1289" duration="1000"/>
   </animation>
  </tile>
  <tile id="560">
   <properties>
    <property name="Diggable" value="T"/>
    <property name="Type" value="Dirt"/>
   </properties>
  </tile>
  <tile id="561">
   <properties>
    <property name="Type" value="Dirt"/>
   </properties>
  </tile>
  <tile id="562">
   <properties>
    <property name="Type" value="Dirt"/>
   </properties>
  </tile>
  <tile id="563">
   <properties>
    <property name="Type" value="Dirt"/>
   </properties>
  </tile>
  <tile id="564">
   <properties>
    <property name="Diggable" value="T"/>
    <property name="Type" value="Dirt"/>
   </properties>
  </tile>
  <tile id="565">
   <properties>
    <property name="Type" value="Dirt"/>
   </properties>
  </tile>
  <tile id="566">
   <properties>
    <property name="Type" value="Dirt"/>
   </properties>
  </tile>
  <tile id="567">
   <properties>
    <property name="Spawnable" value="T"/>
    <property name="Type" value="Grass"/>
   </properties>
  </tile>
  <tile id="568">
   <properties>
    <property name="Type" value="Grass"/>
   </properties>
  </tile>
  <tile id="569">
   <properties>
    <property name="Spawnable" value="T"/>
    <property name="Type" value="Grass"/>
   </properties>
  </tile>
  <tile id="570">
   <properties>
    <property name="Type" value="Grass"/>
   </properties>
  </tile>
  <tile id="583">
   <properties>
    <property name="Diggable" value="T"/>
    <property name="Type" value="Dirt"/>
   </properties>
  </tile>
  <tile id="584">
   <animation>
    <frame tileid="584" duration="1000"/>
    <frame tileid="1314" duration="1000"/>
   </animation>
  </tile>
  <tile id="585">
   <properties>
    <property name="Diggable" value="T"/>
    <property name="Type" value="Dirt"/>
   </properties>
  </tile>
  <tile id="586">
   <properties>
    <property name="Type" value="Dirt"/>
   </properties>
  </tile>
  <tile id="587">
   <properties>
    <property name="Diggable" value="T"/>
    <property name="Type" value="Dirt"/>
   </properties>
  </tile>
  <tile id="588">
   <properties>
    <property name="Type" value="Dirt"/>
   </properties>
  </tile>
  <tile id="589">
   <properties>
    <property name="Diggable" value="T"/>
    <property name="Type" value="Dirt"/>
   </properties>
  </tile>
  <tile id="590">
   <properties>
    <property name="Type" value="Dirt"/>
   </properties>
  </tile>
  <tile id="591">
   <properties>
    <property name="Type" value="Dirt"/>
   </properties>
  </tile>
  <tile id="592">
   <properties>
    <property name="Type" value="Grass"/>
   </properties>
  </tile>
  <tile id="593">
   <properties>
    <property name="Type" value="Grass"/>
   </properties>
  </tile>
  <tile id="594">
   <properties>
    <property name="Type" value="Grass"/>
   </properties>
  </tile>
  <tile id="595">
   <properties>
    <property name="Type" value="Grass"/>
   </properties>
  </tile>
  <tile id="596">
   <properties>
    <property name="Type" value="Dirt"/>
   </properties>
  </tile>
  <tile id="597">
   <properties>
    <property name="Type" value="Dirt"/>
   </properties>
  </tile>
  <tile id="598">
   <properties>
    <property name="Type" value="Stone"/>
   </properties>
  </tile>
  <tile id="599">
   <properties>
    <property name="Type" value="Stone"/>
   </properties>
  </tile>
  <tile id="606">
   <properties>
    <property name="Diggable" value="T"/>
    <property name="Type" value="Dirt"/>
   </properties>
  </tile>
  <tile id="607">
   <properties>
    <property name="Diggable" value="T"/>
    <property name="Type" value="Dirt"/>
   </properties>
  </tile>
  <tile id="608">
   <properties>
    <property name="Diggable" value="T"/>
    <property name="Type" value="Dirt"/>
   </properties>
  </tile>
  <tile id="609">
   <animation>
    <frame tileid="609" duration="1000"/>
    <frame tileid="1285" duration="1000"/>
   </animation>
  </tile>
  <tile id="610">
   <properties>
    <property name="Diggable" value="T"/>
    <property name="Type" value="Dirt"/>
   </properties>
  </tile>
  <tile id="611">
   <properties>
    <property name="Type" value="Dirt"/>
   </properties>
  </tile>
  <tile id="612">
   <properties>
    <property name="Type" value="Dirt"/>
   </properties>
  </tile>
  <tile id="613">
   <properties>
    <property name="Type" value="Dirt"/>
   </properties>
  </tile>
  <tile id="614">
   <properties>
    <property name="Diggable" value="T"/>
    <property name="Type" value="Dirt"/>
   </properties>
  </tile>
  <tile id="615">
   <properties>
    <property name="Type" value="Dirt"/>
   </properties>
  </tile>
  <tile id="616">
   <properties>
    <property name="Type" value="Dirt"/>
   </properties>
  </tile>
  <tile id="617">
   <properties>
    <property name="Type" value="Dirt"/>
   </properties>
  </tile>
  <tile id="619">
   <properties>
    <property name="Type" value="Grass"/>
   </properties>
  </tile>
  <tile id="620">
   <properties>
    <property name="Type" value="Dirt"/>
   </properties>
  </tile>
  <tile id="621">
   <properties>
    <property name="Type" value="Dirt"/>
   </properties>
  </tile>
  <tile id="622">
   <properties>
    <property name="Type" value="Dirt"/>
   </properties>
  </tile>
  <tile id="623">
   <properties>
    <property name="Type" value="Stone"/>
   </properties>
  </tile>
  <tile id="628">
   <properties>
    <property name="Water" value="T"/>
   </properties>
  </tile>
  <tile id="629">
   <properties>
    <property name="Water" value="T"/>
   </properties>
  </tile>
  <tile id="630">
   <properties>
    <property name="Diggable" value="T"/>
    <property name="Type" value="Dirt"/>
   </properties>
  </tile>
  <tile id="631">
   <properties>
    <property name="Type" value="Dirt"/>
   </properties>
  </tile>
  <tile id="632">
   <properties>
    <property name="Diggable" value="T"/>
    <property name="Type" value="Dirt"/>
   </properties>
  </tile>
  <tile id="633">
   <properties>
    <property name="Type" value="Grass"/>
   </properties>
  </tile>
  <tile id="634">
   <properties>
    <property name="Spawnable" value="T"/>
    <property name="Type" value="Grass"/>
   </properties>
  </tile>
  <tile id="635">
   <properties>
    <property name="Type" value="Dirt"/>
   </properties>
  </tile>
  <tile id="636">
   <properties>
    <property name="Type" value="Dirt"/>
   </properties>
  </tile>
  <tile id="653">
   <properties>
    <property name="Water" value="T"/>
   </properties>
  </tile>
  <tile id="654">
   <properties>
    <property name="Type" value="Grass"/>
   </properties>
  </tile>
  <tile id="655">
   <properties>
    <property name="Type" value="Dirt"/>
   </properties>
  </tile>
  <tile id="656">
   <properties>
    <property name="Type" value="Dirt"/>
   </properties>
  </tile>
  <tile id="657">
   <properties>
    <property name="Type" value="Grass"/>
   </properties>
  </tile>
  <tile id="658">
   <properties>
    <property name="Type" value="Grass"/>
   </properties>
  </tile>
  <tile id="659">
   <properties>
    <property name="Type" value="Grass"/>
   </properties>
  </tile>
  <tile id="679">
   <properties>
    <property name="Type" value="Dirt"/>
   </properties>
  </tile>
  <tile id="680">
   <properties>
    <property name="Diggable" value="T"/>
    <property name="Type" value="Dirt"/>
   </properties>
  </tile>
  <tile id="681">
   <properties>
    <property name="Diggable" value="T"/>
    <property name="Type" value="Dirt"/>
   </properties>
  </tile>
  <tile id="682">
   <properties>
    <property name="Type" value="Dirt"/>
   </properties>
  </tile>
  <tile id="683">
   <properties>
    <property name="Type" value="Grass"/>
   </properties>
  </tile>
  <tile id="684">
   <properties>
    <property name="Type" value="Grass"/>
   </properties>
  </tile>
  <tile id="685">
   <properties>
    <property name="Diggable" value="T"/>
    <property name="Type" value="Dirt"/>
   </properties>
  </tile>
  <tile id="704">
   <properties>
    <property name="Type" value="Grass"/>
   </properties>
  </tile>
  <tile id="705">
   <properties>
    <property name="Type" value="Dirt"/>
   </properties>
  </tile>
  <tile id="706">
   <properties>
    <property name="Diggable" value="T"/>
    <property name="Type" value="Dirt"/>
   </properties>
  </tile>
  <tile id="707">
   <properties>
    <property name="Type" value="Grass"/>
   </properties>
  </tile>
  <tile id="708">
   <animation>
    <frame tileid="708" duration="1000"/>
    <frame tileid="1234" duration="1000"/>
   </animation>
  </tile>
  <tile id="709">
   <animation>
    <frame tileid="709" duration="1000"/>
    <frame tileid="1235" duration="1000"/>
   </animation>
  </tile>
  <tile id="710">
   <animation>
    <frame tileid="710" duration="1000"/>
    <frame tileid="1236" duration="1000"/>
   </animation>
  </tile>
  <tile id="733">
   <animation>
    <frame tileid="733" duration="1000"/>
    <frame tileid="1259" duration="1000"/>
   </animation>
  </tile>
  <tile id="734">
   <properties>
    <property name="Water" value="T"/>
   </properties>
  </tile>
  <tile id="735">
   <animation>
    <frame tileid="735" duration="1000"/>
    <frame tileid="1261" duration="1000"/>
   </animation>
  </tile>
  <tile id="758">
   <animation>
    <frame tileid="758" duration="1000"/>
    <frame tileid="1284" duration="1000"/>
   </animation>
  </tile>
  <tile id="759">
   <properties>
    <property name="Water" value="T"/>
   </properties>
  </tile>
  <tile id="760">
   <animation>
    <frame tileid="760" duration="1000"/>
    <frame tileid="1286" duration="1000"/>
   </animation>
  </tile>
  <tile id="779">
   <properties>
    <property name="Passable" value="T"/>
    <property name="Type" value="Wood"/>
   </properties>
  </tile>
  <tile id="780">
   <properties>
    <property name="Passable" value="T"/>
    <property name="Type" value="Wood"/>
   </properties>
  </tile>
  <tile id="781">
   <properties>
    <property name="Passable" value="T"/>
    <property name="Type" value="Wood"/>
   </properties>
  </tile>
  <tile id="782">
   <properties>
    <property name="Passable" value="T"/>
    <property name="Type" value="Wood"/>
   </properties>
  </tile>
  <tile id="783">
   <animation>
    <frame tileid="783" duration="1000"/>
    <frame tileid="1309" duration="1000"/>
   </animation>
  </tile>
  <tile id="785">
   <animation>
    <frame tileid="785" duration="1000"/>
    <frame tileid="1311" duration="1000"/>
   </animation>
  </tile>
  <tile id="809">
   <properties>
    <property name="Passable" value="T"/>
    <property name="Type" value="Wood"/>
   </properties>
  </tile>
  <tile id="812">
   <properties>
    <property name="Type" value="Stone"/>
   </properties>
  </tile>
  <tile id="813">
   <properties>
    <property name="Type" value="Stone"/>
   </properties>
  </tile>
  <tile id="834">
   <properties>
    <property name="Passable" value="T"/>
    <property name="Type" value="Wood"/>
   </properties>
  </tile>
  <tile id="859">
   <properties>
    <property name="Passable" value="T"/>
    <property name="Type" value="Wood"/>
   </properties>
  </tile>
  <tile id="884">
   <properties>
    <property name="Passable" value="T"/>
    <property name="Type" value="Wood"/>
   </properties>
  </tile>
  <tile id="947">
   <properties>
    <property name="Type" value="Stone"/>
   </properties>
  </tile>
  <tile id="948">
   <properties>
    <property name="Type" value="Stone"/>
   </properties>
  </tile>
  <tile id="949">
   <properties>
    <property name="Type" value="Stone"/>
   </properties>
  </tile>
  <tile id="972">
   <properties>
    <property name="Type" value="Grass"/>
   </properties>
  </tile>
  <tile id="973">
   <properties>
    <property name="Type" value="Stone"/>
   </properties>
  </tile>
  <tile id="974">
   <properties>
    <property name="Type" value="Grass"/>
   </properties>
  </tile>
  <tile id="998">
   <properties>
    <property name="Type" value="Grass"/>
   </properties>
  </tile>
  <tile id="999">
   <properties>
    <property name="Type" value="Stone"/>
   </properties>
  </tile>
  <tile id="1186">
   <properties>
    <property name="Water" value="T"/>
   </properties>
  </tile>
  <tile id="1187">
   <properties>
    <property name="Water" value="T"/>
   </properties>
  </tile>
  <tile id="1188">
   <properties>
    <property name="Water" value="T"/>
   </properties>
  </tile>
  <tile id="1211">
   <properties>
    <property name="Water" value="T"/>
   </properties>
  </tile>
  <tile id="1212">
   <properties>
    <property name="Water" value="T"/>
   </properties>
  </tile>
  <tile id="1213">
   <properties>
    <property name="Water" value="T"/>
   </properties>
  </tile>
  <tile id="1227">
   <properties>
    <property name="Water" value="T"/>
   </properties>
  </tile>
  <tile id="1228">
   <properties>
    <property name="Water" value="T"/>
   </properties>
  </tile>
  <tile id="1229">
   <properties>
    <property name="Water" value="T"/>
   </properties>
  </tile>
  <tile id="1230">
   <properties>
    <property name="Water" value="T"/>
   </properties>
  </tile>
  <tile id="1231">
   <properties>
    <property name="Water" value="T"/>
   </properties>
  </tile>
  <tile id="1237">
   <properties>
    <property name="Water" value="T"/>
   </properties>
  </tile>
  <tile id="1238">
   <properties>
    <property name="Water" value="T"/>
   </properties>
  </tile>
  <tile id="1239">
   <properties>
    <property name="Water" value="T"/>
   </properties>
  </tile>
  <tile id="1240">
   <properties>
    <property name="Water" value="T"/>
   </properties>
  </tile>
  <tile id="1241">
   <properties>
    <property name="Water" value="T"/>
   </properties>
  </tile>
  <tile id="1242">
   <properties>
    <property name="Water" value="T"/>
   </properties>
  </tile>
  <tile id="1243">
   <properties>
    <property name="Water" value="T"/>
   </properties>
  </tile>
  <tile id="1244">
   <properties>
    <property name="Water" value="T"/>
   </properties>
  </tile>
  <tile id="1245">
   <properties>
    <property name="Water" value="T"/>
   </properties>
  </tile>
  <tile id="1246">
   <properties>
    <property name="Passable" value="F"/>
    <property name="Water" value="T"/>
   </properties>
  </tile>
  <tile id="1247">
   <properties>
    <property name="Water" value="T"/>
   </properties>
  </tile>
  <tile id="1248">
   <properties>
    <property name="Water" value="T"/>
   </properties>
  </tile>
  <tile id="1249">
   <properties>
    <property name="Passable" value="F"/>
    <property name="Water" value="T"/>
   </properties>
  </tile>
  <tile id="1252">
   <properties>
    <property name="Water" value="T"/>
   </properties>
  </tile>
  <tile id="1253">
   <properties>
    <property name="Water" value="T"/>
   </properties>
  </tile>
  <tile id="1254">
   <properties>
    <property name="Water" value="T"/>
   </properties>
  </tile>
  <tile id="1255">
   <properties>
    <property name="Water" value="T"/>
   </properties>
  </tile>
  <tile id="1256">
   <properties>
    <property name="Water" value="T"/>
   </properties>
  </tile>
  <tile id="1263">
   <properties>
    <property name="Water" value="T"/>
   </properties>
  </tile>
  <tile id="1264">
   <properties>
    <property name="Water" value="T"/>
   </properties>
  </tile>
  <tile id="1265">
   <properties>
    <property name="Water" value="T"/>
   </properties>
  </tile>
  <tile id="1266">
   <properties>
    <property name="Passable" value="F"/>
    <property name="Water" value="T"/>
   </properties>
  </tile>
  <tile id="1267">
   <properties>
    <property name="Passable" value="F"/>
    <property name="Water" value="T"/>
   </properties>
  </tile>
  <tile id="1268">
   <properties>
    <property name="Water" value="T"/>
   </properties>
  </tile>
  <tile id="1269">
   <properties>
    <property name="Water" value="T"/>
   </properties>
  </tile>
  <tile id="1270">
   <properties>
    <property name="Water" value="T"/>
   </properties>
  </tile>
  <tile id="1271">
   <properties>
    <property name="Passable" value="F"/>
    <property name="Water" value="T"/>
   </properties>
  </tile>
  <tile id="1272">
   <properties>
    <property name="Water" value="T"/>
   </properties>
  </tile>
  <tile id="1273">
   <properties>
    <property name="Water" value="T"/>
   </properties>
  </tile>
  <tile id="1274">
   <properties>
    <property name="Water" value="T"/>
   </properties>
  </tile>
  <tile id="1277">
   <properties>
    <property name="Water" value="T"/>
   </properties>
  </tile>
  <tile id="1278">
   <properties>
    <property name="Water" value="T"/>
   </properties>
  </tile>
  <tile id="1279">
   <properties>
    <property name="Water" value="T"/>
   </properties>
  </tile>
  <tile id="1280">
   <properties>
    <property name="Water" value="T"/>
   </properties>
  </tile>
  <tile id="1281">
   <properties>
    <property name="Water" value="T"/>
   </properties>
  </tile>
  <tile id="1293">
   <animation>
    <frame tileid="1293" duration="500"/>
    <frame tileid="1294" duration="500"/>
    <frame tileid="1295" duration="500"/>
    <frame tileid="1296" duration="500"/>
   </animation>
  </tile>
  <tile id="1297">
   <properties>
    <property name="Water" value="T"/>
   </properties>
  </tile>
  <tile id="1298">
   <properties>
    <property name="Water" value="T"/>
   </properties>
  </tile>
  <tile id="1299">
   <properties>
    <property name="Passable" value="F"/>
    <property name="Water" value="T"/>
   </properties>
  </tile>
  <tile id="1302">
   <properties>
    <property name="Water" value="T"/>
   </properties>
  </tile>
  <tile id="1303">
   <properties>
    <property name="Water" value="T"/>
   </properties>
  </tile>
  <tile id="1304">
   <properties>
    <property name="Water" value="T"/>
   </properties>
  </tile>
  <tile id="1305">
   <properties>
    <property name="Water" value="T"/>
   </properties>
  </tile>
  <tile id="1306">
   <properties>
    <property name="Water" value="T"/>
   </properties>
  </tile>
  <tile id="1318">
   <animation>
    <frame tileid="1318" duration="700"/>
    <frame tileid="1319" duration="700"/>
    <frame tileid="1320" duration="700"/>
    <frame tileid="1321" duration="700"/>
   </animation>
  </tile>
  <tile id="1322">
   <properties>
    <property name="Water" value="T"/>
   </properties>
  </tile>
  <tile id="1323">
   <properties>
    <property name="Water" value="T"/>
   </properties>
  </tile>
  <tile id="1324">
   <properties>
    <property name="Water" value="T"/>
   </properties>
  </tile>
  <tile id="1345">
   <properties>
    <property name="Passable" value="T"/>
   </properties>
  </tile>
  <tile id="1637">
   <properties>
    <property name="Type" value="Wood"/>
   </properties>
  </tile>
  <tile id="1638">
   <properties>
    <property name="Type" value="Wood"/>
   </properties>
  </tile>
  <tile id="1639">
   <properties>
    <property name="Type" value="Wood"/>
   </properties>
  </tile>
  <tile id="1662">
   <properties>
    <property name="Type" value="Wood"/>
   </properties>
  </tile>
  <tile id="1663">
   <properties>
    <property name="Type" value="Wood"/>
   </properties>
  </tile>
  <tile id="1664">
   <properties>
    <property name="Type" value="Wood"/>
   </properties>
  </tile>
  <tile id="1716">
   <properties>
    <property name="Water" value="T"/>
   </properties>
  </tile>
  <tile id="1717">
   <properties>
    <property name="Water" value="T"/>
   </properties>
  </tile>
  <tile id="1718">
   <properties>
    <property name="Water" value="T"/>
   </properties>
  </tile>
 </tileset>
 <tileset firstgid="2040" name="v16_Outdoors2" tilewidth="16" tileheight="16" tilecount="1120" columns="16">
  <image source="spring_outdoorsTileSheet2" width="256" height="1120"/>
  <tile id="536">
   <animation>
    <frame tileid="536" duration="700"/>
    <frame tileid="540" duration="700"/>
   </animation>
  </tile>
  <tile id="537">
   <animation>
    <frame tileid="537" duration="700"/>
    <frame tileid="541" duration="700"/>
   </animation>
  </tile>
  <tile id="538">
   <animation>
    <frame tileid="538" duration="700"/>
    <frame tileid="542" duration="700"/>
   </animation>
  </tile>
  <tile id="552">
   <animation>
    <frame tileid="552" duration="700"/>
    <frame tileid="556" duration="700"/>
   </animation>
  </tile>
  <tile id="554">
   <animation>
    <frame tileid="554" duration="700"/>
    <frame tileid="558" duration="700"/>
   </animation>
  </tile>
  <tile id="564">
   <animation>
    <frame tileid="564" duration="700"/>
    <frame tileid="596" duration="700"/>
    <frame tileid="628" duration="700"/>
   </animation>
  </tile>
  <tile id="568">
   <animation>
    <frame tileid="568" duration="700"/>
    <frame tileid="572" duration="700"/>
   </animation>
  </tile>
  <tile id="570">
   <animation>
    <frame tileid="570" duration="700"/>
    <frame tileid="574" duration="700"/>
   </animation>
  </tile>
  <tile id="584">
   <animation>
    <frame tileid="584" duration="700"/>
    <frame tileid="588" duration="700"/>
   </animation>
  </tile>
  <tile id="585">
   <animation>
    <frame tileid="585" duration="700"/>
    <frame tileid="589" duration="700"/>
   </animation>
  </tile>
  <tile id="586">
   <animation>
    <frame tileid="586" duration="700"/>
    <frame tileid="590" duration="700"/>
   </animation>
  </tile>
  <tile id="600">
   <animation>
    <frame tileid="600" duration="700"/>
    <frame tileid="604" duration="700"/>
   </animation>
  </tile>
  <tile id="602">
   <animation>
    <frame tileid="602" duration="700"/>
    <frame tileid="606" duration="700"/>
   </animation>
  </tile>
  <tile id="616">
   <animation>
    <frame tileid="616" duration="700"/>
    <frame tileid="620" duration="700"/>
   </animation>
  </tile>
  <tile id="617">
   <animation>
    <frame tileid="617" duration="700"/>
    <frame tileid="621" duration="700"/>
   </animation>
  </tile>
  <tile id="618">
   <animation>
    <frame tileid="618" duration="700"/>
    <frame tileid="622" duration="700"/>
   </animation>
  </tile>
  <tile id="632">
   <animation>
    <frame tileid="632" duration="700"/>
    <frame tileid="636" duration="700"/>
   </animation>
  </tile>
  <tile id="633">
   <animation>
    <frame tileid="633" duration="700"/>
    <frame tileid="637" duration="700"/>
   </animation>
  </tile>
  <tile id="648">
   <animation>
    <frame tileid="648" duration="700"/>
    <frame tileid="652" duration="700"/>
   </animation>
  </tile>
  <tile id="649">
   <animation>
    <frame tileid="649" duration="700"/>
    <frame tileid="653" duration="700"/>
   </animation>
  </tile>
  <tile id="664">
   <animation>
    <frame tileid="664" duration="700"/>
    <frame tileid="668" duration="700"/>
   </animation>
  </tile>
  <tile id="665">
   <animation>
    <frame tileid="665" duration="700"/>
    <frame tileid="669" duration="700"/>
   </animation>
  </tile>
  <tile id="676">
   <animation>
    <frame tileid="676" duration="700"/>
    <frame tileid="724" duration="700"/>
   </animation>
  </tile>
  <tile id="770">
   <properties>
    <property name="Type" value="Grass"/>
   </properties>
  </tile>
  <tile id="771">
   <properties>
    <property name="Type" value="Grass"/>
   </properties>
  </tile>
  <tile id="786">
   <properties>
    <property name="Type" value="Grass"/>
   </properties>
  </tile>
  <tile id="787">
   <properties>
    <property name="Type" value="Grass"/>
   </properties>
  </tile>
  <tile id="802">
   <properties>
    <property name="Type" value="Grass"/>
   </properties>
  </tile>
  <tile id="803">
   <properties>
    <property name="Type" value="Grass"/>
   </properties>
  </tile>
  <tile id="816">
   <properties>
    <property name="Water" value="T"/>
   </properties>
  </tile>
  <tile id="817">
   <properties>
    <property name="Water" value="T"/>
   </properties>
  </tile>
  <tile id="820">
   <properties>
    <property name="Water" value="T"/>
   </properties>
  </tile>
  <tile id="821">
   <properties>
    <property name="Water" value="T"/>
   </properties>
  </tile>
  <tile id="822">
   <properties>
    <property name="Water" value="T"/>
   </properties>
  </tile>
  <tile id="832">
   <properties>
    <property name="Water" value="T"/>
   </properties>
  </tile>
  <tile id="833">
   <properties>
    <property name="Water" value="T"/>
   </properties>
  </tile>
  <tile id="834">
   <properties>
    <property name="Water" value="T"/>
   </properties>
  </tile>
  <tile id="835">
   <properties>
    <property name="Water" value="T"/>
   </properties>
  </tile>
  <tile id="836">
   <properties>
    <property name="Water" value="T"/>
   </properties>
  </tile>
  <tile id="837">
   <properties>
    <property name="Water" value="T"/>
   </properties>
  </tile>
  <tile id="838">
   <properties>
    <property name="Water" value="T"/>
   </properties>
  </tile>
  <tile id="848">
   <properties>
    <property name="Water" value="T"/>
   </properties>
  </tile>
  <tile id="849">
   <properties>
    <property name="Water" value="T"/>
   </properties>
  </tile>
  <tile id="850">
   <properties>
    <property name="Water" value="T"/>
   </properties>
  </tile>
  <tile id="851">
   <properties>
    <property name="Water" value="T"/>
   </properties>
  </tile>
  <tile id="852">
   <properties>
    <property name="Water" value="T"/>
   </properties>
  </tile>
  <tile id="853">
   <properties>
    <property name="Water" value="T"/>
   </properties>
  </tile>
  <tile id="854">
   <properties>
    <property name="Water" value="T"/>
   </properties>
  </tile>
  <tile id="864">
   <properties>
    <property name="Water" value="T"/>
   </properties>
  </tile>
  <tile id="865">
   <properties>
    <property name="Water" value="T"/>
   </properties>
  </tile>
  <tile id="866">
   <properties>
    <property name="Water" value="T"/>
   </properties>
  </tile>
  <tile id="867">
   <properties>
    <property name="Water" value="T"/>
   </properties>
  </tile>
  <tile id="868">
   <properties>
    <property name="Water" value="T"/>
   </properties>
  </tile>
  <tile id="869">
   <properties>
    <property name="Water" value="T"/>
   </properties>
  </tile>
  <tile id="870">
   <properties>
    <property name="Water" value="T"/>
   </properties>
  </tile>
  <tile id="880">
   <properties>
    <property name="Water" value="T"/>
   </properties>
  </tile>
  <tile id="881">
   <properties>
    <property name="Water" value="T"/>
   </properties>
  </tile>
  <tile id="882">
   <properties>
    <property name="Water" value="T"/>
   </properties>
  </tile>
  <tile id="883">
   <properties>
    <property name="Water" value="T"/>
   </properties>
  </tile>
  <tile id="934">
   <animation>
    <frame tileid="934" duration="1000"/>
    <frame tileid="935" duration="1000"/>
   </animation>
  </tile>
  <tile id="966">
   <animation>
    <frame tileid="966" duration="1000"/>
    <frame tileid="967" duration="1000"/>
   </animation>
  </tile>
  <tile id="982">
   <animation>
    <frame tileid="982" duration="1000"/>
    <frame tileid="983" duration="1000"/>
   </animation>
  </tile>
 </tileset>
 <tileset firstgid="3160" source="train.tsx"/>
 <tileset firstgid="3898" source="spring_outdoorsTileSheet2.tsx"/>
 <tileset firstgid="5018" source="spring_island_tilesheet_1.tsx"/>
 <tileset firstgid="6298" source="desert_festival_tilesheet.tsx"/>
 <tileset firstgid="7386" source="spring_beach.tsx"/>
 <tileset firstgid="7913" source="trolley.tsx"/>
 <tileset firstgid="8053" source="DesertTiles.tsx"/>
 <layer id="1" name="Back" width="31" height="32">
  <data encoding="csv">
5692,5692,5692,5723,5692,5052,5692,5692,5051,5052,5051,5090,5692,5692,5692,5660,5692,5692,5692,5692,216,5626,5626,5658,5660,5354,5051,5692,5692,5692,5692,
5692,5629,5725,5626,5722,5724,5692,5692,5052,5051,5354,5629,5723,5692,5692,5692,5692,5692,5629,5725,340,321,5658,5660,5052,5692,5692,5692,5692,5692,5692,
5692,5693,5626,321,5626,5690,5692,5086,5087,5088,5629,5725,5626,5722,5724,5322,5321,5629,5725,5626,5626,5658,5660,5692,5692,5692,5692,5692,5692,5692,5692,
5692,5628,5661,5626,5658,5660,5692,5118,5119,5120,5693,216,5626,5626,5690,5692,5322,5693,5626,5626,5626,5722,5723,5723,5724,5692,5692,5692,5692,5692,5692,
6516,5052,5628,5659,5660,5052,5692,5150,5151,5152,5628,5661,5626,5626,5690,5051,5354,5693,5626,1345,1345,1345,1345,240,5722,5724,5052,5691,5692,5692,5692,
5692,5691,5691,5691,5629,5723,5723,5723,5723,5723,5723,5725,5626,5626,5722,5723,5723,5725,1345,1320,1320,1320,1320,240,216,5722,5723,5723,5723,5723,5723,
5692,5691,5691,5692,5693,1345,1345,1345,1345,1345,1345,1345,1345,1345,1345,1345,1345,819,1345,1342,1345,1345,1345,1345,240,216,240,240,240,240,240,
5691,5051,5052,5692,5693,1345,1343,1370,1370,1370,1370,7933,7934,7934,7934,7934,7935,7936,1387,1370,1370,1370,1368,1320,1345,1345,1345,1345,240,216,240,
5692,5692,5629,5723,5725,1345,1346,1364,1311,1387,1339,1312,1339,1339,1339,1339,1339,7992,7933,7934,7935,7933,7934,7935,7936,1370,1370,1370,1370,1309,1309,
5692,5629,5725,1345,1345,1345,1346,1339,1388,1311,1339,1339,1337,1339,1339,1364,1387,1339,1339,1388,1387,1311,1339,1311,7964,1311,1311,1311,1370,1334,1334,
5723,5725,1308,1306,1370,1370,1371,1387,1311,1339,1364,1339,1339,1339,1339,1339,1339,1339,1339,1311,1311,1311,1311,1311,7992,1364,1311,1311,1311,1311,1311,
1309,1309,1333,1331,1311,1312,1339,1339,1339,1339,1339,1339,1344,1339,1339,1339,1339,1339,1339,1364,1311,1387,1311,1311,7936,1311,1311,1339,1311,1311,1311,
1334,1334,1331,1311,1311,1339,1364,1339,265,266,266,266,266,266,266,266,266,266,266,266,266,268,1364,1311,7964,1338,1314,1339,1311,1311,1311,
1339,1339,1339,1311,1339,1336,1339,1339,290,7941,7943,7942,7942,7943,7942,7943,7943,7944,246,291,243,318,1311,1311,7992,1387,1311,1311,1311,1364,1311,
1339,1339,1339,1339,1311,1339,1339,1311,290,7969,7971,7970,7971,7917,7971,7945,7971,7972,292,247,293,240,1311,1314,7933,7934,7935,7936,1311,1314,1311,
1339,7936,1339,1339,1336,1339,1339,1339,290,627,627,627,627,627,627,627,627,630,296,272,293,390,392,1311,1311,1311,1311,7964,1313,1387,1311,
1339,7964,1339,1339,1339,1339,1339,1339,315,316,316,316,316,316,316,316,316,316,316,316,318,440,442,320,1311,1311,1311,7992,1311,1311,1311,
1339,7964,1339,1339,1339,1339,0,216,340,795,795,795,2029,2030,2030,794,795,2031,795,795,795,795,795,795,795,795,795,7936,795,795,795,
1339,7992,1339,1339,1339,1339,1339,340,340,340,265,266,268,340,340,819,216,340,340,340,340,340,340,340,340,340,340,7964,340,340,340,
1339,1339,1339,1339,1339,1313,1339,532,240,265,267,247,242,266,240,820,0,0,0,0,0,0,0,0,0,0,0,7992,0,0,0,
1339,7936,1339,1339,1339,1339,5626,557,5715,315,294,295,316,318,0,240,0,0,1345,1320,1345,0,1345,1292,1345,0,1345,7936,1345,0,0,
1313,7964,1339,1339,1387,1339,5626,582,5747,377,402,2808,2808,377,557,216,0,0,1342,1342,1345,0,1345,1317,1345,0,1345,7964,1345,0,0,
1339,7964,1364,1339,1339,5626,5626,2521,0,377,402,403,403,377,582,2029,1345,1320,1320,1292,1320,1320,1320,1345,1320,1320,1320,7992,1345,1320,1320,
1339,7964,1339,1339,1319,1320,1320,5626,5626,442,1320,7936,1320,1320,962,2030,1345,1343,1370,1370,1370,1370,1370,1370,1370,1370,1370,7936,1370,1370,1370,
1339,7992,1338,1388,1369,1368,1320,1320,1320,1320,1345,7964,1368,1345,1345,1345,1345,1321,1339,1364,1339,1311,1311,1339,1339,1339,1388,7964,1339,1339,1339,
1387,1339,1339,7933,7934,7934,7935,1370,1370,1370,1370,7992,1369,1370,1370,1370,1370,1314,1339,1388,1311,1311,1336,1311,1311,1311,1314,7992,1387,1311,1311,
1339,1364,7933,7935,1339,1388,1336,1336,1336,7933,7934,7935,7933,7934,7934,7934,7934,7934,7935,7933,7934,7935,7933,7934,7935,7933,7934,7935,1311,1311,1311,
1339,1339,1339,1339,1339,1251,1252,1253,1364,1311,1311,7936,1388,1311,1311,1312,1311,1311,1339,1387,1387,1338,1311,1311,1388,1311,1312,1311,1311,1311,1336,
240,240,1339,1364,1337,1276,1277,1278,1339,1364,1311,7964,1311,1311,1339,1339,1339,1339,1339,1313,1364,1314,1311,1311,1311,1336,1339,1339,1311,240,240,
266,268,240,1339,1339,1339,1302,1303,1304,1339,1338,7992,1369,1311,1339,1387,1311,1364,1339,1339,1336,1311,1388,1311,1364,1387,1336,1311,240,216,240,
291,242,268,1339,1339,1339,1339,1328,1329,1339,1339,7936,1339,5626,1311,1339,1339,1311,1311,1339,1336,1311,1339,1336,1336,1336,1336,1311,216,240,240,
246,291,293,240,266,268,1339,1339,1339,240,265,7964,266,5658,5659,5659,5661,5661,1339,1313,1339,1338,1314,1336,1336,1339,1339,240,240,240,240
</data>
 </layer>
 <layer id="2" name="Buildings" width="31" height="32">
  <data encoding="csv">
0,0,0,0,0,0,0,0,0,0,0,8104,0,1087,0,0,0,0,297,1087,0,0,322,0,0,0,0,0,0,0,0,
0,0,0,0,0,0,0,0,0,0,0,0,0,1087,297,0,0,0,0,1087,0,0,0,0,0,0,0,0,0,0,0,
0,0,0,0,0,0,0,0,0,0,0,322,0,1112,0,0,0,0,0,1087,297,0,0,0,0,0,0,0,0,0,0,
0,0,0,0,0,0,0,0,0,0,0,0,0,1062,0,0,0,0,297,1112,0,0,0,0,0,0,0,0,0,0,0,
0,0,0,0,0,0,297,0,0,0,0,0,0,1087,0,0,0,0,0,2576,2657,2657,2578,322,0,0,0,0,0,0,0,
0,0,0,0,0,0,0,297,0,0,0,0,0,1112,0,0,0,0,2576,2658,1383,0,2594,0,0,0,0,0,0,0,0,
0,0,0,0,0,2576,2577,2657,2577,2577,2657,2657,2577,2577,2577,2577,2578,0,2608,0,0,1383,2656,2578,0,0,0,322,0,0,0,
0,0,0,297,0,2592,0,1358,0,0,8010,0,0,0,0,0,0,0,8010,8010,8010,8010,8010,2656,2657,2577,2657,2578,0,0,0,
0,0,0,0,0,2608,0,0,0,0,8010,8010,8010,8010,8010,1358,8010,0,0,0,0,0,0,0,0,8010,0,2656,2577,2577,2577,
0,0,0,2576,2657,2658,0,0,0,0,1358,0,0,0,0,0,8010,8010,8010,8010,8010,8010,8010,8010,0,1358,0,0,0,0,0,
0,0,2576,2658,0,0,0,0,0,0,0,0,0,0,0,0,0,0,0,1383,0,0,0,8010,0,8010,0,0,0,0,0,
2657,2577,2658,0,0,0,1358,504,478,479,478,479,478,478,478,478,478,478,478,479,478,479,503,8010,0,8010,0,0,0,0,0,
0,0,0,0,0,0,0,481,0,7913,7914,7914,7914,7915,7915,7915,7915,7916,0,0,0,0,484,8010,0,8010,0,208,209,1358,0,
0,0,0,0,0,0,0,456,8001,7941,0,0,0,0,1188,7932,7931,7944,0,178,179,0,459,8010,0,8010,8010,233,234,0,0,
0,0,0,0,0,0,0,456,8029,0,0,0,0,0,0,0,0,0,0,0,0,8029,429,8010,0,0,0,0,204,0,0,
0,0,0,0,0,0,0,481,7986,7997,7999,7998,7999,7999,7999,7998,7999,8000,0,0,0,3523,0,454,8010,8010,8010,0,8010,8010,8010,
0,0,0,0,0,0,504,480,8014,8016,8042,8043,8036,8037,8038,8039,8040,0,0,0,0,0,3524,0,455,478,479,0,204,470,470,
0,0,0,0,0,0,456,0,1111,8044,0,0,0,0,0,0,0,0,0,0,0,0,0,0,0,0,0,0,0,0,0,
0,0,208,209,0,0,506,1136,1137,1138,0,0,0,500,1564,0,0,0,0,0,0,297,0,0,448,449,450,0,448,449,449,
0,0,233,234,0,0,2625,506,194,509,0,0,0,506,297,0,2414,2415,1698,1699,1700,532,1698,1699,1700,532,1698,0,1700,532,533,
0,0,0,0,0,2640,556,531,532,534,0,0,0,531,356,297,384,557,1723,1724,1725,557,1723,1724,1725,557,1723,0,1725,557,558,
0,0,1358,0,0,2626,581,556,557,559,0,0,0,556,506,0,583,582,1748,1749,1750,582,1748,1749,1750,582,1748,0,1750,582,583,
0,0,0,0,2640,1111,606,581,582,584,0,0,0,581,531,533,4603,2745,2746,1774,2745,2746,2765,1774,2745,2746,2765,0,2764,2745,2746,
0,0,0,0,2656,2657,2578,606,607,609,2642,0,8010,606,556,4364,559,0,0,1358,0,0,0,0,0,0,8010,0,8010,0,0,
0,0,0,0,0,0,2656,2577,2577,2577,2658,0,8010,0,4586,4587,4593,0,0,0,0,0,0,0,0,0,8010,0,8010,0,0,
0,1383,0,0,0,0,0,8010,8010,8010,8010,0,8010,8010,4602,4603,4609,8010,8010,8010,8010,8010,8010,8010,8010,8010,8010,0,8010,0,0,
0,0,0,0,0,0,0,0,1383,0,0,0,0,0,0,0,0,0,0,0,0,0,0,0,0,0,0,0,8010,0,0,
479,503,0,1358,0,0,0,0,0,1358,8010,0,8010,8010,8010,8010,8010,8010,8010,8010,8010,8010,208,209,8010,8010,8010,8010,8010,2625,2625,
322,477,503,0,0,0,0,0,0,0,8010,0,8010,0,0,0,0,1358,0,0,0,0,233,234,1358,0,0,0,2626,1739,322,
0,0,477,503,0,0,0,0,0,0,8010,0,504,503,0,0,0,0,0,0,0,0,0,0,0,0,0,2640,1762,0,0,
0,0,0,477,478,479,503,0,0,0,0,0,456,1111,478,478,479,503,0,0,0,0,0,0,0,0,0,2626,0,0,0,
0,0,0,0,0,0,477,478,479,0,0,0,481,0,0,0,0,477,503,0,0,0,0,0,0,0,2640,322,0,0,0
</data>
 </layer>
 <layer id="3" name="Front" width="31" height="32">
  <data encoding="csv">
0,0,0,0,0,0,0,0,0,0,0,0,0,0,0,0,0,0,0,0,0,0,0,0,0,0,0,0,0,0,0,
0,0,0,0,0,0,0,0,0,0,0,0,0,0,0,0,0,0,0,0,0,0,0,0,0,0,0,0,0,0,0,
0,0,0,0,0,0,0,0,0,0,0,0,0,0,0,0,0,0,0,0,0,0,0,0,0,0,0,0,0,0,0,
0,0,0,0,0,0,0,0,0,0,0,0,0,0,0,0,0,0,0,0,0,0,0,0,0,0,0,0,0,0,0,
0,0,0,0,0,0,0,0,0,0,0,0,0,0,0,0,0,0,0,0,0,0,0,0,0,0,0,0,0,0,0,
0,0,0,0,0,0,0,0,0,0,0,0,0,0,0,0,0,0,0,0,0,0,0,0,0,0,0,0,0,0,0,
0,0,0,0,0,0,0,0,0,0,0,0,0,0,0,0,0,0,0,0,0,0,0,0,0,0,0,0,0,0,0,
0,0,0,0,0,0,0,0,0,0,0,0,0,0,0,0,0,0,0,0,0,0,0,0,0,5806,5807,5808,5809,5810,5811,
0,0,0,0,0,0,0,0,0,0,0,0,0,0,0,0,0,0,0,0,0,0,0,0,0,5838,5839,5840,5841,5842,5843,
0,0,0,0,0,0,0,0,0,0,0,0,0,0,0,0,0,0,0,0,0,0,0,0,0,5870,5871,5872,5873,5874,5875,
0,0,0,0,0,0,0,0,0,0,0,0,0,0,0,0,0,0,0,0,0,0,0,0,0,5902,5903,5904,5905,5906,5907,
0,0,0,0,0,0,0,0,0,0,0,0,0,0,0,0,0,0,0,0,0,0,0,0,0,5934,5935,5936,5937,5938,5939,
0,0,0,0,0,0,0,0,7973,0,0,0,0,0,0,7974,7975,0,7974,153,154,0,0,0,0,0,0,5774,5775,0,0,
5806,5807,5808,5809,5810,5811,0,0,0,0,0,0,0,0,0,0,0,0,0,0,0,8001,0,0,0,0,0,0,0,0,0,
5838,5839,5840,5841,5842,5843,0,0,0,0,0,0,0,0,0,0,0,0,0,0,0,0,0,0,0,0,0,0,0,0,0,
5870,5871,5872,5873,5874,5875,0,0,0,7988,8014,0,8008,8009,8010,0,0,0,0,0,0,0,3506,0,0,0,0,0,0,0,0,
5902,5903,5904,5905,5906,5907,0,0,1086,0,0,0,0,0,0,0,0,0,0,0,0,0,0,0,0,0,0,478,0,0,0,
5934,5935,5936,5937,5938,5939,0,0,0,0,0,0,0,475,0,0,0,0,0,0,0,0,0,0,423,424,425,795,423,424,424,
0,0,5774,5775,0,0,0,0,165,0,0,0,0,0,0,0,0,0,0,0,0,0,0,0,0,0,0,240,0,0,0,
0,0,0,0,0,0,531,0,0,0,0,0,0,0,0,0,0,0,0,0,0,0,0,0,0,0,0,1699,0,0,0,
0,0,0,0,0,0,0,0,0,0,0,0,0,0,0,0,0,0,0,0,0,0,0,0,0,0,0,1724,0,0,0,
0,0,0,0,0,1086,0,0,0,0,0,0,0,0,0,0,0,4448,4449,0,4442,4443,4449,0,4442,4443,4449,0,4442,4443,4444,
0,0,0,0,0,0,0,0,0,0,0,0,0,0,0,0,4463,4464,0,0,5806,0,0,0,0,0,0,0,0,0,0,
0,0,0,0,0,0,0,0,0,0,0,0,0,0,0,0,0,0,0,0,0,0,0,0,0,0,0,0,0,0,0,
0,0,0,0,0,0,0,0,0,0,0,0,0,1705,4442,4443,4449,0,0,0,0,0,0,0,0,0,0,0,0,0,0,
0,0,0,0,0,0,0,0,0,0,0,0,0,0,0,0,0,0,0,0,0,0,0,0,0,0,0,0,0,0,0,
0,0,0,0,0,0,0,0,0,0,0,0,0,0,0,0,0,0,0,0,0,0,0,0,0,0,0,0,0,0,0,
0,0,0,0,0,0,0,0,0,0,0,0,0,0,0,0,0,0,0,0,0,0,0,0,0,0,0,0,0,0,0,
81,82,83,84,85,86,0,0,0,0,0,0,0,0,0,0,0,0,0,0,0,0,0,0,0,0,0,0,0,2080,2081,
106,107,108,109,110,111,0,0,0,0,0,0,0,1086,0,0,0,0,0,0,0,0,0,0,0,0,0,0,0,2096,2097,
131,132,133,134,135,136,0,0,0,0,0,0,0,0,0,0,0,0,0,0,0,0,0,0,0,0,0,0,0,0,0,
0,0,0,0,0,0,0,0,0,0,0,0,0,0,0,0,0,297,0,0,0,0,0,0,0,0,0,0,0,0,0
</data>
 </layer>
 <layer id="5" name="AlwaysFront" width="31" height="32">
  <data encoding="csv">
0,0,0,0,0,0,0,0,0,0,0,1034,1035,1009,1035,1085,1030,1006,1008,1006,1031,0,0,0,0,0,0,1059,1134,1110,1011,
0,0,0,0,0,0,0,0,0,0,0,1058,1032,1033,1034,1035,1006,1031,1033,1032,1057,0,0,0,0,0,0,1084,1134,1110,1011,
0,0,0,0,0,0,0,0,0,0,0,0,0,0,1058,1032,1033,1057,0,0,0,0,0,0,0,0,0,1059,1110,1134,1011,
0,0,0,0,0,0,0,0,0,0,0,0,0,0,0,0,0,0,0,0,0,0,0,0,0,0,0,1084,1060,1132,1135,
0,0,0,0,0,0,0,0,0,0,0,0,0,0,0,0,0,0,0,0,0,0,0,0,0,0,0,1059,1035,1008,1010,
0,0,0,0,0,0,0,0,0,0,0,0,0,0,0,0,0,0,0,0,0,0,0,0,0,0,0,1058,1034,1035,1085,
0,0,0,0,0,0,0,0,0,0,0,0,0,0,0,0,0,0,0,0,0,0,0,0,0,0,0,0,1058,1034,1010,
0,0,0,0,0,0,0,0,0,0,0,0,0,0,0,0,0,0,0,0,0,0,0,0,0,0,0,0,0,1059,1035,
0,0,0,0,0,0,0,0,0,0,0,0,0,0,0,0,0,0,0,0,0,0,0,0,0,81,0,0,0,1058,1032,
0,0,0,0,0,0,0,0,0,0,0,0,0,0,0,0,0,0,0,0,0,0,0,0,0,0,0,0,0,0,0,
0,0,0,0,0,0,0,0,7918,7919,7919,7919,7918,7919,7918,7919,7919,7919,7919,7918,7919,7920,0,0,0,0,0,0,0,0,0,
0,0,0,0,0,0,0,0,7946,7947,7946,7947,7947,7947,7947,7947,7947,7946,7947,7946,7947,7948,0,0,0,0,0,0,0,0,0,
0,0,0,0,0,0,0,0,7973,7975,7975,7976,7975,7975,7975,0,0,7975,0,7975,7975,7973,0,0,0,0,0,0,0,1083,1109,
0,0,0,0,0,0,0,0,7930,0,0,0,7983,0,0,0,0,0,0,0,0,8001,0,0,0,0,0,0,1083,1109,1134,
1107,1108,0,0,0,0,0,0,0,0,0,0,0,0,0,0,0,0,0,0,0,0,0,0,0,0,1083,1108,1109,1060,1036,
1131,1105,1106,1082,0,0,0,0,0,0,0,0,0,0,0,0,0,0,0,0,0,0,0,0,0,1083,1109,1134,1035,1007,1035,
1061,1055,1105,1056,0,0,0,0,0,0,0,0,0,0,0,0,0,0,0,0,0,0,0,0,0,1059,1134,1135,1011,1134,1110,
1005,1030,1080,1081,0,0,0,0,0,0,0,0,0,0,0,0,0,0,0,0,0,0,0,0,0,1084,1110,1135,1061,1132,1135,
1030,1080,1031,1057,0,0,0,0,0,0,0,0,0,0,0,0,0,0,0,0,0,0,0,0,0,1059,1110,1009,1010,1036,1009,
1080,1031,1057,0,0,0,0,0,0,0,0,0,0,0,0,0,0,0,0,0,0,0,0,0,0,1084,1035,1105,1110,1011,1060,
1055,1056,0,0,0,0,0,0,0,0,0,0,0,0,0,0,0,0,0,0,0,0,0,0,0,1058,1034,1035,1009,1132,1134,
1005,1081,0,0,0,0,0,0,0,0,0,0,0,0,0,0,509,0,0,0,0,0,0,0,0,0,1058,1032,1033,1034,1010,
1030,1056,0,0,0,0,0,0,0,0,0,0,0,0,0,0,534,0,0,0,5806,5807,5808,5809,5810,5811,0,0,0,1059,1035,
1055,1081,0,0,0,0,0,0,0,0,0,0,0,0,0,0,0,0,0,0,5838,5839,5840,5841,5842,5843,0,0,0,1059,1110,
1030,1056,0,0,0,0,0,0,0,0,0,0,0,0,0,0,0,0,0,0,5870,5871,5872,5873,5874,5875,0,0,0,1084,1060,
1080,1081,0,0,0,0,0,0,0,0,0,0,0,0,0,0,0,0,0,0,5902,5903,5904,5905,5906,5907,0,0,0,1084,1035,
1131,1056,0,0,0,0,0,0,0,0,0,0,0,0,0,0,0,0,0,0,5934,5935,5936,5937,5938,5939,0,0,0,1059,1035,
1105,1106,1082,0,0,0,0,0,0,0,0,0,0,0,0,0,0,0,0,0,0,0,5774,5775,0,0,0,0,0,1059,1134,
1030,1105,1106,1082,0,0,0,0,0,0,0,0,0,0,0,0,0,0,0,0,0,0,0,0,0,0,0,0,0,1084,1035,
1011,1055,1105,1106,1082,0,0,0,0,0,0,0,0,0,0,0,0,81,82,83,84,85,86,0,0,0,0,0,1083,1107,1085,
1011,1130,1131,1105,1106,1107,1107,1108,1108,1107,1108,1082,0,0,0,0,0,106,107,108,109,110,111,0,0,0,0,1083,1109,1133,1134,
1011,1061,1011,1132,1133,1133,1134,1134,1131,1133,1105,1106,1107,1108,1082,0,0,131,132,133,134,135,136,0,0,0,0,1059,1134,1135,1135
</data>
 </layer>
 <layer id="4" name="Paths" width="31" height="32">
  <data encoding="csv">
0,0,0,0,0,0,0,0,0,0,0,0,0,0,0,0,0,0,0,0,0,0,0,0,0,0,0,0,0,0,0,
0,0,0,0,0,0,0,0,0,0,0,0,0,0,0,0,0,0,0,0,0,11,0,0,0,0,0,0,0,0,0,
0,0,0,10,0,0,0,0,0,0,0,0,0,0,0,0,0,0,0,0,0,0,0,0,0,0,0,0,0,0,0,
0,0,0,0,0,0,0,0,0,0,0,0,0,0,0,0,0,0,0,0,0,0,0,0,0,0,0,0,0,0,0,
0,0,0,0,0,0,0,0,0,0,0,0,0,0,0,0,0,0,0,0,0,0,0,0,27,0,0,0,0,0,0,
0,0,0,0,0,0,0,0,0,0,0,0,0,0,0,0,0,0,0,0,0,0,0,0,0,10,0,0,0,0,0,
0,0,0,0,0,0,0,0,0,0,0,0,0,0,0,0,0,0,0,0,0,0,0,0,0,0,0,0,0,0,0,
0,0,0,0,0,0,0,0,0,0,0,0,0,0,0,0,0,0,0,0,0,0,0,0,0,0,0,0,27,0,0,
0,20,0,0,0,0,0,0,0,0,0,0,0,0,0,0,0,0,0,0,0,0,0,0,0,0,0,0,0,0,0,
0,0,0,0,0,0,0,0,0,0,0,0,0,0,0,0,0,0,0,0,0,0,0,0,0,0,0,0,0,0,0,
0,0,0,0,0,0,0,0,0,0,0,0,0,0,0,0,0,0,0,0,0,0,0,0,0,0,0,0,0,0,0,
0,0,0,0,0,0,0,0,0,0,0,0,0,0,0,0,0,0,0,0,0,0,0,0,0,0,0,0,0,0,0,
0,0,0,0,0,0,0,0,0,0,0,0,0,0,0,0,0,0,0,0,0,0,0,0,0,0,0,0,0,0,0,
0,0,0,0,0,0,0,0,0,0,0,0,0,0,0,0,0,0,0,0,0,0,0,0,0,0,0,0,0,0,0,
0,0,0,0,0,0,0,0,0,0,0,0,0,0,0,0,0,0,0,0,0,0,0,0,0,0,0,0,0,0,0,
0,0,0,0,0,0,0,0,0,0,0,0,0,0,0,0,0,0,0,0,0,0,0,0,0,0,0,0,0,0,0,
0,0,0,0,0,0,0,0,0,0,0,0,0,0,0,0,0,0,0,0,0,0,0,0,0,0,0,0,0,0,0,
0,0,0,0,0,0,0,27,0,0,0,0,0,0,0,0,0,0,0,0,0,0,0,0,0,0,0,0,0,0,0,
0,0,0,0,0,0,0,0,0,0,0,0,0,0,0,0,0,17,18,0,0,0,0,27,0,0,0,0,0,0,0,
0,0,0,0,0,0,0,0,0,0,0,0,0,0,0,0,0,0,0,0,0,0,0,0,0,0,0,0,0,0,0,
0,0,0,0,0,0,0,0,0,0,0,0,0,0,0,0,0,0,0,0,0,0,0,0,0,0,0,0,0,0,0,
0,0,0,0,0,0,0,0,0,0,0,0,0,0,0,0,0,0,0,0,0,0,0,0,0,0,0,0,0,0,0,
0,0,0,0,0,0,0,0,0,0,0,0,0,0,0,0,0,0,0,0,0,0,0,0,0,0,0,0,0,0,0,
0,0,0,0,0,0,0,0,0,0,0,0,0,0,0,0,0,0,0,0,0,0,0,0,0,0,0,0,0,0,0,
0,0,0,0,0,0,0,0,0,0,0,0,0,0,0,0,0,0,0,0,0,0,0,0,0,0,0,0,0,0,0,
0,0,0,0,0,0,0,0,0,0,0,0,0,0,0,0,0,0,0,0,0,0,0,0,0,0,0,0,0,0,0,
0,0,0,0,0,0,0,0,0,0,0,0,0,0,0,0,0,0,0,0,0,0,0,0,0,0,0,0,0,0,0,
0,0,0,0,0,0,0,0,0,0,0,0,0,0,0,0,0,0,0,0,0,0,0,0,0,0,0,0,0,0,0,
0,0,0,0,0,0,0,0,0,0,0,0,0,0,0,0,0,0,0,0,0,0,0,0,0,0,0,0,0,0,0,
0,0,0,0,0,0,0,0,0,0,0,0,0,0,0,0,0,0,0,0,0,0,0,0,0,0,0,0,0,0,0,
0,0,0,0,0,0,0,0,0,0,0,0,0,0,0,0,0,0,0,0,0,0,0,0,0,0,0,0,0,0,0,
0,0,0,0,0,0,0,0,0,0,0,0,0,0,0,0,27,0,0,0,0,0,0,0,0,0,0,0,0,0,0
</data>
 </layer>
 <objectgroup id="6" name="Back">
  <object id="3" name="TileData" x="176" y="368" width="16" height="16">
   <properties>
    <property name="TouchAction" value="playSound dropItemInWater"/>
    <property name="Type" value="Stone"/>
   </properties>
  </object>
  <object id="4" name="TileData" x="176" y="384" width="16" height="16">
   <properties>
    <property name="Type" value="Stone"/>
   </properties>
  </object>
  <object id="5" name="TileData" x="176" y="400" width="16" height="16">
   <properties>
    <property name="Type" value="Stone"/>
   </properties>
  </object>
  <object id="6" name="TileData" x="176" y="416" width="16" height="16">
   <properties>
    <property name="Type" value="Stone"/>
   </properties>
  </object>
  <object id="7" name="TileData" x="160" y="416" width="16" height="16">
   <properties>
    <property name="Type" value="Stone"/>
   </properties>
  </object>
  <object id="8" name="TileData" x="144" y="416" width="16" height="16">
   <properties>
    <property name="Type" value="Stone"/>
   </properties>
  </object>
  <object id="9" name="TileData" x="192" y="416" width="16" height="16">
   <properties>
    <property name="Type" value="Stone"/>
   </properties>
  </object>
  <object id="10" name="TileData" x="224" y="416" width="16" height="16">
   <properties>
    <property name="Type" value="Stone"/>
   </properties>
  </object>
  <object id="11" name="TileData" x="208" y="416" width="16" height="16">
   <properties>
    <property name="Type" value="Stone"/>
   </properties>
  </object>
  <object id="12" name="TileData" x="176" y="432" width="16" height="16">
   <properties>
    <property name="Type" value="Stone"/>
   </properties>
  </object>
  <object id="13" name="TileData" x="176" y="448" width="16" height="16">
   <properties>
    <property name="Type" value="Stone"/>
   </properties>
  </object>
  <object id="14" name="TileData" x="176" y="464" width="16" height="16">
   <properties>
    <property name="Type" value="Stone"/>
   </properties>
  </object>
  <object id="15" name="TileData" x="176" y="480" width="16" height="16">
   <properties>
    <property name="Type" value="Stone"/>
   </properties>
  </object>
  <object id="16" name="TileData" x="176" y="496" width="16" height="16">
   <properties>
    <property name="Type" value="Stone"/>
   </properties>
  </object>
  <object id="17" name="TileData" x="240" y="416" width="16" height="16">
   <properties>
    <property name="Type" value="Stone"/>
   </properties>
  </object>
  <object id="18" name="TileData" x="256" y="416" width="16" height="16">
   <properties>
    <property name="Type" value="Stone"/>
   </properties>
  </object>
  <object id="19" name="TileData" x="272" y="416" width="16" height="16">
   <properties>
    <property name="Type" value="Stone"/>
   </properties>
  </object>
  <object id="20" name="TileData" x="288" y="416" width="16" height="16">
   <properties>
    <property name="Type" value="Stone"/>
   </properties>
  </object>
  <object id="21" name="TileData" x="304" y="416" width="16" height="16">
   <properties>
    <property name="Type" value="Stone"/>
   </properties>
  </object>
  <object id="22" name="TileData" x="320" y="416" width="16" height="16">
   <properties>
    <property name="Type" value="Stone"/>
   </properties>
  </object>
  <object id="23" name="TileData" x="336" y="416" width="16" height="16">
   <properties>
    <property name="Type" value="Stone"/>
   </properties>
  </object>
  <object id="24" name="TileData" x="352" y="416" width="16" height="16">
   <properties>
    <property name="Type" value="Stone"/>
   </properties>
  </object>
  <object id="25" name="TileData" x="368" y="416" width="16" height="16">
   <properties>
    <property name="Type" value="Stone"/>
   </properties>
  </object>
  <object id="26" name="TileData" x="384" y="416" width="16" height="16">
   <properties>
    <property name="Type" value="Stone"/>
   </properties>
  </object>
  <object id="27" name="TileData" x="400" y="416" width="16" height="16">
   <properties>
    <property name="Type" value="Stone"/>
   </properties>
  </object>
  <object id="28" name="TileData" x="416" y="416" width="16" height="16">
   <properties>
    <property name="Type" value="Stone"/>
   </properties>
  </object>
  <object id="29" name="TileData" x="432" y="416" width="16" height="16">
   <properties>
    <property name="Type" value="Stone"/>
   </properties>
  </object>
  <object id="30" name="TileData" x="432" y="400" width="16" height="16">
   <properties>
    <property name="Type" value="Stone"/>
   </properties>
  </object>
  <object id="31" name="TileData" x="432" y="384" width="16" height="16">
   <properties>
    <property name="Type" value="Stone"/>
   </properties>
  </object>
  <object id="32" name="TileData" x="432" y="368" width="16" height="16">
   <properties>
    <property name="Type" value="Stone"/>
   </properties>
  </object>
  <object id="33" name="TileData" x="432" y="352" width="16" height="16">
   <properties>
    <property name="Type" value="Stone"/>
   </properties>
  </object>
  <object id="34" name="TileData" x="432" y="336" width="16" height="16">
   <properties>
    <property name="Type" value="Stone"/>
   </properties>
  </object>
  <object id="35" name="TileData" x="432" y="320" width="16" height="16">
   <properties>
    <property name="Type" value="Stone"/>
   </properties>
  </object>
  <object id="36" name="TileData" x="432" y="304" width="16" height="16">
   <properties>
    <property name="Type" value="Stone"/>
   </properties>
  </object>
  <object id="37" name="TileData" x="432" y="288" width="16" height="16">
   <properties>
    <property name="Type" value="Stone"/>
   </properties>
  </object>
  <object id="38" name="TileData" x="432" y="272" width="16" height="16">
   <properties>
    <property name="Type" value="Stone"/>
   </properties>
  </object>
  <object id="39" name="TileData" x="432" y="256" width="16" height="16">
   <properties>
    <property name="Type" value="Stone"/>
   </properties>
  </object>
  <object id="40" name="TileData" x="432" y="240" width="16" height="16">
   <properties>
    <property name="Type" value="Stone"/>
   </properties>
  </object>
  <object id="41" name="TileData" x="432" y="224" width="16" height="16">
   <properties>
    <property name="Type" value="Stone"/>
   </properties>
  </object>
  <object id="42" name="TileData" x="416" y="224" width="16" height="16">
   <properties>
    <property name="Type" value="Stone"/>
   </properties>
  </object>
  <object id="43" name="TileData" x="400" y="224" width="16" height="16">
   <properties>
    <property name="Type" value="Stone"/>
   </properties>
  </object>
  <object id="44" name="TileData" x="384" y="224" width="16" height="16">
   <properties>
    <property name="Type" value="Stone"/>
   </properties>
  </object>
  <object id="45" name="TileData" x="384" y="208" width="16" height="16">
   <properties>
    <property name="Type" value="Stone"/>
   </properties>
  </object>
  <object id="46" name="TileData" x="384" y="192" width="16" height="16">
   <properties>
    <property name="Type" value="Stone"/>
   </properties>
  </object>
  <object id="47" name="TileData" x="384" y="176" width="16" height="16">
   <properties>
    <property name="Type" value="Stone"/>
   </properties>
  </object>
  <object id="48" name="TileData" x="384" y="160" width="16" height="16">
   <properties>
    <property name="Type" value="Stone"/>
   </properties>
  </object>
  <object id="49" name="TileData" x="384" y="144" width="16" height="16">
   <properties>
    <property name="Type" value="Stone"/>
   </properties>
  </object>
  <object id="50" name="TileData" x="384" y="128" width="16" height="16">
   <properties>
    <property name="Type" value="Stone"/>
   </properties>
  </object>
  <object id="51" name="TileData" x="368" y="128" width="16" height="16">
   <properties>
    <property name="Type" value="Stone"/>
   </properties>
  </object>
  <object id="52" name="TileData" x="352" y="128" width="16" height="16">
   <properties>
    <property name="Type" value="Stone"/>
   </properties>
  </object>
  <object id="53" name="TileData" x="336" y="128" width="16" height="16">
   <properties>
    <property name="Type" value="Stone"/>
   </properties>
  </object>
  <object id="54" name="TileData" x="320" y="128" width="16" height="16">
   <properties>
    <property name="Type" value="Stone"/>
   </properties>
  </object>
  <object id="55" name="TileData" x="304" y="128" width="16" height="16">
   <properties>
    <property name="Type" value="Stone"/>
   </properties>
  </object>
  <object id="56" name="TileData" x="288" y="128" width="16" height="16">
   <properties>
    <property name="Type" value="Stone"/>
   </properties>
  </object>
  <object id="57" name="TileData" x="272" y="128" width="16" height="16">
   <properties>
    <property name="Type" value="Stone"/>
   </properties>
  </object>
  <object id="58" name="TileData" x="272" y="112" width="16" height="16">
   <properties>
    <property name="Type" value="Stone"/>
   </properties>
  </object>
  <object id="59" name="TileData" x="256" y="112" width="16" height="16">
   <properties>
    <property name="Type" value="Stone"/>
   </properties>
  </object>
  <object id="60" name="TileData" x="240" y="112" width="16" height="16">
   <properties>
    <property name="Type" value="Stone"/>
   </properties>
  </object>
  <object id="61" name="TileData" x="224" y="112" width="16" height="16">
   <properties>
    <property name="Type" value="Stone"/>
   </properties>
  </object>
  <object id="62" name="TileData" x="208" y="112" width="16" height="16">
   <properties>
    <property name="Type" value="Stone"/>
   </properties>
  </object>
  <object id="63" name="TileData" x="192" y="112" width="16" height="16">
   <properties>
    <property name="Type" value="Stone"/>
   </properties>
  </object>
  <object id="64" name="TileData" x="176" y="112" width="16" height="16">
   <properties>
    <property name="Type" value="Stone"/>
   </properties>
  </object>
 </objectgroup>
 <objectgroup id="7" name="Buildings"/>
 <objectgroup id="8" name="Front"/>
 <objectgroup id="9" name="Paths"/>
 <objectgroup id="10" name="AlwaysFront"/>
</map>
