<?xml version="1.0" encoding="UTF-8"?>
<map version="1.10" tiledversion="1.11.2" orientation="orthogonal" renderorder="right-down" compressionlevel="0" width="4" height="4" tilewidth="16" tileheight="16" infinite="0" nextlayerid="11" nextobjectid="1">
 <properties>
  <property name="Outdoors" value="T"/>
 </properties>
 <tileset firstgid="1" name="Paths" tilewidth="16" tileheight="16" tilecount="64" columns="4">
  <image source="paths.png" width="64" height="256"/>
 </tileset>
 <tileset firstgid="65" name="townInterior_DustBeauty" tilewidth="16" tileheight="16" tilecount="2176" columns="32">
  <image source="DaultonInterior.png" width="512" height="1088"/>
 </tileset>
 <layer id="1" name="Back" width="4" height="4" visible="0">
  <data encoding="csv">
0,0,0,0,
0,0,0,0,
0,0,0,0,
0,0,0,0
</data>
 </layer>
 <layer id="2" name="Buildings" width="4" height="4">
  <data encoding="csv">
0,0,0,0,
0,0,0,1281,
1902,951,0,1313,
0,0,0,0
</data>
 </layer>
 <layer id="3" name="Paths" width="4" height="4">
  <data encoding="csv">
0,0,0,0,
0,0,0,0,
0,0,8,0,
0,0,0,0
</data>
 </layer>
 <layer id="4" name="Front" width="4" height="4">
  <data encoding="csv">
0,0,0,0,
0,0,0,0,
0,0,0,0,
0,0,0,0
</data>
 </layer>
 <layer id="5" name="AlwaysFront" width="4" height="4">
  <data encoding="csv">
0,0,0,0,
0,0,0,0,
0,0,0,0,
0,0,0,0
</data>
 </layer>
 <objectgroup id="6" name="Back" visible="0"/>
 <objectgroup id="7" name="Buildings" visible="0"/>
 <objectgroup id="8" name="Paths" visible="0"/>
 <objectgroup id="9" name="Front" visible="0"/>
 <objectgroup id="10" name="AlwaysFront" visible="0"/>
</map>
