<?xml version="1.0" encoding="UTF-8"?>
<map version="1.10" tiledversion="1.10.2" orientation="orthogonal" renderorder="right-down" compressionlevel="0" width="3" height="4" tilewidth="16" tileheight="16" infinite="0" nextlayerid="12" nextobjectid="9">
 <tileset firstgid="1" name="paths" tilewidth="16" tileheight="16" tilecount="64" columns="4">
  <image source="paths" width="64" height="256"/>
 </tileset>
 <tileset firstgid="65" name="z_AdditionalFarmCave" tilewidth="16" tileheight="16" tilecount="480" columns="20">
  <image source="z_AdditionalFarmCave.png" width="320" height="384"/>
  <tile id="120">
   <animation>
    <frame tileid="120" duration="100"/>
    <frame tileid="121" duration="100"/>
    <frame tileid="122" duration="100"/>
    <frame tileid="123" duration="100"/>
    <frame tileid="124" duration="100"/>
    <frame tileid="125" duration="100"/>
    <frame tileid="126" duration="100"/>
    <frame tileid="127" duration="100"/>
    <frame tileid="127" duration="100"/>
    <frame tileid="120" duration="100"/>
   </animation>
  </tile>
 </tileset>
 <tileset firstgid="545" name="z_spring_outdoorsTileSheet" tilewidth="16" tileheight="16" tilecount="1975" columns="25">
  <image source="spring_outdoorsTileSheet.png" width="400" height="1264"/>
  <tile id="606">
   <properties>
    <property name="Diggable" value="T"/>
    <property name="Type" value="Dirt"/>
   </properties>
  </tile>
  <tile id="607">
   <properties>
    <property name="Diggable" value="T"/>
    <property name="Type" value="Dirt"/>
   </properties>
  </tile>
  <tile id="680">
   <properties>
    <property name="Diggable" value="T"/>
    <property name="Type" value="Dirt"/>
   </properties>
  </tile>
  <tile id="685">
   <properties>
    <property name="Diggable" value="T"/>
    <property name="Type" value="Dirt"/>
   </properties>
  </tile>
 </tileset>
 <tileset firstgid="2520" name="cave" tilewidth="16" tileheight="16" tilecount="288" columns="16">
  <image source="Mines/mine" width="256" height="288"/>
  <tile id="165">
   <properties>
    <property name="Diggable" value="T"/>
    <property name="Type" value="Dirt"/>
   </properties>
  </tile>
  <tile id="181">
   <properties>
    <property name="Diggable" value="T"/>
    <property name="Type" value="Dirt"/>
   </properties>
  </tile>
  <tile id="183">
   <properties>
    <property name="Diggable" value="T"/>
    <property name="Type" value="Dirt"/>
   </properties>
  </tile>
  <tile id="240">
   <properties>
    <property name="Type" value="Wood"/>
   </properties>
  </tile>
  <tile id="241">
   <properties>
    <property name="Type" value="Wood"/>
   </properties>
  </tile>
  <tile id="242">
   <properties>
    <property name="Type" value="Wood"/>
   </properties>
  </tile>
  <tile id="256">
   <properties>
    <property name="Type" value="Wood"/>
   </properties>
  </tile>
  <tile id="257">
   <properties>
    <property name="Type" value="Wood"/>
   </properties>
  </tile>
  <tile id="258">
   <properties>
    <property name="Type" value="Wood"/>
   </properties>
  </tile>
  <tile id="272">
   <properties>
    <property name="Type" value="Wood"/>
   </properties>
  </tile>
  <tile id="273">
   <properties>
    <property name="Type" value="Wood"/>
   </properties>
  </tile>
  <tile id="274">
   <properties>
    <property name="Type" value="Wood"/>
   </properties>
  </tile>
 </tileset>
 <tileset firstgid="2808" name="zz_mine_frost_dangerous" tilewidth="16" tileheight="16" tilecount="288" columns="16">
  <image source="Mines/mine_frost_dangerous.png" width="256" height="288"/>
  <tile id="0">
   <properties>
    <property name="Diggable" value="T"/>
    <property name="Type" value="Dirt"/>
   </properties>
  </tile>
  <tile id="1">
   <properties>
    <property name="Type" value="Stone"/>
   </properties>
  </tile>
  <tile id="2">
   <properties>
    <property name="Type" value="Stone"/>
   </properties>
  </tile>
  <tile id="3">
   <properties>
    <property name="Type" value="Stone"/>
   </properties>
  </tile>
  <tile id="17">
   <properties>
    <property name="Type" value="Stone"/>
   </properties>
  </tile>
  <tile id="18">
   <properties>
    <property name="Type" value="Stone"/>
   </properties>
  </tile>
  <tile id="19">
   <properties>
    <property name="Type" value="Stone"/>
   </properties>
  </tile>
  <tile id="33">
   <properties>
    <property name="Type" value="Stone"/>
   </properties>
  </tile>
  <tile id="34">
   <properties>
    <property name="Type" value="Stone"/>
   </properties>
  </tile>
  <tile id="35">
   <properties>
    <property name="Type" value="Stone"/>
   </properties>
  </tile>
  <tile id="137">
   <properties>
    <property name="Type" value="Grass"/>
   </properties>
  </tile>
  <tile id="138">
   <properties>
    <property name="Type" value="Grass"/>
   </properties>
  </tile>
  <tile id="139">
   <properties>
    <property name="Type" value="Grass"/>
   </properties>
  </tile>
  <tile id="140">
   <properties>
    <property name="Type" value="Grass"/>
   </properties>
  </tile>
  <tile id="149">
   <properties>
    <property name="Type" value="Dirt"/>
   </properties>
  </tile>
  <tile id="150">
   <properties>
    <property name="Type" value="Dirt"/>
   </properties>
  </tile>
  <tile id="151">
   <properties>
    <property name="Type" value="Dirt"/>
   </properties>
  </tile>
  <tile id="152">
   <properties>
    <property name="Type" value="Dirt"/>
   </properties>
  </tile>
  <tile id="153">
   <properties>
    <property name="Type" value="Grass"/>
   </properties>
  </tile>
  <tile id="154">
   <properties>
    <property name="Type" value="Grass"/>
   </properties>
  </tile>
  <tile id="155">
   <properties>
    <property name="Type" value="Grass"/>
   </properties>
  </tile>
  <tile id="165">
   <properties>
    <property name="Diggable" value="T"/>
    <property name="Type" value="Dirt"/>
   </properties>
  </tile>
  <tile id="166">
   <properties>
    <property name="Type" value="Dirt"/>
   </properties>
  </tile>
  <tile id="167">
   <properties>
    <property name="Type" value="Dirt"/>
   </properties>
  </tile>
  <tile id="168">
   <properties>
    <property name="Type" value="Dirt"/>
   </properties>
  </tile>
  <tile id="169">
   <properties>
    <property name="Type" value="Grass"/>
   </properties>
  </tile>
  <tile id="170">
   <properties>
    <property name="Type" value="Grass"/>
   </properties>
  </tile>
  <tile id="171">
   <properties>
    <property name="Type" value="Grass"/>
   </properties>
  </tile>
  <tile id="172">
   <properties>
    <property name="Type" value="Grass"/>
   </properties>
  </tile>
  <tile id="181">
   <properties>
    <property name="Diggable" value="T"/>
    <property name="Type" value="Dirt"/>
   </properties>
  </tile>
  <tile id="182">
   <properties>
    <property name="Type" value="Dirt"/>
   </properties>
  </tile>
  <tile id="183">
   <properties>
    <property name="Diggable" value="T"/>
    <property name="Type" value="Dirt"/>
   </properties>
  </tile>
  <tile id="184">
   <properties>
    <property name="Type" value="Dirt"/>
   </properties>
  </tile>
  <tile id="185">
   <properties>
    <property name="Type" value="Grass"/>
   </properties>
  </tile>
  <tile id="186">
   <properties>
    <property name="Type" value="Grass"/>
   </properties>
  </tile>
  <tile id="187">
   <properties>
    <property name="Type" value="Grass"/>
   </properties>
  </tile>
  <tile id="188">
   <properties>
    <property name="Type" value="Grass"/>
   </properties>
  </tile>
  <tile id="198">
   <properties>
    <property name="Type" value="Dirt"/>
   </properties>
  </tile>
  <tile id="199">
   <properties>
    <property name="Type" value="Dirt"/>
   </properties>
  </tile>
  <tile id="200">
   <properties>
    <property name="Type" value="Dirt"/>
   </properties>
  </tile>
  <tile id="201">
   <properties>
    <property name="Type" value="Grass"/>
   </properties>
  </tile>
  <tile id="202">
   <properties>
    <property name="Type" value="Grass"/>
   </properties>
  </tile>
  <tile id="203">
   <properties>
    <property name="Type" value="Grass"/>
   </properties>
  </tile>
  <tile id="204">
   <properties>
    <property name="Type" value="Stone"/>
   </properties>
  </tile>
  <tile id="217">
   <properties>
    <property name="Type" value="Grass"/>
   </properties>
  </tile>
  <tile id="218">
   <properties>
    <property name="Type" value="Grass"/>
   </properties>
  </tile>
  <tile id="219">
   <properties>
    <property name="Type" value="Grass"/>
   </properties>
  </tile>
  <tile id="233">
   <properties>
    <property name="Type" value="Grass"/>
   </properties>
  </tile>
  <tile id="234">
   <properties>
    <property name="Type" value="Grass"/>
   </properties>
  </tile>
  <tile id="235">
   <properties>
    <property name="Type" value="Grass"/>
   </properties>
  </tile>
  <tile id="240">
   <properties>
    <property name="Type" value="Wood"/>
   </properties>
  </tile>
  <tile id="241">
   <properties>
    <property name="Type" value="Wood"/>
   </properties>
  </tile>
  <tile id="242">
   <properties>
    <property name="Type" value="Wood"/>
   </properties>
  </tile>
  <tile id="256">
   <properties>
    <property name="Type" value="Wood"/>
   </properties>
  </tile>
  <tile id="257">
   <properties>
    <property name="Type" value="Wood"/>
   </properties>
  </tile>
  <tile id="258">
   <properties>
    <property name="Type" value="Wood"/>
   </properties>
  </tile>
  <tile id="260">
   <properties>
    <property name="Water" value="T"/>
   </properties>
  </tile>
  <tile id="272">
   <properties>
    <property name="Type" value="Wood"/>
   </properties>
  </tile>
  <tile id="273">
   <properties>
    <property name="Type" value="Wood"/>
   </properties>
  </tile>
  <tile id="274">
   <properties>
    <property name="Type" value="Wood"/>
   </properties>
  </tile>
  <tile id="275">
   <properties>
    <property name="Water" value="T"/>
   </properties>
  </tile>
  <tile id="276">
   <properties>
    <property name="Water" value="T"/>
   </properties>
  </tile>
  <tile id="277">
   <properties>
    <property name="Water" value="T"/>
   </properties>
  </tile>
 </tileset>
 <tileset firstgid="3096" name="zz_spring_CR_outdoor" tilewidth="16" tileheight="16" tilecount="870" columns="29">
  <image source="spring_CR_outdoor.png" width="464" height="480"/>
 </tileset>
 <layer id="1" name="Back" width="3" height="4">
  <data encoding="csv">
0,0,0,
3026,3026,3026,
3026,3026,3026,
3026,3026,3026
</data>
 </layer>
 <layer id="11" name="Back2" width="3" height="4">
  <data encoding="csv">
0,0,0,
331,331,331,
351,351,351,
371,371,371
</data>
 </layer>
 <layer id="2" name="Buildings" width="3" height="4">
  <data encoding="csv">
65,0,67,
85,0,87,
348,349,350,
368,369,370
</data>
 </layer>
 <layer id="3" name="Paths" width="3" height="4" visible="0">
  <data encoding="csv">
0,0,0,
0,0,0,
0,0,0,
0,0,0
</data>
 </layer>
 <layer id="4" name="Front" width="3" height="4">
  <data encoding="csv">
0,66,0,
0,86,0,
0,0,0,
0,0,0
</data>
 </layer>
 <layer id="9" name="AlwaysFront" width="3" height="4">
  <data encoding="csv">
0,0,0,
0,0,0,
0,0,0,
0,0,0
</data>
 </layer>
 <objectgroup id="5" name="Back"/>
 <objectgroup id="6" name="Buildings"/>
 <objectgroup id="7" name="Paths"/>
 <objectgroup id="8" name="Front"/>
 <objectgroup id="10" name="AlwaysFront"/>
</map>
