<?xml version="1.0" encoding="UTF-8"?>
<map version="1.10" tiledversion="1.10.2" orientation="orthogonal" renderorder="right-down" compressionlevel="0" width="19" height="16" tilewidth="16" tileheight="16" infinite="0" nextlayerid="14" nextobjectid="9">
 <properties>
  <property name="AmbientLight" value="90 90 35"/>
  <property name="IsGreenhouse" value="T"/>
  <property name="Warp" value="9 15 FarmCave 6 3 9 4 Custom_AdditionalFarmCave_2ndArea 9 14"/>
 </properties>
 <tileset firstgid="1" name="paths" tilewidth="16" tileheight="16" tilecount="64" columns="4">
  <image source="paths" width="64" height="256"/>
 </tileset>
 <tileset firstgid="65" name="z_AdditionalFarmCave" tilewidth="16" tileheight="16" tilecount="480" columns="20">
  <image source="z_AdditionalFarmCave.png" width="320" height="384"/>
  <tile id="120">
   <animation>
    <frame tileid="120" duration="100"/>
    <frame tileid="121" duration="100"/>
    <frame tileid="122" duration="100"/>
    <frame tileid="123" duration="100"/>
    <frame tileid="124" duration="100"/>
    <frame tileid="125" duration="100"/>
    <frame tileid="126" duration="100"/>
    <frame tileid="127" duration="100"/>
    <frame tileid="127" duration="100"/>
    <frame tileid="120" duration="100"/>
   </animation>
  </tile>
 </tileset>
 <tileset firstgid="545" name="z_spring_outdoorsTileSheet" tilewidth="16" tileheight="16" tilecount="1975" columns="25">
  <image source="spring_outdoorsTileSheet.png" width="400" height="1264"/>
  <tile id="606">
   <properties>
    <property name="Diggable" value="T"/>
    <property name="Type" value="Dirt"/>
   </properties>
  </tile>
  <tile id="607">
   <properties>
    <property name="Diggable" value="T"/>
    <property name="Type" value="Dirt"/>
   </properties>
  </tile>
  <tile id="680">
   <properties>
    <property name="Diggable" value="T"/>
    <property name="Type" value="Dirt"/>
   </properties>
  </tile>
  <tile id="685">
   <properties>
    <property name="Diggable" value="T"/>
    <property name="Type" value="Dirt"/>
   </properties>
  </tile>
 </tileset>
 <tileset firstgid="2520" name="cave" tilewidth="16" tileheight="16" tilecount="288" columns="16">
  <image source="Mines/mine" width="256" height="288"/>
  <tile id="165">
   <properties>
    <property name="Diggable" value="T"/>
    <property name="Type" value="Dirt"/>
   </properties>
  </tile>
  <tile id="181">
   <properties>
    <property name="Diggable" value="T"/>
    <property name="Type" value="Dirt"/>
   </properties>
  </tile>
  <tile id="183">
   <properties>
    <property name="Diggable" value="T"/>
    <property name="Type" value="Dirt"/>
   </properties>
  </tile>
  <tile id="240">
   <properties>
    <property name="Type" value="Wood"/>
   </properties>
  </tile>
  <tile id="241">
   <properties>
    <property name="Type" value="Wood"/>
   </properties>
  </tile>
  <tile id="242">
   <properties>
    <property name="Type" value="Wood"/>
   </properties>
  </tile>
  <tile id="256">
   <properties>
    <property name="Type" value="Wood"/>
   </properties>
  </tile>
  <tile id="257">
   <properties>
    <property name="Type" value="Wood"/>
   </properties>
  </tile>
  <tile id="258">
   <properties>
    <property name="Type" value="Wood"/>
   </properties>
  </tile>
  <tile id="272">
   <properties>
    <property name="Type" value="Wood"/>
   </properties>
  </tile>
  <tile id="273">
   <properties>
    <property name="Type" value="Wood"/>
   </properties>
  </tile>
  <tile id="274">
   <properties>
    <property name="Type" value="Wood"/>
   </properties>
  </tile>
 </tileset>
 <tileset firstgid="2808" name="zz_mine_frost_dangerous" tilewidth="16" tileheight="16" tilecount="288" columns="16">
  <image source="Mines/mine_frost_dangerous.png" width="256" height="288"/>
  <tile id="0">
   <properties>
    <property name="Diggable" value="T"/>
    <property name="Type" value="Dirt"/>
   </properties>
  </tile>
  <tile id="1">
   <properties>
    <property name="Type" value="Stone"/>
   </properties>
  </tile>
  <tile id="2">
   <properties>
    <property name="Type" value="Stone"/>
   </properties>
  </tile>
  <tile id="3">
   <properties>
    <property name="Type" value="Stone"/>
   </properties>
  </tile>
  <tile id="17">
   <properties>
    <property name="Type" value="Stone"/>
   </properties>
  </tile>
  <tile id="18">
   <properties>
    <property name="Type" value="Stone"/>
   </properties>
  </tile>
  <tile id="19">
   <properties>
    <property name="Type" value="Stone"/>
   </properties>
  </tile>
  <tile id="33">
   <properties>
    <property name="Type" value="Stone"/>
   </properties>
  </tile>
  <tile id="34">
   <properties>
    <property name="Type" value="Stone"/>
   </properties>
  </tile>
  <tile id="35">
   <properties>
    <property name="Type" value="Stone"/>
   </properties>
  </tile>
  <tile id="137">
   <properties>
    <property name="Type" value="Grass"/>
   </properties>
  </tile>
  <tile id="138">
   <properties>
    <property name="Type" value="Grass"/>
   </properties>
  </tile>
  <tile id="139">
   <properties>
    <property name="Type" value="Grass"/>
   </properties>
  </tile>
  <tile id="140">
   <properties>
    <property name="Type" value="Grass"/>
   </properties>
  </tile>
  <tile id="149">
   <properties>
    <property name="Type" value="Dirt"/>
   </properties>
  </tile>
  <tile id="150">
   <properties>
    <property name="Type" value="Dirt"/>
   </properties>
  </tile>
  <tile id="151">
   <properties>
    <property name="Type" value="Dirt"/>
   </properties>
  </tile>
  <tile id="152">
   <properties>
    <property name="Type" value="Dirt"/>
   </properties>
  </tile>
  <tile id="153">
   <properties>
    <property name="Type" value="Grass"/>
   </properties>
  </tile>
  <tile id="154">
   <properties>
    <property name="Type" value="Grass"/>
   </properties>
  </tile>
  <tile id="155">
   <properties>
    <property name="Type" value="Grass"/>
   </properties>
  </tile>
  <tile id="165">
   <properties>
    <property name="Diggable" value="T"/>
    <property name="Type" value="Dirt"/>
   </properties>
  </tile>
  <tile id="166">
   <properties>
    <property name="Type" value="Dirt"/>
   </properties>
  </tile>
  <tile id="167">
   <properties>
    <property name="Type" value="Dirt"/>
   </properties>
  </tile>
  <tile id="168">
   <properties>
    <property name="Type" value="Dirt"/>
   </properties>
  </tile>
  <tile id="169">
   <properties>
    <property name="Type" value="Grass"/>
   </properties>
  </tile>
  <tile id="170">
   <properties>
    <property name="Type" value="Grass"/>
   </properties>
  </tile>
  <tile id="171">
   <properties>
    <property name="Type" value="Grass"/>
   </properties>
  </tile>
  <tile id="172">
   <properties>
    <property name="Type" value="Grass"/>
   </properties>
  </tile>
  <tile id="181">
   <properties>
    <property name="Diggable" value="T"/>
    <property name="Type" value="Dirt"/>
   </properties>
  </tile>
  <tile id="182">
   <properties>
    <property name="Type" value="Dirt"/>
   </properties>
  </tile>
  <tile id="183">
   <properties>
    <property name="Diggable" value="T"/>
    <property name="Type" value="Dirt"/>
   </properties>
  </tile>
  <tile id="184">
   <properties>
    <property name="Type" value="Dirt"/>
   </properties>
  </tile>
  <tile id="185">
   <properties>
    <property name="Type" value="Grass"/>
   </properties>
  </tile>
  <tile id="186">
   <properties>
    <property name="Type" value="Grass"/>
   </properties>
  </tile>
  <tile id="187">
   <properties>
    <property name="Type" value="Grass"/>
   </properties>
  </tile>
  <tile id="188">
   <properties>
    <property name="Type" value="Grass"/>
   </properties>
  </tile>
  <tile id="198">
   <properties>
    <property name="Type" value="Dirt"/>
   </properties>
  </tile>
  <tile id="199">
   <properties>
    <property name="Type" value="Dirt"/>
   </properties>
  </tile>
  <tile id="200">
   <properties>
    <property name="Type" value="Dirt"/>
   </properties>
  </tile>
  <tile id="201">
   <properties>
    <property name="Type" value="Grass"/>
   </properties>
  </tile>
  <tile id="202">
   <properties>
    <property name="Type" value="Grass"/>
   </properties>
  </tile>
  <tile id="203">
   <properties>
    <property name="Type" value="Grass"/>
   </properties>
  </tile>
  <tile id="204">
   <properties>
    <property name="Type" value="Stone"/>
   </properties>
  </tile>
  <tile id="217">
   <properties>
    <property name="Type" value="Grass"/>
   </properties>
  </tile>
  <tile id="218">
   <properties>
    <property name="Type" value="Grass"/>
   </properties>
  </tile>
  <tile id="219">
   <properties>
    <property name="Type" value="Grass"/>
   </properties>
  </tile>
  <tile id="233">
   <properties>
    <property name="Type" value="Grass"/>
   </properties>
  </tile>
  <tile id="234">
   <properties>
    <property name="Type" value="Grass"/>
   </properties>
  </tile>
  <tile id="235">
   <properties>
    <property name="Type" value="Grass"/>
   </properties>
  </tile>
  <tile id="240">
   <properties>
    <property name="Type" value="Wood"/>
   </properties>
  </tile>
  <tile id="241">
   <properties>
    <property name="Type" value="Wood"/>
   </properties>
  </tile>
  <tile id="242">
   <properties>
    <property name="Type" value="Wood"/>
   </properties>
  </tile>
  <tile id="256">
   <properties>
    <property name="Type" value="Wood"/>
   </properties>
  </tile>
  <tile id="257">
   <properties>
    <property name="Type" value="Wood"/>
   </properties>
  </tile>
  <tile id="258">
   <properties>
    <property name="Type" value="Wood"/>
   </properties>
  </tile>
  <tile id="260">
   <properties>
    <property name="Water" value="T"/>
   </properties>
  </tile>
  <tile id="272">
   <properties>
    <property name="Type" value="Wood"/>
   </properties>
  </tile>
  <tile id="273">
   <properties>
    <property name="Type" value="Wood"/>
   </properties>
  </tile>
  <tile id="274">
   <properties>
    <property name="Type" value="Wood"/>
   </properties>
  </tile>
  <tile id="275">
   <properties>
    <property name="Water" value="T"/>
   </properties>
  </tile>
  <tile id="276">
   <properties>
    <property name="Water" value="T"/>
   </properties>
  </tile>
  <tile id="277">
   <properties>
    <property name="Water" value="T"/>
   </properties>
  </tile>
 </tileset>
 <tileset firstgid="3096" name="zz_spring_CR_outdoor" tilewidth="16" tileheight="16" tilecount="870" columns="29">
  <image source="spring_CR_outdoor.png" width="464" height="480"/>
 </tileset>
 <layer id="1" name="Back" width="19" height="16">
  <data encoding="csv">
0,0,0,0,0,0,0,0,0,0,0,0,0,0,0,0,0,0,0,
0,0,0,0,0,0,0,0,0,0,0,0,0,0,0,0,0,0,0,
0,0,0,0,0,0,0,0,0,0,0,0,0,0,0,0,0,0,0,
0,0,0,0,0,0,0,0,3026,3026,3026,0,0,0,0,0,0,0,0,
0,0,0,0,0,0,0,0,3026,3026,3026,0,0,0,0,0,0,0,0,
0,0,3026,3026,3026,3026,3026,3026,3026,3026,3026,3026,3026,3026,3026,3026,3026,0,0,
0,0,3026,3026,2994,3042,3042,3042,3042,3042,3042,3042,3042,2993,3026,3026,3026,0,0,
0,0,3026,3042,3043,2946,2946,2974,2975,2975,2975,2976,2947,3041,3042,2993,3026,0,0,
0,0,2945,2946,2946,2980,2946,2990,2991,2991,2991,2992,2809,2810,2811,3025,3026,0,0,
0,0,2945,2946,3048,3049,3050,2990,2991,2991,2991,2992,2825,2826,2827,3025,3026,0,0,
0,0,2946,2946,3064,3065,3066,2990,2991,2991,2991,2992,2841,2842,2843,3025,3026,0,0,
0,0,2946,2946,3080,3081,3082,3006,3007,3007,3007,3008,2946,2946,2946,3025,3026,0,0,
0,0,2946,2946,2946,2946,2946,2946,2947,2946,2946,2946,2946,2946,2946,3025,3026,0,0,
0,0,2946,2946,2946,2946,2946,2946,2946,2946,2946,2946,2946,2946,2946,3025,3026,0,0,
0,0,2946,2946,2946,2946,2946,2946,2946,2946,2946,2946,2946,2946,2946,3025,3026,0,0,
0,0,0,0,0,0,0,0,0,2946,0,0,0,0,0,0,0,0,0
</data>
 </layer>
 <layer id="11" name="Back2" width="19" height="16">
  <data encoding="csv">
0,0,0,0,0,0,0,0,0,0,0,0,0,0,0,0,0,0,0,
0,0,0,0,0,0,0,0,0,0,0,0,0,0,0,0,0,0,0,
0,0,0,0,0,0,0,0,0,0,0,0,0,0,0,0,0,0,0,
0,0,0,0,0,0,0,0,331,331,331,0,0,0,0,0,0,0,0,
0,0,0,0,0,0,0,0,351,351,351,0,0,0,0,0,0,0,0,
0,0,0,0,0,0,0,0,371,371,371,0,0,0,0,0,0,0,0,
0,0,0,0,0,0,0,0,0,0,0,0,0,0,0,0,0,0,0,
0,0,0,0,0,0,0,0,0,0,0,0,0,0,0,0,0,0,0,
0,0,0,0,149,150,151,0,0,0,0,0,0,0,0,0,0,0,0,
0,0,0,0,0,0,0,0,0,0,0,0,0,0,0,0,0,0,0,
0,0,0,0,0,0,0,0,0,0,0,0,0,0,0,0,0,0,0,
0,0,0,0,0,0,0,0,0,0,0,0,0,0,0,0,0,0,0,
0,0,0,0,0,0,0,0,0,0,0,0,0,0,0,0,0,0,0,
0,0,0,0,0,0,0,0,0,0,0,0,0,0,0,0,0,0,0,
0,0,0,0,0,0,0,0,0,0,0,0,0,0,0,0,0,0,0,
0,0,0,0,0,0,0,0,0,0,0,0,0,0,0,0,0,0,0
</data>
 </layer>
 <layer id="2" name="Buildings" width="19" height="16">
  <data encoding="csv">
0,0,0,0,0,0,0,0,0,0,0,0,0,0,0,0,0,0,0,
0,0,0,0,0,0,0,0,0,0,0,0,0,0,0,0,0,0,0,
0,0,0,2589,2590,2527,2594,2527,65,0,67,2528,2595,2528,2613,2614,0,0,0,
0,0,2588,2605,2606,2543,2610,2543,85,0,87,2544,2611,2544,2629,2630,2631,0,0,
0,0,2604,2621,2622,2559,2626,2559,105,106,107,2560,2627,2560,2645,2646,2647,0,0,
0,0,2620,2637,2638,2575,2642,2575,125,126,127,2576,2643,2576,2661,2662,2663,0,0,
0,0,2636,2653,109,110,111,145,0,0,0,0,658,659,2677,2678,2679,0,0,
0,0,2652,145,129,130,131,0,0,0,0,0,0,0,658,659,2695,0,0,
0,0,2668,0,0,0,0,0,0,0,0,0,0,0,0,0,2711,0,0,
0,0,2684,3345,0,0,0,0,0,0,0,0,0,0,0,0,2727,0,0,
0,0,2716,0,0,0,0,0,0,0,0,0,0,0,0,0,2743,0,0,
0,0,0,2752,0,0,0,0,0,0,0,0,0,0,3345,0,2726,0,0,
0,0,0,2733,0,0,0,0,0,0,0,0,0,0,0,2597,0,0,0,
0,0,0,0,2597,2597,2597,0,0,0,0,0,2597,2597,2597,0,0,0,0,
0,0,0,0,0,0,0,2597,2597,0,2599,2597,2597,0,0,0,0,0,0,
0,0,0,0,0,0,0,0,0,0,0,0,0,0,0,0,0,0,0
</data>
 </layer>
 <layer id="12" name="Buildings2" width="19" height="16">
  <data encoding="csv">
0,0,0,0,0,0,0,0,0,0,0,0,0,0,0,0,0,0,0,
0,0,0,0,0,0,0,0,0,0,0,0,0,0,0,0,0,0,0,
0,0,0,0,0,0,0,0,0,0,0,0,0,0,0,0,0,0,0,
0,0,0,0,0,0,0,0,0,0,0,0,0,0,0,0,0,0,0,
0,0,0,0,0,0,0,0,0,0,0,0,0,0,0,0,0,0,0,
0,0,0,0,0,0,0,0,0,0,0,0,0,0,0,0,0,0,0,
0,0,0,0,0,0,0,0,0,0,0,0,0,0,0,0,0,0,0,
0,0,0,0,0,106,0,0,0,0,0,0,0,0,0,0,0,0,0,
0,0,0,0,0,0,0,0,0,0,0,0,0,0,0,0,0,0,0,
0,0,0,0,0,0,0,0,0,0,0,0,0,0,0,0,0,0,0,
0,0,0,0,0,0,0,0,0,0,0,0,0,0,0,0,0,0,0,
0,0,0,0,0,0,0,0,0,0,0,0,0,0,0,0,0,0,0,
0,0,0,0,0,0,0,0,0,0,0,0,0,0,0,0,0,0,0,
0,0,0,0,0,0,0,0,0,0,0,0,0,0,0,0,0,0,0,
0,0,0,0,0,0,0,0,0,0,0,0,0,0,0,0,0,0,0,
0,0,0,0,0,0,0,0,0,0,0,0,0,0,0,0,0,0,0
</data>
 </layer>
 <layer id="3" name="Paths" width="19" height="16" visible="0">
  <data encoding="csv">
0,0,0,0,0,0,0,0,0,0,0,0,0,0,0,0,0,0,0,
0,0,0,0,0,0,0,0,0,0,0,0,0,0,0,0,0,0,0,
0,0,0,0,0,0,0,0,0,0,0,0,0,0,0,0,0,0,0,
0,0,0,0,0,0,0,0,0,0,0,0,0,0,0,0,0,0,0,
0,0,0,0,0,0,0,0,0,0,0,0,0,0,0,0,0,0,0,
0,0,0,0,0,0,0,0,0,0,0,0,0,0,0,0,0,0,0,
0,0,0,0,0,0,0,0,0,0,0,0,0,0,0,0,0,0,0,
0,0,0,0,0,0,0,0,0,0,0,0,0,0,0,0,0,0,0,
0,0,0,0,0,0,0,0,0,0,0,0,0,0,0,0,0,0,0,
0,0,0,0,0,0,0,0,0,9,0,0,0,0,0,0,0,0,0,
0,0,0,0,0,0,0,0,0,0,0,0,0,0,0,0,0,0,0,
0,0,0,0,0,0,0,0,0,0,0,0,0,0,0,0,0,0,0,
0,0,0,0,0,0,0,0,0,0,0,0,0,0,0,0,0,0,0,
0,0,0,0,0,0,0,0,0,0,0,0,0,0,0,0,0,0,0,
0,0,0,0,0,0,0,0,0,9,0,0,0,0,0,0,0,0,0,
0,0,0,0,0,0,0,0,0,0,0,0,0,0,0,0,0,0,0
</data>
 </layer>
 <layer id="4" name="Front" width="19" height="16">
  <data encoding="csv">
2597,2597,2597,2597,2597,2597,2597,2597,2597,2597,2597,2597,2597,2597,2597,2597,2597,2597,2597,
2597,2597,2597,2597,2597,2597,2597,2597,2597,2597,2597,2597,2597,2597,2597,2597,2597,2597,2597,
2597,2597,2597,0,0,0,0,0,0,66,0,0,0,0,0,0,2597,2597,2597,
2597,2597,0,0,0,0,0,0,0,86,0,0,0,0,0,0,0,2597,2597,
2597,2597,0,0,69,70,71,0,0,0,0,0,0,0,0,0,0,2597,2597,
2597,2597,0,0,89,90,91,0,0,0,0,0,633,634,0,0,0,2597,2597,
2597,2597,0,0,0,0,0,0,0,0,0,0,0,0,633,634,0,2597,2597,
2597,2597,0,0,0,0,0,0,0,0,0,0,0,0,0,0,0,2597,2597,
2597,2597,0,0,0,0,0,0,0,0,0,0,0,0,0,0,0,2597,2597,
2597,2597,0,0,0,0,0,0,0,0,0,0,0,0,0,0,0,2597,2597,
2597,2597,2733,2736,0,0,0,0,0,0,0,0,0,0,0,0,0,2597,2597,
2597,2597,2597,2752,0,0,0,0,0,0,0,0,0,0,0,2725,2726,2597,2597,
2597,2597,2597,2733,2735,2734,2717,0,0,0,0,0,2725,2734,2735,2741,2597,2597,2597,
2597,2597,2597,2597,2597,2597,2733,2734,2717,0,2725,2735,2741,2597,2597,2597,2597,2597,2597,
2597,2597,2597,2597,2597,2597,2597,2597,2716,0,2726,2597,2597,2597,2597,2597,2597,2597,2597,
2597,2597,2597,2597,2597,2597,2597,2597,2599,2599,2599,2597,2597,2597,2597,2597,2597,2597,2597
</data>
 </layer>
 <layer id="9" name="AlwaysFront" width="19" height="16">
  <data encoding="csv">
0,0,0,0,0,0,0,0,0,0,0,0,0,0,0,0,0,0,0,
0,0,0,0,0,0,0,0,0,0,0,0,0,0,0,0,0,0,0,
0,0,0,0,0,0,0,0,0,0,0,0,0,0,0,0,0,0,0,
0,0,0,0,0,0,0,0,0,0,0,0,0,0,0,0,0,0,0,
0,0,0,0,0,0,0,0,0,0,0,0,0,0,0,0,0,0,0,
0,0,0,0,0,0,0,0,0,0,0,0,0,0,0,0,0,0,0,
0,0,0,0,0,0,0,0,0,0,0,0,0,0,0,0,0,0,0,
0,0,0,0,0,0,0,0,0,0,0,0,0,0,0,0,0,0,0,
0,0,0,0,0,0,0,0,0,0,0,0,0,0,0,0,0,0,0,
0,0,0,0,0,0,0,0,0,0,0,0,0,0,0,0,0,0,0,
0,0,0,0,0,0,0,0,0,0,0,0,0,0,0,0,0,0,0,
0,0,0,0,0,0,0,0,0,0,0,0,0,0,0,0,0,0,0,
0,0,0,0,0,0,0,0,0,0,0,0,0,0,0,0,0,0,0,
0,0,0,0,0,0,0,0,0,0,0,0,0,0,0,0,0,0,0,
0,0,0,0,0,0,0,0,0,2735,0,0,0,0,0,0,0,0,0,
0,0,0,0,0,0,0,0,0,0,0,0,0,0,0,0,0,0,0
</data>
 </layer>
 <objectgroup id="5" name="Back">
  <object id="1" name="TileData" x="80" y="128" width="16" height="16">
   <properties>
    <property name="Placeable" value="T"/>
   </properties>
  </object>
 </objectgroup>
 <objectgroup id="6" name="Buildings">
  <object id="3" name="TileData" x="80" y="112" width="16" height="16">
   <properties>
    <property name="Action" value="Message &quot;AdFCms01&quot;"/>
   </properties>
  </object>
  <object id="4" name="TileData" x="64" y="112" width="16" height="16">
   <properties>
    <property name="Action" value="Message &quot;AdFCms01&quot;"/>
   </properties>
  </object>
  <object id="5" name="TileData" x="96" y="112" width="16" height="16">
   <properties>
    <property name="Action" value="Message &quot;AdFCms01&quot;"/>
   </properties>
  </object>
  <object id="6" name="TileData" x="112" y="96" width="16" height="16">
   <properties>
    <property name="Action" value="Message &quot;AdFCms02&quot;"/>
   </properties>
  </object>
  <object id="7" name="TileData" x="48" y="112" width="16" height="16">
   <properties>
    <property name="Action" value="Message &quot;AdFCms02&quot;"/>
   </properties>
  </object>
 </objectgroup>
 <objectgroup id="13" name="Buildings2"/>
 <objectgroup id="7" name="Paths"/>
 <objectgroup id="8" name="Front"/>
 <objectgroup id="10" name="AlwaysFront"/>
</map>
