<?xml version="1.0" encoding="UTF-8"?>
<map version="1.10" tiledversion="1.10.2" orientation="orthogonal" renderorder="right-down" width="19" height="18" tilewidth="16" tileheight="16" infinite="0" nextlayerid="19" nextobjectid="23">
 <properties>
  <property name="AllowGrassSurviveInWinter" value="T"/>
  <property name="Arch" value="116 .005 117 .003 118 .02 126 .0001"/>
  <property name="DayTiles" value="Front 44 31 369 Front 90 35 369"/>
  <property name="Debris" value="8 .025 4 6 .008 4"/>
  <property name="Fall_Objects" value="372 .9 382 .6"/>
  <property name="Fish" value="128 .08 129 .2 130 .1 131 .2 146 .15 147 .2 148 .18 149 .12 150 .2 151 .18 152 .25 154 .15 155 .08 166 .001"/>
  <property name="Light" value="44 33 4 90 35 4 44 32 6 90 36 6"/>
  <property name="NightTiles" value="Front 44 31 368 Front 90 35 368"/>
  <property name="Outdoors" value="T"/>
  <property name="Spring_Objects" value="372 .9"/>
  <property name="Summer_Objects" value="372 .9 394 .5"/>
  <property name="Warp" value="37 -1 Town 58 115 38 -1 Town 58 115 39 -1 Town 58 115 40 -1 Town 58 115"/>
  <property name="Winter_Objects" value="392 .8"/>
 </properties>
 <tileset firstgid="1" name="characters" tilewidth="16" tileheight="16" tilecount="144" columns="8">
  <image source="characterSheet" width="128" height="288"/>
 </tileset>
 <tileset firstgid="145" name="fest" tilewidth="16" tileheight="16" tilecount="1024" columns="32">
  <image source="Festivals" width="512" height="512"/>
  <tile id="239">
   <animation>
    <frame tileid="239" duration="1000"/>
    <frame tileid="240" duration="1000"/>
   </animation>
  </tile>
  <tile id="271">
   <animation>
    <frame tileid="271" duration="1000"/>
    <frame tileid="272" duration="1000"/>
   </animation>
  </tile>
  <tile id="298">
   <animation>
    <frame tileid="298" duration="1000"/>
    <frame tileid="299" duration="1000"/>
   </animation>
  </tile>
 </tileset>
 <tileset firstgid="1169" name="Paths" tilewidth="16" tileheight="16" tilecount="64" columns="4">
  <image source="paths" width="64" height="256"/>
  <tile id="0">
   <properties>
    <property name="PathType" value="NE"/>
   </properties>
  </tile>
  <tile id="1">
   <properties>
    <property name="PathType" value="SE"/>
   </properties>
  </tile>
  <tile id="2">
   <properties>
    <property name="PathType" value="WS"/>
   </properties>
  </tile>
  <tile id="3">
   <properties>
    <property name="PathType" value="WN"/>
   </properties>
  </tile>
  <tile id="4">
   <properties>
    <property name="PathType" value="Crossroad"/>
   </properties>
  </tile>
  <tile id="7">
   <properties>
    <property name="PathType" value="End"/>
   </properties>
  </tile>
 </tileset>
 <tileset firstgid="1233" name="untitled tile sheet" tilewidth="16" tileheight="16" tilecount="527" columns="17">
  <image source="summer_beach" width="272" height="496"/>
  <tile id="7">
   <properties>
    <property name="Water" value="T"/>
   </properties>
  </tile>
  <tile id="8">
   <properties>
    <property name="Water" value="T"/>
   </properties>
  </tile>
  <tile id="18">
   <properties>
    <property name="Diggable" value="T"/>
    <property name="Type" value="Dirt"/>
   </properties>
  </tile>
  <tile id="19">
   <properties>
    <property name="Diggable" value="T"/>
    <property name="Type" value="Dirt"/>
   </properties>
  </tile>
  <tile id="20">
   <properties>
    <property name="Diggable" value="T"/>
    <property name="Type" value="Dirt"/>
   </properties>
  </tile>
  <tile id="21">
   <properties>
    <property name="Type" value="Dirt"/>
   </properties>
  </tile>
  <tile id="22">
   <properties>
    <property name="Diggable" value="T"/>
    <property name="Type" value="Dirt"/>
   </properties>
  </tile>
  <tile id="23">
   <properties>
    <property name="Type" value="Dirt"/>
   </properties>
  </tile>
  <tile id="24">
   <properties>
    <property name="Type" value="Dirt"/>
   </properties>
  </tile>
  <tile id="25">
   <properties>
    <property name="Diggable" value="T"/>
    <property name="Type" value="Dirt"/>
   </properties>
  </tile>
  <tile id="26">
   <properties>
    <property name="Diggable" value="T"/>
    <property name="Type" value="Dirt"/>
   </properties>
  </tile>
  <tile id="41">
   <properties>
    <property name="Diggable" value="T"/>
    <property name="Type" value="Dirt"/>
   </properties>
  </tile>
  <tile id="42">
   <properties>
    <property name="Diggable" value="T"/>
    <property name="Spawnable" value="T"/>
    <property name="Type" value="Dirt"/>
   </properties>
  </tile>
  <tile id="43">
   <properties>
    <property name="Diggable" value="T"/>
   </properties>
  </tile>
  <tile id="51">
   <properties>
    <property name="Type" value="Dirt"/>
   </properties>
  </tile>
  <tile id="52">
   <properties>
    <property name="Type" value="Dirt"/>
   </properties>
  </tile>
  <tile id="53">
   <properties>
    <property name="Type" value="Dirt"/>
   </properties>
  </tile>
  <tile id="54">
   <properties>
    <property name="Type" value="Dirt"/>
   </properties>
  </tile>
  <tile id="56">
   <properties>
    <property name="Type" value="Stone"/>
   </properties>
  </tile>
  <tile id="58">
   <properties>
    <property name="Type" value="Dirt"/>
   </properties>
  </tile>
  <tile id="59">
   <properties>
    <property name="Diggable" value="T"/>
    <property name="Type" value="Dirt"/>
   </properties>
  </tile>
  <tile id="68">
   <properties>
    <property name="Type" value="Dirt"/>
   </properties>
  </tile>
  <tile id="69">
   <properties>
    <property name="Diggable" value="T"/>
    <property name="Type" value="Dirt"/>
   </properties>
  </tile>
  <tile id="70">
   <properties>
    <property name="Diggable" value="T"/>
    <property name="Type" value="Dirt"/>
   </properties>
  </tile>
  <tile id="71">
   <properties>
    <property name="Type" value="Dirt"/>
   </properties>
  </tile>
  <tile id="75">
   <properties>
    <property name="Water" value="T"/>
   </properties>
  </tile>
  <tile id="80">
   <animation>
    <frame tileid="80" duration="800"/>
    <frame tileid="337" duration="800"/>
    <frame tileid="338" duration="800"/>
    <frame tileid="337" duration="800"/>
   </animation>
  </tile>
  <tile id="81">
   <properties>
    <property name="Type" value="Grass"/>
   </properties>
  </tile>
  <tile id="82">
   <properties>
    <property name="Type" value="Grass"/>
   </properties>
  </tile>
  <tile id="85">
   <properties>
    <property name="Type" value="Dirt"/>
   </properties>
  </tile>
  <tile id="86">
   <properties>
    <property name="Diggable" value="T"/>
    <property name="Type" value="Dirt"/>
   </properties>
  </tile>
  <tile id="87">
   <properties>
    <property name="Diggable" value="T"/>
    <property name="Type" value="Dirt"/>
   </properties>
  </tile>
  <tile id="88">
   <properties>
    <property name="Type" value="Dirt"/>
   </properties>
  </tile>
  <tile id="89">
   <properties>
    <property name="Water" value="T"/>
   </properties>
  </tile>
  <tile id="90">
   <properties>
    <property name="Water" value="T"/>
   </properties>
  </tile>
  <tile id="91">
   <properties>
    <property name="Water" value="T"/>
   </properties>
  </tile>
  <tile id="92">
   <properties>
    <property name="Water" value="T"/>
   </properties>
  </tile>
  <tile id="93">
   <properties>
    <property name="Water" value="T"/>
   </properties>
  </tile>
  <tile id="100">
   <properties>
    <property name="Type" value="Grass"/>
   </properties>
  </tile>
  <tile id="101">
   <properties>
    <property name="Type" value="Grass"/>
   </properties>
  </tile>
  <tile id="107">
   <properties>
    <property name="Type" value="Dirt"/>
    <property name="Water" value="T"/>
   </properties>
  </tile>
  <tile id="108">
   <properties>
    <property name="Water" value="T"/>
   </properties>
  </tile>
  <tile id="109">
   <properties>
    <property name="Water" value="T"/>
   </properties>
  </tile>
  <tile id="110">
   <properties>
    <property name="Water" value="T"/>
   </properties>
  </tile>
  <tile id="111">
   <properties>
    <property name="Type" value="Stone"/>
   </properties>
  </tile>
  <tile id="112">
   <properties>
    <property name="Type" value="Stone"/>
   </properties>
  </tile>
  <tile id="113">
   <properties>
    <property name="Type" value="Stone"/>
   </properties>
  </tile>
  <tile id="117">
   <properties>
    <property name="Type" value="Grass"/>
   </properties>
  </tile>
  <tile id="118">
   <properties>
    <property name="Type" value="Grass"/>
   </properties>
  </tile>
  <tile id="124">
   <properties>
    <property name="Water" value="T"/>
   </properties>
  </tile>
  <tile id="125">
   <properties>
    <property name="Water" value="T"/>
   </properties>
  </tile>
  <tile id="126">
   <properties>
    <property name="Water" value="T"/>
   </properties>
  </tile>
  <tile id="127">
   <properties>
    <property name="Water" value="T"/>
   </properties>
  </tile>
  <tile id="128">
   <properties>
    <property name="Passable" value="T"/>
    <property name="Type" value="Dirt"/>
   </properties>
  </tile>
  <tile id="129">
   <properties>
    <property name="Water" value="T"/>
   </properties>
  </tile>
  <tile id="130">
   <properties>
    <property name="Water" value="T"/>
   </properties>
  </tile>
  <tile id="131">
   <properties>
    <property name="Passable" value="F"/>
    <property name="Water" value="T"/>
   </properties>
  </tile>
  <tile id="141">
   <properties>
    <property name="Passable" value="T"/>
    <property name="Type" value="Dirt"/>
   </properties>
   <animation>
    <frame tileid="141" duration="250"/>
    <frame tileid="142" duration="250"/>
    <frame tileid="143" duration="250"/>
    <frame tileid="144" duration="250"/>
    <frame tileid="144" duration="250"/>
    <frame tileid="145" duration="250"/>
    <frame tileid="146" duration="250"/>
    <frame tileid="147" duration="250"/>
    <frame tileid="141" duration="250"/>
    <frame tileid="141" duration="250"/>
    <frame tileid="141" duration="250"/>
   </animation>
  </tile>
  <tile id="142">
   <properties>
    <property name="Passable" value="T"/>
    <property name="Type" value="Dirt"/>
   </properties>
  </tile>
  <tile id="143">
   <properties>
    <property name="Passable" value="T"/>
    <property name="Type" value="Dirt"/>
   </properties>
  </tile>
  <tile id="144">
   <properties>
    <property name="Passable" value="T"/>
    <property name="Type" value="Dirt"/>
   </properties>
  </tile>
  <tile id="145">
   <properties>
    <property name="Passable" value="T"/>
    <property name="Type" value="Dirt"/>
   </properties>
  </tile>
  <tile id="146">
   <properties>
    <property name="Passable" value="T"/>
    <property name="Type" value="Dirt"/>
   </properties>
  </tile>
  <tile id="147">
   <properties>
    <property name="Passable" value="T"/>
    <property name="Type" value="Dirt"/>
   </properties>
  </tile>
  <tile id="148">
   <properties>
    <property name="Water" value="T"/>
   </properties>
  </tile>
  <tile id="158">
   <properties>
    <property name="Passable" value="T"/>
    <property name="Type" value="Dirt"/>
   </properties>
   <animation>
    <frame tileid="158" duration="250"/>
    <frame tileid="159" duration="250"/>
    <frame tileid="160" duration="250"/>
    <frame tileid="161" duration="250"/>
    <frame tileid="161" duration="250"/>
    <frame tileid="162" duration="250"/>
    <frame tileid="163" duration="250"/>
    <frame tileid="164" duration="250"/>
    <frame tileid="158" duration="250"/>
    <frame tileid="158" duration="250"/>
    <frame tileid="158" duration="250"/>
   </animation>
  </tile>
  <tile id="159">
   <properties>
    <property name="Passable" value="T"/>
    <property name="Type" value="Dirt"/>
   </properties>
  </tile>
  <tile id="160">
   <properties>
    <property name="Passable" value="T"/>
    <property name="Type" value="Dirt"/>
   </properties>
  </tile>
  <tile id="161">
   <properties>
    <property name="Passable" value="T"/>
    <property name="Type" value="Dirt"/>
   </properties>
  </tile>
  <tile id="162">
   <properties>
    <property name="Passable" value="T"/>
    <property name="Type" value="Dirt"/>
   </properties>
  </tile>
  <tile id="163">
   <properties>
    <property name="Passable" value="T"/>
    <property name="Type" value="Dirt"/>
   </properties>
  </tile>
  <tile id="164">
   <properties>
    <property name="Passable" value="T"/>
    <property name="Type" value="Dirt"/>
   </properties>
  </tile>
  <tile id="165">
   <properties>
    <property name="Passable" value="F"/>
    <property name="Water" value="T"/>
   </properties>
  </tile>
  <tile id="175">
   <properties>
    <property name="Passable" value="T"/>
    <property name="Type" value="Dirt"/>
   </properties>
   <animation>
    <frame tileid="175" duration="250"/>
    <frame tileid="176" duration="250"/>
    <frame tileid="177" duration="250"/>
    <frame tileid="178" duration="250"/>
    <frame tileid="178" duration="250"/>
    <frame tileid="179" duration="250"/>
    <frame tileid="180" duration="250"/>
    <frame tileid="181" duration="250"/>
    <frame tileid="175" duration="250"/>
    <frame tileid="175" duration="250"/>
    <frame tileid="175" duration="250"/>
   </animation>
  </tile>
  <tile id="176">
   <properties>
    <property name="Passable" value="T"/>
    <property name="Type" value="Dirt"/>
   </properties>
  </tile>
  <tile id="177">
   <properties>
    <property name="Passable" value="T"/>
    <property name="Type" value="Dirt"/>
   </properties>
  </tile>
  <tile id="178">
   <properties>
    <property name="Passable" value="T"/>
    <property name="Type" value="Dirt"/>
   </properties>
  </tile>
  <tile id="179">
   <properties>
    <property name="Passable" value="T"/>
    <property name="Type" value="Dirt"/>
   </properties>
  </tile>
  <tile id="180">
   <properties>
    <property name="Passable" value="T"/>
    <property name="Type" value="Dirt"/>
   </properties>
  </tile>
  <tile id="181">
   <properties>
    <property name="Passable" value="T"/>
    <property name="Type" value="Dirt"/>
   </properties>
  </tile>
  <tile id="185">
   <properties>
    <property name="Water" value="T"/>
   </properties>
  </tile>
  <tile id="192">
   <properties>
    <property name="Passable" value="T"/>
    <property name="Type" value="Dirt"/>
   </properties>
   <animation>
    <frame tileid="192" duration="250"/>
    <frame tileid="193" duration="250"/>
    <frame tileid="194" duration="250"/>
    <frame tileid="195" duration="250"/>
    <frame tileid="195" duration="250"/>
    <frame tileid="196" duration="250"/>
    <frame tileid="197" duration="250"/>
    <frame tileid="198" duration="250"/>
    <frame tileid="192" duration="250"/>
    <frame tileid="192" duration="250"/>
    <frame tileid="192" duration="250"/>
   </animation>
  </tile>
  <tile id="193">
   <properties>
    <property name="Passable" value="T"/>
    <property name="Type" value="Dirt"/>
   </properties>
  </tile>
  <tile id="194">
   <properties>
    <property name="Passable" value="T"/>
    <property name="Type" value="Dirt"/>
   </properties>
  </tile>
  <tile id="195">
   <properties>
    <property name="Passable" value="T"/>
    <property name="Type" value="Dirt"/>
   </properties>
  </tile>
  <tile id="196">
   <properties>
    <property name="Passable" value="T"/>
    <property name="Type" value="Dirt"/>
   </properties>
  </tile>
  <tile id="197">
   <properties>
    <property name="Passable" value="T"/>
    <property name="Type" value="Dirt"/>
   </properties>
  </tile>
  <tile id="198">
   <properties>
    <property name="Passable" value="T"/>
    <property name="Type" value="Dirt"/>
   </properties>
  </tile>
  <tile id="202">
   <properties>
    <property name="Diggable" value="T"/>
   </properties>
  </tile>
  <tile id="203">
   <properties>
    <property name="Water" value="T"/>
   </properties>
  </tile>
  <tile id="209">
   <properties>
    <property name="Passable" value="T"/>
    <property name="Type" value="Dirt"/>
   </properties>
   <animation>
    <frame tileid="209" duration="250"/>
    <frame tileid="210" duration="250"/>
    <frame tileid="211" duration="250"/>
    <frame tileid="212" duration="250"/>
    <frame tileid="212" duration="250"/>
    <frame tileid="213" duration="250"/>
    <frame tileid="214" duration="250"/>
    <frame tileid="215" duration="250"/>
    <frame tileid="209" duration="250"/>
    <frame tileid="209" duration="250"/>
    <frame tileid="209" duration="250"/>
   </animation>
  </tile>
  <tile id="210">
   <properties>
    <property name="Passable" value="T"/>
    <property name="Type" value="Dirt"/>
   </properties>
  </tile>
  <tile id="211">
   <properties>
    <property name="Passable" value="T"/>
    <property name="Type" value="Dirt"/>
   </properties>
  </tile>
  <tile id="212">
   <properties>
    <property name="Passable" value="T"/>
    <property name="Type" value="Dirt"/>
   </properties>
  </tile>
  <tile id="213">
   <properties>
    <property name="Passable" value="T"/>
    <property name="Type" value="Dirt"/>
   </properties>
  </tile>
  <tile id="214">
   <properties>
    <property name="Passable" value="T"/>
    <property name="Type" value="Dirt"/>
   </properties>
  </tile>
  <tile id="215">
   <properties>
    <property name="Passable" value="T"/>
    <property name="Type" value="Dirt"/>
   </properties>
  </tile>
  <tile id="216">
   <animation>
    <frame tileid="216" duration="1000"/>
    <frame tileid="267" duration="1000"/>
   </animation>
  </tile>
  <tile id="217">
   <animation>
    <frame tileid="217" duration="1000"/>
    <frame tileid="268" duration="1000"/>
   </animation>
  </tile>
  <tile id="218">
   <animation>
    <frame tileid="218" duration="1000"/>
    <frame tileid="269" duration="1000"/>
   </animation>
  </tile>
  <tile id="226">
   <properties>
    <property name="Passable" value="T"/>
    <property name="Type" value="Dirt"/>
   </properties>
   <animation>
    <frame tileid="226" duration="250"/>
    <frame tileid="227" duration="250"/>
    <frame tileid="228" duration="250"/>
    <frame tileid="229" duration="250"/>
    <frame tileid="229" duration="250"/>
    <frame tileid="230" duration="250"/>
    <frame tileid="231" duration="250"/>
    <frame tileid="232" duration="250"/>
    <frame tileid="226" duration="250"/>
    <frame tileid="226" duration="250"/>
    <frame tileid="226" duration="250"/>
   </animation>
  </tile>
  <tile id="227">
   <properties>
    <property name="Passable" value="T"/>
    <property name="Type" value="Dirt"/>
   </properties>
  </tile>
  <tile id="228">
   <properties>
    <property name="Passable" value="T"/>
    <property name="Type" value="Dirt"/>
   </properties>
  </tile>
  <tile id="229">
   <properties>
    <property name="Passable" value="T"/>
    <property name="Type" value="Dirt"/>
   </properties>
  </tile>
  <tile id="230">
   <properties>
    <property name="Passable" value="T"/>
    <property name="Type" value="Dirt"/>
   </properties>
  </tile>
  <tile id="231">
   <properties>
    <property name="Passable" value="T"/>
    <property name="Type" value="Dirt"/>
   </properties>
  </tile>
  <tile id="232">
   <properties>
    <property name="Passable" value="T"/>
    <property name="Type" value="Dirt"/>
   </properties>
  </tile>
  <tile id="233">
   <properties>
    <property name="Water" value="T"/>
   </properties>
  </tile>
  <tile id="234">
   <properties>
    <property name="Water" value="T"/>
   </properties>
  </tile>
  <tile id="235">
   <properties>
    <property name="Water" value="T"/>
   </properties>
  </tile>
  <tile id="243">
   <properties>
    <property name="Passable" value="T"/>
    <property name="Type" value="Dirt"/>
   </properties>
   <animation>
    <frame tileid="243" duration="250"/>
    <frame tileid="244" duration="250"/>
    <frame tileid="245" duration="250"/>
    <frame tileid="246" duration="250"/>
    <frame tileid="246" duration="250"/>
    <frame tileid="247" duration="250"/>
    <frame tileid="248" duration="250"/>
    <frame tileid="249" duration="250"/>
    <frame tileid="243" duration="250"/>
    <frame tileid="243" duration="250"/>
    <frame tileid="243" duration="250"/>
   </animation>
  </tile>
  <tile id="244">
   <properties>
    <property name="Passable" value="T"/>
    <property name="Type" value="Dirt"/>
   </properties>
  </tile>
  <tile id="245">
   <properties>
    <property name="Passable" value="T"/>
    <property name="Type" value="Dirt"/>
   </properties>
  </tile>
  <tile id="246">
   <properties>
    <property name="Passable" value="T"/>
    <property name="Type" value="Dirt"/>
   </properties>
  </tile>
  <tile id="247">
   <properties>
    <property name="Passable" value="T"/>
    <property name="Type" value="Dirt"/>
   </properties>
  </tile>
  <tile id="248">
   <properties>
    <property name="Passable" value="T"/>
    <property name="Type" value="Dirt"/>
   </properties>
  </tile>
  <tile id="249">
   <properties>
    <property name="Passable" value="T"/>
    <property name="Type" value="Dirt"/>
   </properties>
  </tile>
  <tile id="250">
   <properties>
    <property name="Water" value="T"/>
   </properties>
  </tile>
  <tile id="251">
   <properties>
    <property name="Water" value="T"/>
   </properties>
  </tile>
  <tile id="252">
   <properties>
    <property name="Water" value="T"/>
   </properties>
  </tile>
  <tile id="260">
   <properties>
    <property name="Passable" value="T"/>
    <property name="Type" value="Dirt"/>
   </properties>
   <animation>
    <frame tileid="260" duration="250"/>
    <frame tileid="261" duration="250"/>
    <frame tileid="262" duration="250"/>
    <frame tileid="263" duration="250"/>
    <frame tileid="263" duration="250"/>
    <frame tileid="264" duration="250"/>
    <frame tileid="265" duration="250"/>
    <frame tileid="266" duration="250"/>
    <frame tileid="260" duration="250"/>
    <frame tileid="260" duration="250"/>
    <frame tileid="260" duration="250"/>
   </animation>
  </tile>
  <tile id="261">
   <properties>
    <property name="Passable" value="T"/>
    <property name="Type" value="Dirt"/>
   </properties>
  </tile>
  <tile id="262">
   <properties>
    <property name="Passable" value="T"/>
    <property name="Type" value="Dirt"/>
   </properties>
  </tile>
  <tile id="263">
   <properties>
    <property name="Passable" value="T"/>
    <property name="Type" value="Dirt"/>
   </properties>
  </tile>
  <tile id="264">
   <properties>
    <property name="Passable" value="T"/>
    <property name="Type" value="Dirt"/>
   </properties>
  </tile>
  <tile id="265">
   <properties>
    <property name="Passable" value="T"/>
    <property name="Type" value="Dirt"/>
   </properties>
  </tile>
  <tile id="266">
   <properties>
    <property name="Passable" value="T"/>
    <property name="Type" value="Dirt"/>
   </properties>
  </tile>
  <tile id="277">
   <properties>
    <property name="Type" value="Wood"/>
   </properties>
  </tile>
  <tile id="278">
   <properties>
    <property name="Type" value="Wood"/>
   </properties>
  </tile>
  <tile id="279">
   <properties>
    <property name="Type" value="Wood"/>
   </properties>
  </tile>
  <tile id="280">
   <properties>
    <property name="Type" value="Dirt"/>
   </properties>
  </tile>
  <tile id="297">
   <properties>
    <property name="Type" value="Wood"/>
   </properties>
  </tile>
  <tile id="298">
   <properties>
    <property name="Type" value="Wood"/>
   </properties>
  </tile>
  <tile id="299">
   <properties>
    <property name="Type" value="Wood"/>
   </properties>
  </tile>
  <tile id="300">
   <properties>
    <property name="Type" value="Wood"/>
   </properties>
  </tile>
  <tile id="301">
   <properties>
    <property name="Passable" value="T"/>
    <property name="Type" value="Wood"/>
   </properties>
  </tile>
  <tile id="302">
   <properties>
    <property name="Type" value="Wood"/>
   </properties>
  </tile>
  <tile id="334">
   <properties>
    <property name="Water" value="T"/>
   </properties>
  </tile>
  <tile id="335">
   <properties>
    <property name="Water" value="T"/>
   </properties>
  </tile>
  <tile id="336">
   <properties>
    <property name="Water" value="T"/>
   </properties>
  </tile>
  <tile id="339">
   <properties>
    <property name="Passable" value="F"/>
    <property name="Water" value="T"/>
   </properties>
  </tile>
  <tile id="373">
   <properties>
    <property name="Water" value="T"/>
   </properties>
  </tile>
  <tile id="419">
   <properties>
    <property name="Type" value="Wood"/>
   </properties>
  </tile>
  <tile id="420">
   <properties>
    <property name="Type" value="Wood"/>
   </properties>
  </tile>
  <tile id="421">
   <properties>
    <property name="Type" value="Wood"/>
   </properties>
  </tile>
  <tile id="423">
   <properties>
    <property name="Water" value="T"/>
   </properties>
  </tile>
  <tile id="424">
   <properties>
    <property name="Water" value="T"/>
   </properties>
  </tile>
  <tile id="435">
   <properties>
    <property name="Type" value="Wood"/>
   </properties>
  </tile>
  <tile id="440">
   <properties>
    <property name="Water" value="T"/>
   </properties>
  </tile>
  <tile id="441">
   <properties>
    <property name="Water" value="T"/>
   </properties>
  </tile>
  <tile id="453">
   <properties>
    <property name="Type" value="Wood"/>
   </properties>
  </tile>
  <tile id="454">
   <properties>
    <property name="Type" value="Wood"/>
   </properties>
  </tile>
  <tile id="455">
   <properties>
    <property name="Type" value="Wood"/>
   </properties>
  </tile>
  <tile id="458">
   <properties>
    <property name="Water" value="T"/>
   </properties>
  </tile>
  <tile id="470">
   <properties>
    <property name="Type" value="Wood"/>
   </properties>
  </tile>
  <tile id="471">
   <properties>
    <property name="Type" value="Wood"/>
   </properties>
  </tile>
  <tile id="472">
   <properties>
    <property name="Type" value="Wood"/>
   </properties>
  </tile>
  <tile id="475">
   <properties>
    <property name="Water" value="T"/>
   </properties>
  </tile>
  <tile id="487">
   <properties>
    <property name="Type" value="Wood"/>
   </properties>
  </tile>
  <tile id="488">
   <properties>
    <property name="Type" value="Wood"/>
   </properties>
  </tile>
  <tile id="489">
   <properties>
    <property name="Type" value="Wood"/>
   </properties>
  </tile>
  <tile id="491">
   <properties>
    <property name="Type" value="Wood"/>
   </properties>
  </tile>
  <tile id="504">
   <properties>
    <property name="Type" value="Wood"/>
   </properties>
  </tile>
  <tile id="505">
   <properties>
    <property name="Type" value="Wood"/>
   </properties>
  </tile>
  <tile id="506">
   <properties>
    <property name="Type" value="Wood"/>
   </properties>
  </tile>
  <tile id="508">
   <properties>
    <property name="Type" value="Wood"/>
   </properties>
  </tile>
 </tileset>
 <tileset firstgid="1760" name="z_ESBoat" tilewidth="16" tileheight="16" tilecount="2322" columns="43">
  <image source="z_ESBoat.png" width="688" height="867"/>
  <tile id="1712">
   <animation>
    <frame tileid="1712" duration="1000"/>
    <frame tileid="1714" duration="1000"/>
   </animation>
  </tile>
  <tile id="1713">
   <animation>
    <frame tileid="1713" duration="1000"/>
    <frame tileid="1715" duration="1000"/>
   </animation>
  </tile>
  <tile id="1755">
   <animation>
    <frame tileid="1755" duration="1000"/>
    <frame tileid="1757" duration="1000"/>
   </animation>
  </tile>
  <tile id="1756">
   <animation>
    <frame tileid="1756" duration="1000"/>
    <frame tileid="1758" duration="1000"/>
   </animation>
  </tile>
  <tile id="1798">
   <animation>
    <frame tileid="1798" duration="1000"/>
    <frame tileid="1800" duration="1000"/>
   </animation>
  </tile>
  <tile id="1799">
   <animation>
    <frame tileid="1799" duration="1000"/>
    <frame tileid="1801" duration="1000"/>
   </animation>
  </tile>
  <tile id="1806">
   <animation>
    <frame tileid="1806" duration="150"/>
    <frame tileid="1811" duration="150"/>
    <frame tileid="1816" duration="150"/>
    <frame tileid="1821" duration="150"/>
    <frame tileid="1826" duration="150"/>
    <frame tileid="1831" duration="150"/>
    <frame tileid="1836" duration="150"/>
   </animation>
  </tile>
  <tile id="1807">
   <animation>
    <frame tileid="1807" duration="150"/>
    <frame tileid="1812" duration="150"/>
    <frame tileid="1817" duration="150"/>
    <frame tileid="1822" duration="150"/>
    <frame tileid="1827" duration="150"/>
    <frame tileid="1832" duration="150"/>
    <frame tileid="1837" duration="150"/>
   </animation>
  </tile>
  <tile id="1808">
   <animation>
    <frame tileid="1808" duration="150"/>
    <frame tileid="1813" duration="150"/>
    <frame tileid="1818" duration="150"/>
    <frame tileid="1823" duration="150"/>
    <frame tileid="1828" duration="150"/>
    <frame tileid="1833" duration="150"/>
    <frame tileid="1838" duration="150"/>
   </animation>
  </tile>
  <tile id="1809">
   <animation>
    <frame tileid="1809" duration="150"/>
    <frame tileid="1814" duration="150"/>
    <frame tileid="1819" duration="150"/>
    <frame tileid="1824" duration="150"/>
    <frame tileid="1829" duration="150"/>
    <frame tileid="1834" duration="150"/>
    <frame tileid="1839" duration="150"/>
   </animation>
  </tile>
  <tile id="1810">
   <animation>
    <frame tileid="1810" duration="150"/>
    <frame tileid="1815" duration="150"/>
    <frame tileid="1820" duration="150"/>
    <frame tileid="1825" duration="150"/>
    <frame tileid="1830" duration="150"/>
    <frame tileid="1835" duration="150"/>
    <frame tileid="1840" duration="150"/>
   </animation>
  </tile>
  <tile id="1841">
   <animation>
    <frame tileid="1841" duration="1000"/>
    <frame tileid="1843" duration="1000"/>
   </animation>
  </tile>
  <tile id="1842">
   <animation>
    <frame tileid="1842" duration="1000"/>
    <frame tileid="1844" duration="1000"/>
   </animation>
  </tile>
  <tile id="1849">
   <animation>
    <frame tileid="1849" duration="150"/>
    <frame tileid="1854" duration="150"/>
    <frame tileid="1859" duration="150"/>
    <frame tileid="1864" duration="150"/>
    <frame tileid="1869" duration="150"/>
    <frame tileid="1874" duration="150"/>
    <frame tileid="1879" duration="150"/>
   </animation>
  </tile>
  <tile id="1850">
   <animation>
    <frame tileid="1850" duration="150"/>
    <frame tileid="1855" duration="150"/>
    <frame tileid="1860" duration="150"/>
    <frame tileid="1865" duration="150"/>
    <frame tileid="1870" duration="150"/>
    <frame tileid="1875" duration="150"/>
    <frame tileid="1880" duration="150"/>
   </animation>
  </tile>
  <tile id="1851">
   <animation>
    <frame tileid="1851" duration="150"/>
    <frame tileid="1856" duration="150"/>
    <frame tileid="1861" duration="150"/>
    <frame tileid="1866" duration="150"/>
    <frame tileid="1871" duration="150"/>
    <frame tileid="1876" duration="150"/>
    <frame tileid="1881" duration="150"/>
   </animation>
  </tile>
  <tile id="1852">
   <animation>
    <frame tileid="1852" duration="150"/>
    <frame tileid="1857" duration="150"/>
    <frame tileid="1862" duration="150"/>
    <frame tileid="1867" duration="150"/>
    <frame tileid="1872" duration="150"/>
    <frame tileid="1877" duration="150"/>
    <frame tileid="1882" duration="150"/>
   </animation>
  </tile>
  <tile id="1853">
   <animation>
    <frame tileid="1853" duration="150"/>
    <frame tileid="1858" duration="150"/>
    <frame tileid="1863" duration="150"/>
    <frame tileid="1868" duration="150"/>
    <frame tileid="1873" duration="150"/>
    <frame tileid="1878" duration="150"/>
    <frame tileid="1883" duration="150"/>
   </animation>
  </tile>
  <tile id="1884">
   <animation>
    <frame tileid="1884" duration="1000"/>
    <frame tileid="1886" duration="1000"/>
   </animation>
  </tile>
  <tile id="1885">
   <animation>
    <frame tileid="1885" duration="1000"/>
    <frame tileid="1887" duration="1000"/>
   </animation>
  </tile>
  <tile id="1927">
   <animation>
    <frame tileid="1927" duration="1000"/>
    <frame tileid="1929" duration="1000"/>
   </animation>
  </tile>
  <tile id="1928">
   <animation>
    <frame tileid="1928" duration="1000"/>
    <frame tileid="1930" duration="1000"/>
   </animation>
  </tile>
  <tile id="1978">
   <animation>
    <frame tileid="1978" duration="1000"/>
    <frame tileid="1998" duration="1000"/>
   </animation>
  </tile>
  <tile id="1979">
   <animation>
    <frame tileid="1979" duration="1000"/>
    <frame tileid="1999" duration="1000"/>
   </animation>
  </tile>
  <tile id="1980">
   <animation>
    <frame tileid="1980" duration="1000"/>
    <frame tileid="2000" duration="1000"/>
   </animation>
  </tile>
  <tile id="1981">
   <animation>
    <frame tileid="1981" duration="1000"/>
    <frame tileid="2001" duration="1000"/>
   </animation>
  </tile>
  <tile id="1982">
   <animation>
    <frame tileid="1982" duration="1000"/>
    <frame tileid="2002" duration="1000"/>
   </animation>
  </tile>
  <tile id="1983">
   <animation>
    <frame tileid="1983" duration="1000"/>
    <frame tileid="2003" duration="1000"/>
   </animation>
  </tile>
  <tile id="1984">
   <animation>
    <frame tileid="1984" duration="1000"/>
    <frame tileid="2004" duration="1000"/>
   </animation>
  </tile>
  <tile id="1985">
   <animation>
    <frame tileid="1985" duration="1000"/>
    <frame tileid="2005" duration="1000"/>
   </animation>
  </tile>
  <tile id="1986">
   <animation>
    <frame tileid="1986" duration="1000"/>
    <frame tileid="2006" duration="1000"/>
   </animation>
  </tile>
  <tile id="1987">
   <animation>
    <frame tileid="1987" duration="1000"/>
    <frame tileid="2007" duration="1000"/>
   </animation>
  </tile>
  <tile id="1988">
   <animation>
    <frame tileid="1988" duration="1000"/>
    <frame tileid="2008" duration="1000"/>
   </animation>
  </tile>
  <tile id="1989">
   <animation>
    <frame tileid="1989" duration="1000"/>
    <frame tileid="2009" duration="1000"/>
   </animation>
  </tile>
  <tile id="1990">
   <animation>
    <frame tileid="1990" duration="1000"/>
    <frame tileid="2010" duration="1000"/>
   </animation>
  </tile>
  <tile id="1991">
   <animation>
    <frame tileid="1991" duration="1000"/>
    <frame tileid="2011" duration="1000"/>
   </animation>
  </tile>
  <tile id="1992">
   <animation>
    <frame tileid="1992" duration="1000"/>
    <frame tileid="2012" duration="1000"/>
   </animation>
  </tile>
  <tile id="1993">
   <animation>
    <frame tileid="1993" duration="1000"/>
    <frame tileid="2013" duration="1000"/>
   </animation>
  </tile>
  <tile id="1994">
   <animation>
    <frame tileid="1994" duration="1000"/>
    <frame tileid="2014" duration="1000"/>
   </animation>
  </tile>
  <tile id="1995">
   <animation>
    <frame tileid="1995" duration="1000"/>
    <frame tileid="2015" duration="1000"/>
   </animation>
  </tile>
  <tile id="1996">
   <animation>
    <frame tileid="1996" duration="1000"/>
    <frame tileid="2016" duration="1000"/>
   </animation>
  </tile>
  <tile id="1997">
   <animation>
    <frame tileid="1997" duration="1000"/>
    <frame tileid="2017" duration="1000"/>
   </animation>
  </tile>
  <tile id="2021">
   <animation>
    <frame tileid="2021" duration="1000"/>
    <frame tileid="2041" duration="1000"/>
   </animation>
  </tile>
  <tile id="2022">
   <animation>
    <frame tileid="2022" duration="1000"/>
    <frame tileid="2042" duration="1000"/>
   </animation>
  </tile>
  <tile id="2023">
   <animation>
    <frame tileid="2023" duration="1000"/>
    <frame tileid="2043" duration="1000"/>
   </animation>
  </tile>
  <tile id="2024">
   <animation>
    <frame tileid="2024" duration="1000"/>
    <frame tileid="2044" duration="1000"/>
   </animation>
  </tile>
  <tile id="2025">
   <animation>
    <frame tileid="2025" duration="1000"/>
    <frame tileid="2045" duration="1000"/>
   </animation>
  </tile>
  <tile id="2026">
   <animation>
    <frame tileid="2026" duration="1000"/>
    <frame tileid="2046" duration="1000"/>
   </animation>
  </tile>
  <tile id="2027">
   <animation>
    <frame tileid="2027" duration="1000"/>
    <frame tileid="2047" duration="1000"/>
   </animation>
  </tile>
  <tile id="2028">
   <animation>
    <frame tileid="2028" duration="1000"/>
    <frame tileid="2048" duration="1000"/>
   </animation>
  </tile>
  <tile id="2029">
   <animation>
    <frame tileid="2029" duration="1000"/>
    <frame tileid="2049" duration="1000"/>
   </animation>
  </tile>
  <tile id="2030">
   <animation>
    <frame tileid="2030" duration="1000"/>
    <frame tileid="2050" duration="1000"/>
   </animation>
  </tile>
  <tile id="2031">
   <animation>
    <frame tileid="2031" duration="1000"/>
    <frame tileid="2051" duration="1000"/>
   </animation>
  </tile>
  <tile id="2032">
   <animation>
    <frame tileid="2032" duration="1000"/>
    <frame tileid="2052" duration="1000"/>
   </animation>
  </tile>
  <tile id="2033">
   <animation>
    <frame tileid="2033" duration="1000"/>
    <frame tileid="2053" duration="1000"/>
   </animation>
  </tile>
  <tile id="2034">
   <animation>
    <frame tileid="2034" duration="1000"/>
    <frame tileid="2054" duration="1000"/>
   </animation>
  </tile>
  <tile id="2035">
   <animation>
    <frame tileid="2035" duration="1000"/>
    <frame tileid="2055" duration="1000"/>
   </animation>
  </tile>
  <tile id="2036">
   <animation>
    <frame tileid="2036" duration="1000"/>
    <frame tileid="2056" duration="1000"/>
   </animation>
  </tile>
  <tile id="2037">
   <animation>
    <frame tileid="2037" duration="1000"/>
    <frame tileid="2057" duration="1000"/>
   </animation>
  </tile>
  <tile id="2038">
   <animation>
    <frame tileid="2038" duration="1000"/>
    <frame tileid="2058" duration="1000"/>
   </animation>
  </tile>
  <tile id="2039">
   <animation>
    <frame tileid="2039" duration="1000"/>
    <frame tileid="2059" duration="1000"/>
   </animation>
  </tile>
  <tile id="2040">
   <animation>
    <frame tileid="2040" duration="1000"/>
    <frame tileid="2060" duration="1000"/>
   </animation>
  </tile>
  <tile id="2064">
   <animation>
    <frame tileid="2064" duration="1000"/>
    <frame tileid="2084" duration="1000"/>
   </animation>
  </tile>
  <tile id="2065">
   <animation>
    <frame tileid="2065" duration="1000"/>
    <frame tileid="2085" duration="1000"/>
   </animation>
  </tile>
  <tile id="2066">
   <animation>
    <frame tileid="2066" duration="1000"/>
    <frame tileid="2086" duration="1000"/>
   </animation>
  </tile>
  <tile id="2067">
   <animation>
    <frame tileid="2067" duration="1000"/>
    <frame tileid="2087" duration="1000"/>
   </animation>
  </tile>
  <tile id="2068">
   <animation>
    <frame tileid="2068" duration="1000"/>
    <frame tileid="2088" duration="1000"/>
   </animation>
  </tile>
  <tile id="2069">
   <animation>
    <frame tileid="2069" duration="1000"/>
    <frame tileid="2089" duration="1000"/>
   </animation>
  </tile>
  <tile id="2070">
   <animation>
    <frame tileid="2070" duration="1000"/>
    <frame tileid="2090" duration="1000"/>
   </animation>
  </tile>
  <tile id="2071">
   <animation>
    <frame tileid="2071" duration="1000"/>
    <frame tileid="2091" duration="1000"/>
   </animation>
  </tile>
  <tile id="2072">
   <animation>
    <frame tileid="2072" duration="1000"/>
    <frame tileid="2092" duration="1000"/>
   </animation>
  </tile>
  <tile id="2073">
   <animation>
    <frame tileid="2073" duration="1000"/>
    <frame tileid="2093" duration="1000"/>
   </animation>
  </tile>
  <tile id="2074">
   <animation>
    <frame tileid="2074" duration="1000"/>
    <frame tileid="2094" duration="1000"/>
   </animation>
  </tile>
  <tile id="2075">
   <animation>
    <frame tileid="2075" duration="1000"/>
    <frame tileid="2095" duration="1000"/>
   </animation>
  </tile>
  <tile id="2076">
   <animation>
    <frame tileid="2076" duration="1000"/>
    <frame tileid="2096" duration="1000"/>
   </animation>
  </tile>
  <tile id="2077">
   <animation>
    <frame tileid="2077" duration="1000"/>
    <frame tileid="2097" duration="1000"/>
   </animation>
  </tile>
  <tile id="2078">
   <animation>
    <frame tileid="2078" duration="1000"/>
    <frame tileid="2098" duration="1000"/>
   </animation>
  </tile>
  <tile id="2079">
   <animation>
    <frame tileid="2079" duration="1000"/>
    <frame tileid="2099" duration="1000"/>
   </animation>
  </tile>
  <tile id="2080">
   <animation>
    <frame tileid="2080" duration="1000"/>
    <frame tileid="2100" duration="1000"/>
   </animation>
  </tile>
  <tile id="2081">
   <animation>
    <frame tileid="2081" duration="1000"/>
    <frame tileid="2101" duration="1000"/>
   </animation>
  </tile>
  <tile id="2082">
   <animation>
    <frame tileid="2082" duration="1000"/>
    <frame tileid="2102" duration="1000"/>
   </animation>
  </tile>
  <tile id="2083">
   <animation>
    <frame tileid="2083" duration="1000"/>
    <frame tileid="2103" duration="1000"/>
   </animation>
  </tile>
  <tile id="2107">
   <animation>
    <frame tileid="2107" duration="1000"/>
    <frame tileid="2127" duration="1000"/>
   </animation>
  </tile>
  <tile id="2108">
   <animation>
    <frame tileid="2108" duration="1000"/>
    <frame tileid="2128" duration="1000"/>
   </animation>
  </tile>
  <tile id="2109">
   <animation>
    <frame tileid="2109" duration="1000"/>
    <frame tileid="2129" duration="1000"/>
   </animation>
  </tile>
  <tile id="2110">
   <animation>
    <frame tileid="2110" duration="1000"/>
    <frame tileid="2130" duration="1000"/>
   </animation>
  </tile>
  <tile id="2111">
   <animation>
    <frame tileid="2111" duration="1000"/>
    <frame tileid="2131" duration="1000"/>
   </animation>
  </tile>
  <tile id="2112">
   <animation>
    <frame tileid="2112" duration="1000"/>
    <frame tileid="2132" duration="1000"/>
   </animation>
  </tile>
  <tile id="2113">
   <animation>
    <frame tileid="2113" duration="1000"/>
    <frame tileid="2133" duration="1000"/>
   </animation>
  </tile>
  <tile id="2114">
   <animation>
    <frame tileid="2114" duration="1000"/>
    <frame tileid="2134" duration="1000"/>
   </animation>
  </tile>
  <tile id="2115">
   <animation>
    <frame tileid="2115" duration="1000"/>
    <frame tileid="2135" duration="1000"/>
   </animation>
  </tile>
  <tile id="2116">
   <animation>
    <frame tileid="2116" duration="1000"/>
    <frame tileid="2136" duration="1000"/>
   </animation>
  </tile>
  <tile id="2117">
   <animation>
    <frame tileid="2117" duration="1000"/>
    <frame tileid="2137" duration="1000"/>
   </animation>
  </tile>
  <tile id="2118">
   <animation>
    <frame tileid="2118" duration="1000"/>
    <frame tileid="2138" duration="1000"/>
   </animation>
  </tile>
  <tile id="2119">
   <animation>
    <frame tileid="2119" duration="1000"/>
    <frame tileid="2139" duration="1000"/>
   </animation>
  </tile>
  <tile id="2120">
   <animation>
    <frame tileid="2120" duration="1000"/>
    <frame tileid="2140" duration="1000"/>
   </animation>
  </tile>
  <tile id="2121">
   <animation>
    <frame tileid="2121" duration="1000"/>
    <frame tileid="2141" duration="1000"/>
   </animation>
  </tile>
  <tile id="2122">
   <animation>
    <frame tileid="2122" duration="1000"/>
    <frame tileid="2142" duration="1000"/>
   </animation>
  </tile>
  <tile id="2123">
   <animation>
    <frame tileid="2123" duration="1000"/>
    <frame tileid="2143" duration="1000"/>
   </animation>
  </tile>
  <tile id="2124">
   <animation>
    <frame tileid="2124" duration="1000"/>
    <frame tileid="2144" duration="1000"/>
   </animation>
  </tile>
  <tile id="2125">
   <animation>
    <frame tileid="2125" duration="1000"/>
    <frame tileid="2145" duration="1000"/>
   </animation>
  </tile>
  <tile id="2126">
   <animation>
    <frame tileid="2126" duration="1000"/>
    <frame tileid="2146" duration="1000"/>
   </animation>
  </tile>
 </tileset>
 <tileset firstgid="4082" name="night market" tilewidth="16" tileheight="16" tilecount="1368" columns="72">
  <image source="night_market_tilesheet_objects.png" width="1152" height="312"/>
  <tile id="260">
   <animation>
    <frame tileid="260" duration="1000"/>
    <frame tileid="250" duration="1000"/>
   </animation>
  </tile>
  <tile id="261">
   <animation>
    <frame tileid="261" duration="1000"/>
    <frame tileid="251" duration="1000"/>
   </animation>
  </tile>
  <tile id="293">
   <animation>
    <frame tileid="293" duration="100"/>
    <frame tileid="1162" duration="100"/>
    <frame tileid="1163" duration="100"/>
    <frame tileid="1164" duration="100"/>
    <frame tileid="1165" duration="100"/>
    <frame tileid="1166" duration="100"/>
    <frame tileid="1167" duration="100"/>
    <frame tileid="1168" duration="100"/>
   </animation>
  </tile>
  <tile id="327">
   <animation>
    <frame tileid="327" duration="100"/>
    <frame tileid="327" duration="100"/>
    <frame tileid="327" duration="100"/>
    <frame tileid="327" duration="100"/>
    <frame tileid="327" duration="100"/>
    <frame tileid="327" duration="100"/>
    <frame tileid="327" duration="100"/>
    <frame tileid="45" duration="100"/>
    <frame tileid="46" duration="100"/>
    <frame tileid="45" duration="100"/>
    <frame tileid="327" duration="100"/>
    <frame tileid="327" duration="100"/>
    <frame tileid="327" duration="100"/>
    <frame tileid="327" duration="100"/>
    <frame tileid="327" duration="100"/>
    <frame tileid="327" duration="100"/>
    <frame tileid="327" duration="100"/>
    <frame tileid="327" duration="100"/>
    <frame tileid="327" duration="100"/>
    <frame tileid="47" duration="100"/>
    <frame tileid="48" duration="100"/>
    <frame tileid="49" duration="100"/>
    <frame tileid="50" duration="100"/>
    <frame tileid="51" duration="100"/>
    <frame tileid="52" duration="100"/>
    <frame tileid="53" duration="100"/>
    <frame tileid="54" duration="100"/>
    <frame tileid="55" duration="100"/>
    <frame tileid="56" duration="100"/>
    <frame tileid="55" duration="100"/>
    <frame tileid="54" duration="100"/>
    <frame tileid="53" duration="100"/>
    <frame tileid="52" duration="100"/>
    <frame tileid="51" duration="100"/>
    <frame tileid="50" duration="100"/>
    <frame tileid="49" duration="100"/>
    <frame tileid="48" duration="100"/>
    <frame tileid="47" duration="100"/>
    <frame tileid="327" duration="100"/>
    <frame tileid="327" duration="100"/>
    <frame tileid="327" duration="100"/>
    <frame tileid="327" duration="100"/>
    <frame tileid="327" duration="100"/>
    <frame tileid="327" duration="100"/>
    <frame tileid="327" duration="100"/>
    <frame tileid="327" duration="100"/>
   </animation>
  </tile>
  <tile id="332">
   <animation>
    <frame tileid="332" duration="1000"/>
    <frame tileid="322" duration="1000"/>
   </animation>
  </tile>
  <tile id="333">
   <animation>
    <frame tileid="333" duration="1000"/>
    <frame tileid="323" duration="1000"/>
   </animation>
  </tile>
  <tile id="404">
   <animation>
    <frame tileid="404" duration="1000"/>
    <frame tileid="394" duration="1000"/>
   </animation>
  </tile>
  <tile id="405">
   <animation>
    <frame tileid="405" duration="1000"/>
    <frame tileid="395" duration="1000"/>
   </animation>
  </tile>
  <tile id="523">
   <animation>
    <frame tileid="523" duration="200"/>
    <frame tileid="523" duration="200"/>
    <frame tileid="523" duration="200"/>
    <frame tileid="523" duration="200"/>
    <frame tileid="523" duration="200"/>
    <frame tileid="523" duration="200"/>
    <frame tileid="523" duration="200"/>
    <frame tileid="523" duration="200"/>
    <frame tileid="1298" duration="200"/>
    <frame tileid="1298" duration="200"/>
    <frame tileid="523" duration="200"/>
    <frame tileid="523" duration="200"/>
    <frame tileid="1300" duration="200"/>
    <frame tileid="523" duration="200"/>
    <frame tileid="523" duration="200"/>
    <frame tileid="523" duration="200"/>
    <frame tileid="523" duration="200"/>
    <frame tileid="523" duration="200"/>
    <frame tileid="523" duration="200"/>
    <frame tileid="1224" duration="200"/>
    <frame tileid="1226" duration="200"/>
    <frame tileid="1228" duration="200"/>
    <frame tileid="1224" duration="200"/>
    <frame tileid="1226" duration="200"/>
    <frame tileid="1228" duration="200"/>
   </animation>
  </tile>
  <tile id="524">
   <animation>
    <frame tileid="524" duration="200"/>
    <frame tileid="524" duration="200"/>
    <frame tileid="524" duration="200"/>
    <frame tileid="524" duration="200"/>
    <frame tileid="524" duration="200"/>
    <frame tileid="524" duration="200"/>
    <frame tileid="524" duration="200"/>
    <frame tileid="524" duration="200"/>
    <frame tileid="1299" duration="200"/>
    <frame tileid="1299" duration="200"/>
    <frame tileid="524" duration="200"/>
    <frame tileid="524" duration="200"/>
    <frame tileid="1301" duration="200"/>
    <frame tileid="524" duration="200"/>
    <frame tileid="524" duration="200"/>
    <frame tileid="524" duration="200"/>
    <frame tileid="524" duration="200"/>
    <frame tileid="524" duration="200"/>
    <frame tileid="524" duration="200"/>
    <frame tileid="1225" duration="200"/>
    <frame tileid="1227" duration="200"/>
    <frame tileid="1229" duration="200"/>
    <frame tileid="1225" duration="200"/>
    <frame tileid="1227" duration="200"/>
    <frame tileid="1229" duration="200"/>
   </animation>
  </tile>
  <tile id="562">
   <properties>
    <property name="Type" value="Wood"/>
   </properties>
  </tile>
  <tile id="580">
   <animation>
    <frame tileid="580" duration="500"/>
    <frame tileid="580" duration="500"/>
    <frame tileid="580" duration="500"/>
    <frame tileid="580" duration="500"/>
    <frame tileid="580" duration="500"/>
    <frame tileid="580" duration="500"/>
    <frame tileid="580" duration="500"/>
    <frame tileid="580" duration="500"/>
    <frame tileid="580" duration="500"/>
    <frame tileid="580" duration="500"/>
    <frame tileid="1231" duration="500"/>
    <frame tileid="1232" duration="500"/>
    <frame tileid="1232" duration="500"/>
    <frame tileid="1231" duration="500"/>
   </animation>
  </tile>
  <tile id="634">
   <properties>
    <property name="Type" value="Wood"/>
   </properties>
  </tile>
  <tile id="652">
   <animation>
    <frame tileid="652" duration="500"/>
    <frame tileid="652" duration="500"/>
    <frame tileid="652" duration="500"/>
    <frame tileid="652" duration="500"/>
    <frame tileid="652" duration="500"/>
    <frame tileid="652" duration="500"/>
    <frame tileid="652" duration="500"/>
    <frame tileid="652" duration="500"/>
    <frame tileid="652" duration="500"/>
    <frame tileid="652" duration="500"/>
    <frame tileid="1303" duration="500"/>
    <frame tileid="1304" duration="500"/>
    <frame tileid="1304" duration="500"/>
    <frame tileid="1303" duration="500"/>
   </animation>
  </tile>
  <tile id="695">
   <animation>
    <frame tileid="695" duration="800"/>
    <frame tileid="695" duration="800"/>
    <frame tileid="695" duration="800"/>
    <frame tileid="695" duration="800"/>
    <frame tileid="695" duration="800"/>
    <frame tileid="695" duration="800"/>
    <frame tileid="695" duration="800"/>
    <frame tileid="695" duration="800"/>
    <frame tileid="695" duration="800"/>
    <frame tileid="1366" duration="800"/>
   </animation>
  </tile>
  <tile id="696">
   <animation>
    <frame tileid="696" duration="800"/>
    <frame tileid="696" duration="800"/>
    <frame tileid="696" duration="800"/>
    <frame tileid="696" duration="800"/>
    <frame tileid="696" duration="800"/>
    <frame tileid="696" duration="800"/>
    <frame tileid="696" duration="800"/>
    <frame tileid="696" duration="800"/>
    <frame tileid="696" duration="800"/>
    <frame tileid="1367" duration="800"/>
   </animation>
  </tile>
  <tile id="706">
   <properties>
    <property name="Type" value="Wood"/>
   </properties>
  </tile>
  <tile id="725">
   <properties>
    <property name="Type" value="Wood"/>
   </properties>
  </tile>
  <tile id="778">
   <properties>
    <property name="Type" value="Wood"/>
   </properties>
  </tile>
  <tile id="797">
   <properties>
    <property name="Type" value="Wood"/>
   </properties>
  </tile>
  <tile id="798">
   <properties>
    <property name="Type" value="Wood"/>
   </properties>
  </tile>
  <tile id="799">
   <properties>
    <property name="Type" value="Wood"/>
   </properties>
  </tile>
  <tile id="806">
   <animation>
    <frame tileid="806" duration="100"/>
    <frame tileid="1307" duration="100"/>
    <frame tileid="1307" duration="100"/>
    <frame tileid="1307" duration="100"/>
    <frame tileid="1307" duration="100"/>
    <frame tileid="1307" duration="100"/>
    <frame tileid="1307" duration="100"/>
    <frame tileid="1307" duration="100"/>
    <frame tileid="1307" duration="100"/>
    <frame tileid="1307" duration="100"/>
    <frame tileid="1307" duration="100"/>
    <frame tileid="1307" duration="100"/>
    <frame tileid="1307" duration="100"/>
    <frame tileid="1307" duration="100"/>
    <frame tileid="1307" duration="100"/>
    <frame tileid="1307" duration="100"/>
    <frame tileid="1307" duration="100"/>
    <frame tileid="1308" duration="100"/>
    <frame tileid="1309" duration="100"/>
    <frame tileid="1309" duration="100"/>
    <frame tileid="1308" duration="100"/>
    <frame tileid="1307" duration="100"/>
    <frame tileid="1307" duration="100"/>
    <frame tileid="1307" duration="100"/>
    <frame tileid="1307" duration="100"/>
    <frame tileid="1307" duration="100"/>
    <frame tileid="1307" duration="100"/>
    <frame tileid="1307" duration="100"/>
    <frame tileid="1307" duration="100"/>
    <frame tileid="1307" duration="100"/>
    <frame tileid="1307" duration="100"/>
    <frame tileid="1307" duration="100"/>
    <frame tileid="1307" duration="100"/>
    <frame tileid="1307" duration="100"/>
    <frame tileid="1307" duration="100"/>
    <frame tileid="1307" duration="100"/>
    <frame tileid="1307" duration="100"/>
    <frame tileid="1308" duration="100"/>
    <frame tileid="1309" duration="100"/>
    <frame tileid="1308" duration="100"/>
    <frame tileid="1307" duration="100"/>
    <frame tileid="1307" duration="100"/>
    <frame tileid="1307" duration="100"/>
    <frame tileid="1307" duration="100"/>
    <frame tileid="1308" duration="100"/>
    <frame tileid="1309" duration="100"/>
    <frame tileid="1308" duration="100"/>
    <frame tileid="1307" duration="100"/>
    <frame tileid="1307" duration="100"/>
    <frame tileid="1307" duration="100"/>
    <frame tileid="1307" duration="100"/>
    <frame tileid="1307" duration="100"/>
    <frame tileid="1307" duration="100"/>
    <frame tileid="1307" duration="100"/>
    <frame tileid="1307" duration="100"/>
    <frame tileid="1307" duration="100"/>
    <frame tileid="1307" duration="100"/>
    <frame tileid="1307" duration="100"/>
    <frame tileid="1307" duration="100"/>
    <frame tileid="1307" duration="100"/>
   </animation>
  </tile>
  <tile id="850">
   <properties>
    <property name="Type" value="Wood"/>
   </properties>
  </tile>
  <tile id="853">
   <animation>
    <frame tileid="853" duration="1000"/>
    <frame tileid="856" duration="1000"/>
   </animation>
  </tile>
  <tile id="854">
   <animation>
    <frame tileid="854" duration="1000"/>
    <frame tileid="857" duration="1000"/>
   </animation>
  </tile>
  <tile id="855">
   <animation>
    <frame tileid="855" duration="1000"/>
    <frame tileid="858" duration="1000"/>
   </animation>
  </tile>
  <tile id="878">
   <animation>
    <frame tileid="878" duration="250"/>
    <frame tileid="878" duration="250"/>
    <frame tileid="878" duration="250"/>
    <frame tileid="878" duration="250"/>
    <frame tileid="878" duration="250"/>
    <frame tileid="878" duration="250"/>
    <frame tileid="878" duration="250"/>
    <frame tileid="878" duration="250"/>
    <frame tileid="878" duration="250"/>
    <frame tileid="878" duration="250"/>
    <frame tileid="878" duration="250"/>
    <frame tileid="878" duration="250"/>
    <frame tileid="878" duration="250"/>
    <frame tileid="878" duration="250"/>
    <frame tileid="878" duration="250"/>
    <frame tileid="878" duration="250"/>
    <frame tileid="878" duration="250"/>
    <frame tileid="878" duration="250"/>
    <frame tileid="1310" duration="250"/>
    <frame tileid="878" duration="250"/>
    <frame tileid="1311" duration="250"/>
    <frame tileid="878" duration="250"/>
    <frame tileid="1310" duration="250"/>
    <frame tileid="878" duration="250"/>
    <frame tileid="1311" duration="250"/>
   </animation>
  </tile>
  <tile id="925">
   <animation>
    <frame tileid="925" duration="1000"/>
    <frame tileid="928" duration="1000"/>
   </animation>
  </tile>
  <tile id="926">
   <animation>
    <frame tileid="926" duration="1000"/>
    <frame tileid="929" duration="1000"/>
   </animation>
  </tile>
  <tile id="927">
   <animation>
    <frame tileid="927" duration="1000"/>
    <frame tileid="930" duration="1000"/>
   </animation>
  </tile>
  <tile id="1146">
   <animation>
    <frame tileid="1146" duration="800"/>
    <frame tileid="1146" duration="800"/>
    <frame tileid="1146" duration="800"/>
    <frame tileid="1146" duration="800"/>
    <frame tileid="1146" duration="800"/>
    <frame tileid="1146" duration="800"/>
    <frame tileid="1146" duration="800"/>
    <frame tileid="1146" duration="800"/>
    <frame tileid="1147" duration="800"/>
   </animation>
  </tile>
  <tile id="1212">
   <animation>
    <frame tileid="1212" duration="100"/>
    <frame tileid="1212" duration="100"/>
    <frame tileid="1212" duration="100"/>
    <frame tileid="1211" duration="100"/>
    <frame tileid="1210" duration="100"/>
    <frame tileid="1210" duration="100"/>
    <frame tileid="1210" duration="100"/>
    <frame tileid="1211" duration="100"/>
   </animation>
  </tile>
  <tile id="1213">
   <animation>
    <frame tileid="1213" duration="500"/>
    <frame tileid="1213" duration="500"/>
    <frame tileid="1213" duration="500"/>
    <frame tileid="1213" duration="500"/>
    <frame tileid="1213" duration="500"/>
    <frame tileid="1213" duration="500"/>
    <frame tileid="1213" duration="500"/>
    <frame tileid="1213" duration="500"/>
    <frame tileid="1213" duration="500"/>
    <frame tileid="1213" duration="500"/>
    <frame tileid="1213" duration="500"/>
    <frame tileid="1213" duration="500"/>
    <frame tileid="1213" duration="500"/>
    <frame tileid="1214" duration="500"/>
    <frame tileid="1213" duration="500"/>
    <frame tileid="1215" duration="500"/>
    <frame tileid="1213" duration="500"/>
    <frame tileid="1213" duration="500"/>
   </animation>
  </tile>
  <tile id="1218">
   <animation>
    <frame tileid="1218" duration="800"/>
    <frame tileid="1218" duration="800"/>
    <frame tileid="1218" duration="800"/>
    <frame tileid="1218" duration="800"/>
    <frame tileid="1218" duration="800"/>
    <frame tileid="1218" duration="800"/>
    <frame tileid="1218" duration="800"/>
    <frame tileid="1218" duration="800"/>
    <frame tileid="1219" duration="800"/>
   </animation>
  </tile>
  <tile id="1284">
   <animation>
    <frame tileid="1284" duration="100"/>
    <frame tileid="1284" duration="100"/>
    <frame tileid="1284" duration="100"/>
    <frame tileid="1283" duration="100"/>
    <frame tileid="1282" duration="100"/>
    <frame tileid="1282" duration="100"/>
    <frame tileid="1282" duration="100"/>
    <frame tileid="1283" duration="100"/>
   </animation>
  </tile>
 </tileset>
 <tileset firstgid="5450" name="z_aimon_bextras" tilewidth="16" tileheight="16" tilecount="144" columns="12">
  <image source="z_aimon_bextras.png" width="207" height="192"/>
 </tileset>
 <tileset firstgid="5594" name="untitled tile sheet" tilewidth="16" tileheight="16" tilecount="527" columns="17">
  <image source="spring_beach" width="272" height="496"/>
  <tile id="7">
   <properties>
    <property name="Water" value="T"/>
   </properties>
  </tile>
  <tile id="8">
   <properties>
    <property name="Water" value="T"/>
   </properties>
  </tile>
  <tile id="18">
   <properties>
    <property name="Diggable" value="T"/>
    <property name="Type" value="Dirt"/>
   </properties>
  </tile>
  <tile id="19">
   <properties>
    <property name="Diggable" value="T"/>
    <property name="Type" value="Dirt"/>
   </properties>
  </tile>
  <tile id="20">
   <properties>
    <property name="Diggable" value="T"/>
    <property name="Type" value="Dirt"/>
   </properties>
  </tile>
  <tile id="21">
   <properties>
    <property name="Type" value="Dirt"/>
   </properties>
  </tile>
  <tile id="22">
   <properties>
    <property name="Diggable" value="T"/>
    <property name="Type" value="Dirt"/>
   </properties>
  </tile>
  <tile id="23">
   <properties>
    <property name="Type" value="Dirt"/>
   </properties>
  </tile>
  <tile id="24">
   <properties>
    <property name="Type" value="Dirt"/>
   </properties>
  </tile>
  <tile id="25">
   <properties>
    <property name="Diggable" value="T"/>
    <property name="Type" value="Dirt"/>
   </properties>
  </tile>
  <tile id="26">
   <properties>
    <property name="Diggable" value="T"/>
    <property name="Type" value="Dirt"/>
   </properties>
  </tile>
  <tile id="41">
   <properties>
    <property name="Diggable" value="T"/>
    <property name="Type" value="Dirt"/>
   </properties>
  </tile>
  <tile id="42">
   <properties>
    <property name="Diggable" value="T"/>
    <property name="Spawnable" value="T"/>
    <property name="Type" value="Dirt"/>
   </properties>
  </tile>
  <tile id="43">
   <properties>
    <property name="Diggable" value="T"/>
   </properties>
  </tile>
  <tile id="51">
   <properties>
    <property name="Type" value="Dirt"/>
   </properties>
  </tile>
  <tile id="52">
   <properties>
    <property name="Type" value="Dirt"/>
   </properties>
  </tile>
  <tile id="53">
   <properties>
    <property name="Type" value="Dirt"/>
   </properties>
  </tile>
  <tile id="54">
   <properties>
    <property name="Type" value="Dirt"/>
   </properties>
  </tile>
  <tile id="56">
   <properties>
    <property name="Type" value="Stone"/>
   </properties>
  </tile>
  <tile id="58">
   <properties>
    <property name="Type" value="Dirt"/>
   </properties>
  </tile>
  <tile id="59">
   <properties>
    <property name="Diggable" value="T"/>
    <property name="Type" value="Dirt"/>
   </properties>
  </tile>
  <tile id="60">
   <properties>
    <property name="Type" value="Stone"/>
   </properties>
  </tile>
  <tile id="61">
   <properties>
    <property name="Type" value="Stone"/>
   </properties>
  </tile>
  <tile id="62">
   <properties>
    <property name="Type" value="Stone"/>
   </properties>
  </tile>
  <tile id="63">
   <properties>
    <property name="Type" value="Stone"/>
   </properties>
  </tile>
  <tile id="68">
   <properties>
    <property name="Type" value="Dirt"/>
   </properties>
  </tile>
  <tile id="69">
   <properties>
    <property name="Diggable" value="T"/>
    <property name="Type" value="Dirt"/>
   </properties>
  </tile>
  <tile id="70">
   <properties>
    <property name="Diggable" value="T"/>
    <property name="Type" value="Dirt"/>
   </properties>
  </tile>
  <tile id="71">
   <properties>
    <property name="Type" value="Dirt"/>
   </properties>
  </tile>
  <tile id="75">
   <properties>
    <property name="Water" value="T"/>
   </properties>
  </tile>
  <tile id="77">
   <properties>
    <property name="Type" value="Stone"/>
   </properties>
  </tile>
  <tile id="78">
   <properties>
    <property name="Type" value="Stone"/>
   </properties>
  </tile>
  <tile id="79">
   <properties>
    <property name="Type" value="Stone"/>
   </properties>
  </tile>
  <tile id="80">
   <properties>
    <property name="Type" value="Stone"/>
   </properties>
   <animation>
    <frame tileid="80" duration="600"/>
    <frame tileid="337" duration="600"/>
    <frame tileid="338" duration="600"/>
    <frame tileid="337" duration="600"/>
   </animation>
  </tile>
  <tile id="81">
   <properties>
    <property name="Type" value="Grass"/>
   </properties>
  </tile>
  <tile id="82">
   <properties>
    <property name="Type" value="Grass"/>
   </properties>
  </tile>
  <tile id="85">
   <properties>
    <property name="Type" value="Dirt"/>
   </properties>
  </tile>
  <tile id="86">
   <properties>
    <property name="Diggable" value="T"/>
    <property name="Type" value="Dirt"/>
   </properties>
  </tile>
  <tile id="87">
   <properties>
    <property name="Diggable" value="T"/>
    <property name="Type" value="Dirt"/>
   </properties>
  </tile>
  <tile id="88">
   <properties>
    <property name="Type" value="Dirt"/>
   </properties>
  </tile>
  <tile id="89">
   <properties>
    <property name="Water" value="T"/>
   </properties>
  </tile>
  <tile id="90">
   <properties>
    <property name="Water" value="T"/>
   </properties>
  </tile>
  <tile id="91">
   <properties>
    <property name="Water" value="T"/>
   </properties>
  </tile>
  <tile id="92">
   <properties>
    <property name="Water" value="T"/>
   </properties>
  </tile>
  <tile id="93">
   <properties>
    <property name="Water" value="T"/>
   </properties>
  </tile>
  <tile id="94">
   <properties>
    <property name="Type" value="Stone"/>
   </properties>
  </tile>
  <tile id="95">
   <properties>
    <property name="Type" value="Stone"/>
   </properties>
  </tile>
  <tile id="96">
   <properties>
    <property name="Type" value="Stone"/>
   </properties>
  </tile>
  <tile id="97">
   <properties>
    <property name="Type" value="Stone"/>
   </properties>
  </tile>
  <tile id="100">
   <properties>
    <property name="Type" value="Grass"/>
   </properties>
  </tile>
  <tile id="101">
   <properties>
    <property name="Type" value="Grass"/>
   </properties>
  </tile>
  <tile id="107">
   <properties>
    <property name="Type" value="Dirt"/>
    <property name="Water" value="T"/>
   </properties>
  </tile>
  <tile id="108">
   <properties>
    <property name="Water" value="T"/>
   </properties>
  </tile>
  <tile id="109">
   <properties>
    <property name="Water" value="T"/>
   </properties>
  </tile>
  <tile id="110">
   <properties>
    <property name="Water" value="T"/>
   </properties>
  </tile>
  <tile id="111">
   <properties>
    <property name="Type" value="Stone"/>
   </properties>
  </tile>
  <tile id="112">
   <properties>
    <property name="Type" value="Stone"/>
   </properties>
  </tile>
  <tile id="113">
   <properties>
    <property name="Type" value="Stone"/>
   </properties>
  </tile>
  <tile id="114">
   <properties>
    <property name="Type" value="Stone"/>
   </properties>
  </tile>
  <tile id="117">
   <properties>
    <property name="Type" value="Grass"/>
   </properties>
  </tile>
  <tile id="118">
   <properties>
    <property name="Type" value="Grass"/>
   </properties>
  </tile>
  <tile id="124">
   <properties>
    <property name="Water" value="T"/>
   </properties>
  </tile>
  <tile id="125">
   <properties>
    <property name="Water" value="T"/>
   </properties>
  </tile>
  <tile id="126">
   <properties>
    <property name="Water" value="T"/>
   </properties>
  </tile>
  <tile id="127">
   <properties>
    <property name="Water" value="T"/>
   </properties>
  </tile>
  <tile id="128">
   <properties>
    <property name="Passable" value="T"/>
    <property name="Type" value="Dirt"/>
   </properties>
  </tile>
  <tile id="129">
   <properties>
    <property name="Water" value="T"/>
   </properties>
  </tile>
  <tile id="130">
   <properties>
    <property name="Water" value="T"/>
   </properties>
  </tile>
  <tile id="131">
   <properties>
    <property name="Passable" value="F"/>
    <property name="Water" value="T"/>
   </properties>
  </tile>
  <tile id="141">
   <properties>
    <property name="Passable" value="T"/>
    <property name="Type" value="Dirt"/>
   </properties>
   <animation>
    <frame tileid="141" duration="250"/>
    <frame tileid="142" duration="250"/>
    <frame tileid="143" duration="250"/>
    <frame tileid="144" duration="250"/>
    <frame tileid="144" duration="250"/>
    <frame tileid="145" duration="250"/>
    <frame tileid="146" duration="250"/>
    <frame tileid="147" duration="250"/>
    <frame tileid="141" duration="250"/>
    <frame tileid="141" duration="250"/>
    <frame tileid="141" duration="250"/>
   </animation>
  </tile>
  <tile id="142">
   <properties>
    <property name="Passable" value="T"/>
    <property name="Type" value="Dirt"/>
   </properties>
  </tile>
  <tile id="143">
   <properties>
    <property name="Passable" value="T"/>
    <property name="Type" value="Dirt"/>
   </properties>
  </tile>
  <tile id="144">
   <properties>
    <property name="Passable" value="T"/>
    <property name="Type" value="Dirt"/>
   </properties>
  </tile>
  <tile id="145">
   <properties>
    <property name="Passable" value="T"/>
    <property name="Type" value="Dirt"/>
   </properties>
  </tile>
  <tile id="146">
   <properties>
    <property name="Passable" value="T"/>
    <property name="Type" value="Dirt"/>
   </properties>
  </tile>
  <tile id="147">
   <properties>
    <property name="Passable" value="T"/>
    <property name="Type" value="Dirt"/>
   </properties>
  </tile>
  <tile id="148">
   <properties>
    <property name="Water" value="T"/>
   </properties>
  </tile>
  <tile id="158">
   <properties>
    <property name="Passable" value="T"/>
    <property name="Type" value="Dirt"/>
   </properties>
   <animation>
    <frame tileid="158" duration="250"/>
    <frame tileid="159" duration="250"/>
    <frame tileid="160" duration="250"/>
    <frame tileid="161" duration="250"/>
    <frame tileid="161" duration="250"/>
    <frame tileid="162" duration="250"/>
    <frame tileid="163" duration="250"/>
    <frame tileid="164" duration="250"/>
    <frame tileid="158" duration="250"/>
    <frame tileid="158" duration="250"/>
    <frame tileid="158" duration="250"/>
   </animation>
  </tile>
  <tile id="159">
   <properties>
    <property name="Passable" value="T"/>
    <property name="Type" value="Dirt"/>
   </properties>
  </tile>
  <tile id="160">
   <properties>
    <property name="Passable" value="T"/>
    <property name="Type" value="Dirt"/>
   </properties>
  </tile>
  <tile id="161">
   <properties>
    <property name="Passable" value="T"/>
    <property name="Type" value="Dirt"/>
   </properties>
  </tile>
  <tile id="162">
   <properties>
    <property name="Passable" value="T"/>
    <property name="Type" value="Dirt"/>
   </properties>
  </tile>
  <tile id="163">
   <properties>
    <property name="Passable" value="T"/>
    <property name="Type" value="Dirt"/>
   </properties>
  </tile>
  <tile id="164">
   <properties>
    <property name="Passable" value="T"/>
    <property name="Type" value="Dirt"/>
   </properties>
  </tile>
  <tile id="165">
   <properties>
    <property name="Passable" value="F"/>
    <property name="Water" value="T"/>
   </properties>
  </tile>
  <tile id="169">
   <properties>
    <property name="Type" value="Stone"/>
   </properties>
  </tile>
  <tile id="175">
   <properties>
    <property name="Passable" value="T"/>
    <property name="Type" value="Dirt"/>
   </properties>
   <animation>
    <frame tileid="175" duration="250"/>
    <frame tileid="176" duration="250"/>
    <frame tileid="177" duration="250"/>
    <frame tileid="178" duration="250"/>
    <frame tileid="178" duration="250"/>
    <frame tileid="179" duration="250"/>
    <frame tileid="180" duration="250"/>
    <frame tileid="181" duration="250"/>
    <frame tileid="175" duration="250"/>
    <frame tileid="175" duration="250"/>
    <frame tileid="175" duration="250"/>
   </animation>
  </tile>
  <tile id="176">
   <properties>
    <property name="Passable" value="T"/>
    <property name="Type" value="Dirt"/>
   </properties>
  </tile>
  <tile id="177">
   <properties>
    <property name="Passable" value="T"/>
    <property name="Type" value="Dirt"/>
   </properties>
  </tile>
  <tile id="178">
   <properties>
    <property name="Passable" value="T"/>
    <property name="Type" value="Dirt"/>
   </properties>
  </tile>
  <tile id="179">
   <properties>
    <property name="Passable" value="T"/>
    <property name="Type" value="Dirt"/>
   </properties>
  </tile>
  <tile id="180">
   <properties>
    <property name="Passable" value="T"/>
    <property name="Type" value="Dirt"/>
   </properties>
  </tile>
  <tile id="181">
   <properties>
    <property name="Passable" value="T"/>
    <property name="Type" value="Dirt"/>
   </properties>
  </tile>
  <tile id="185">
   <properties>
    <property name="Water" value="T"/>
   </properties>
  </tile>
  <tile id="186">
   <properties>
    <property name="Type" value="Stone"/>
   </properties>
  </tile>
  <tile id="192">
   <properties>
    <property name="Passable" value="T"/>
    <property name="Type" value="Dirt"/>
   </properties>
   <animation>
    <frame tileid="192" duration="250"/>
    <frame tileid="193" duration="250"/>
    <frame tileid="194" duration="250"/>
    <frame tileid="195" duration="250"/>
    <frame tileid="195" duration="250"/>
    <frame tileid="196" duration="250"/>
    <frame tileid="197" duration="250"/>
    <frame tileid="198" duration="250"/>
    <frame tileid="192" duration="250"/>
    <frame tileid="192" duration="250"/>
    <frame tileid="192" duration="250"/>
   </animation>
  </tile>
  <tile id="193">
   <properties>
    <property name="Passable" value="T"/>
    <property name="Type" value="Dirt"/>
   </properties>
  </tile>
  <tile id="194">
   <properties>
    <property name="Passable" value="T"/>
    <property name="Type" value="Dirt"/>
   </properties>
  </tile>
  <tile id="195">
   <properties>
    <property name="Passable" value="T"/>
    <property name="Type" value="Dirt"/>
   </properties>
  </tile>
  <tile id="196">
   <properties>
    <property name="Passable" value="T"/>
    <property name="Type" value="Dirt"/>
   </properties>
  </tile>
  <tile id="197">
   <properties>
    <property name="Passable" value="T"/>
    <property name="Type" value="Dirt"/>
   </properties>
  </tile>
  <tile id="198">
   <properties>
    <property name="Passable" value="T"/>
    <property name="Type" value="Dirt"/>
   </properties>
  </tile>
  <tile id="202">
   <properties>
    <property name="Diggable" value="T"/>
   </properties>
  </tile>
  <tile id="203">
   <properties>
    <property name="Water" value="T"/>
   </properties>
  </tile>
  <tile id="209">
   <properties>
    <property name="Passable" value="T"/>
    <property name="Type" value="Dirt"/>
   </properties>
   <animation>
    <frame tileid="209" duration="250"/>
    <frame tileid="210" duration="250"/>
    <frame tileid="211" duration="250"/>
    <frame tileid="212" duration="250"/>
    <frame tileid="212" duration="250"/>
    <frame tileid="213" duration="250"/>
    <frame tileid="214" duration="250"/>
    <frame tileid="215" duration="250"/>
    <frame tileid="209" duration="250"/>
    <frame tileid="209" duration="250"/>
    <frame tileid="209" duration="250"/>
   </animation>
  </tile>
  <tile id="210">
   <properties>
    <property name="Passable" value="T"/>
    <property name="Type" value="Dirt"/>
   </properties>
  </tile>
  <tile id="211">
   <properties>
    <property name="Passable" value="T"/>
    <property name="Type" value="Dirt"/>
   </properties>
  </tile>
  <tile id="212">
   <properties>
    <property name="Passable" value="T"/>
    <property name="Type" value="Dirt"/>
   </properties>
  </tile>
  <tile id="213">
   <properties>
    <property name="Passable" value="T"/>
    <property name="Type" value="Dirt"/>
   </properties>
  </tile>
  <tile id="214">
   <properties>
    <property name="Passable" value="T"/>
    <property name="Type" value="Dirt"/>
   </properties>
  </tile>
  <tile id="215">
   <properties>
    <property name="Passable" value="T"/>
    <property name="Type" value="Dirt"/>
   </properties>
  </tile>
  <tile id="216">
   <animation>
    <frame tileid="216" duration="1000"/>
    <frame tileid="267" duration="1000"/>
   </animation>
  </tile>
  <tile id="217">
   <animation>
    <frame tileid="217" duration="1000"/>
    <frame tileid="268" duration="1000"/>
   </animation>
  </tile>
  <tile id="218">
   <animation>
    <frame tileid="218" duration="1000"/>
    <frame tileid="269" duration="1000"/>
   </animation>
  </tile>
  <tile id="219">
   <properties>
    <property name="Type" value="Stone"/>
   </properties>
  </tile>
  <tile id="220">
   <properties>
    <property name="Type" value="Stone"/>
   </properties>
  </tile>
  <tile id="226">
   <properties>
    <property name="Passable" value="T"/>
    <property name="Type" value="Dirt"/>
   </properties>
   <animation>
    <frame tileid="226" duration="250"/>
    <frame tileid="227" duration="250"/>
    <frame tileid="228" duration="250"/>
    <frame tileid="229" duration="250"/>
    <frame tileid="229" duration="250"/>
    <frame tileid="230" duration="250"/>
    <frame tileid="231" duration="250"/>
    <frame tileid="232" duration="250"/>
    <frame tileid="226" duration="250"/>
    <frame tileid="226" duration="250"/>
    <frame tileid="226" duration="250"/>
   </animation>
  </tile>
  <tile id="227">
   <properties>
    <property name="Passable" value="T"/>
    <property name="Type" value="Dirt"/>
   </properties>
  </tile>
  <tile id="228">
   <properties>
    <property name="Passable" value="T"/>
    <property name="Type" value="Dirt"/>
   </properties>
  </tile>
  <tile id="229">
   <properties>
    <property name="Passable" value="T"/>
    <property name="Type" value="Dirt"/>
   </properties>
  </tile>
  <tile id="230">
   <properties>
    <property name="Passable" value="T"/>
    <property name="Type" value="Dirt"/>
   </properties>
  </tile>
  <tile id="231">
   <properties>
    <property name="Passable" value="T"/>
    <property name="Type" value="Dirt"/>
   </properties>
  </tile>
  <tile id="232">
   <properties>
    <property name="Passable" value="T"/>
    <property name="Type" value="Dirt"/>
   </properties>
  </tile>
  <tile id="233">
   <properties>
    <property name="Water" value="T"/>
   </properties>
  </tile>
  <tile id="234">
   <properties>
    <property name="Water" value="T"/>
   </properties>
  </tile>
  <tile id="235">
   <properties>
    <property name="Water" value="T"/>
   </properties>
  </tile>
  <tile id="236">
   <properties>
    <property name="Type" value="Stone"/>
   </properties>
  </tile>
  <tile id="237">
   <properties>
    <property name="Type" value="Stone"/>
   </properties>
  </tile>
  <tile id="243">
   <properties>
    <property name="Passable" value="T"/>
    <property name="Type" value="Dirt"/>
   </properties>
   <animation>
    <frame tileid="243" duration="250"/>
    <frame tileid="244" duration="250"/>
    <frame tileid="245" duration="250"/>
    <frame tileid="246" duration="250"/>
    <frame tileid="246" duration="250"/>
    <frame tileid="247" duration="250"/>
    <frame tileid="248" duration="250"/>
    <frame tileid="249" duration="250"/>
    <frame tileid="243" duration="250"/>
    <frame tileid="243" duration="250"/>
    <frame tileid="243" duration="250"/>
   </animation>
  </tile>
  <tile id="244">
   <properties>
    <property name="Passable" value="T"/>
    <property name="Type" value="Dirt"/>
   </properties>
  </tile>
  <tile id="245">
   <properties>
    <property name="Passable" value="T"/>
    <property name="Type" value="Dirt"/>
   </properties>
  </tile>
  <tile id="246">
   <properties>
    <property name="Passable" value="T"/>
    <property name="Type" value="Dirt"/>
   </properties>
  </tile>
  <tile id="247">
   <properties>
    <property name="Passable" value="T"/>
    <property name="Type" value="Dirt"/>
   </properties>
  </tile>
  <tile id="248">
   <properties>
    <property name="Passable" value="T"/>
    <property name="Type" value="Dirt"/>
   </properties>
  </tile>
  <tile id="249">
   <properties>
    <property name="Passable" value="T"/>
    <property name="Type" value="Dirt"/>
   </properties>
  </tile>
  <tile id="250">
   <properties>
    <property name="Water" value="T"/>
   </properties>
  </tile>
  <tile id="251">
   <properties>
    <property name="Water" value="T"/>
   </properties>
  </tile>
  <tile id="252">
   <properties>
    <property name="Water" value="T"/>
   </properties>
  </tile>
  <tile id="253">
   <properties>
    <property name="Type" value="Stone"/>
   </properties>
  </tile>
  <tile id="254">
   <properties>
    <property name="Type" value="Stone"/>
   </properties>
  </tile>
  <tile id="260">
   <properties>
    <property name="Passable" value="T"/>
    <property name="Type" value="Dirt"/>
   </properties>
   <animation>
    <frame tileid="260" duration="250"/>
    <frame tileid="261" duration="250"/>
    <frame tileid="262" duration="250"/>
    <frame tileid="263" duration="250"/>
    <frame tileid="263" duration="250"/>
    <frame tileid="264" duration="250"/>
    <frame tileid="265" duration="250"/>
    <frame tileid="266" duration="250"/>
    <frame tileid="260" duration="250"/>
    <frame tileid="260" duration="250"/>
    <frame tileid="260" duration="250"/>
   </animation>
  </tile>
  <tile id="261">
   <properties>
    <property name="Passable" value="T"/>
    <property name="Type" value="Dirt"/>
   </properties>
  </tile>
  <tile id="262">
   <properties>
    <property name="Passable" value="T"/>
    <property name="Type" value="Dirt"/>
   </properties>
  </tile>
  <tile id="263">
   <properties>
    <property name="Passable" value="T"/>
    <property name="Type" value="Dirt"/>
   </properties>
  </tile>
  <tile id="264">
   <properties>
    <property name="Passable" value="T"/>
    <property name="Type" value="Dirt"/>
   </properties>
  </tile>
  <tile id="265">
   <properties>
    <property name="Passable" value="T"/>
    <property name="Type" value="Dirt"/>
   </properties>
  </tile>
  <tile id="266">
   <properties>
    <property name="Passable" value="T"/>
    <property name="Type" value="Dirt"/>
   </properties>
  </tile>
  <tile id="270">
   <properties>
    <property name="Type" value="Stone"/>
   </properties>
  </tile>
  <tile id="271">
   <properties>
    <property name="Type" value="Stone"/>
   </properties>
  </tile>
  <tile id="277">
   <properties>
    <property name="Type" value="Wood"/>
   </properties>
  </tile>
  <tile id="278">
   <properties>
    <property name="Type" value="Wood"/>
   </properties>
  </tile>
  <tile id="279">
   <properties>
    <property name="Type" value="Wood"/>
   </properties>
  </tile>
  <tile id="280">
   <properties>
    <property name="Type" value="Dirt"/>
   </properties>
  </tile>
  <tile id="287">
   <properties>
    <property name="Type" value="Stone"/>
   </properties>
  </tile>
  <tile id="297">
   <properties>
    <property name="Type" value="Wood"/>
   </properties>
  </tile>
  <tile id="298">
   <properties>
    <property name="Type" value="Wood"/>
   </properties>
  </tile>
  <tile id="299">
   <properties>
    <property name="Type" value="Wood"/>
   </properties>
  </tile>
  <tile id="300">
   <properties>
    <property name="Type" value="Wood"/>
   </properties>
  </tile>
  <tile id="301">
   <properties>
    <property name="Passable" value="T"/>
    <property name="Type" value="Wood"/>
   </properties>
  </tile>
  <tile id="302">
   <properties>
    <property name="Type" value="Wood"/>
   </properties>
  </tile>
  <tile id="334">
   <properties>
    <property name="Water" value="T"/>
   </properties>
  </tile>
  <tile id="335">
   <properties>
    <property name="Water" value="T"/>
   </properties>
  </tile>
  <tile id="336">
   <properties>
    <property name="Water" value="T"/>
   </properties>
  </tile>
  <tile id="337">
   <properties>
    <property name="Type" value="Stone"/>
   </properties>
  </tile>
  <tile id="338">
   <properties>
    <property name="Type" value="Stone"/>
   </properties>
  </tile>
  <tile id="339">
   <properties>
    <property name="Passable" value="F"/>
    <property name="Water" value="T"/>
   </properties>
  </tile>
  <tile id="373">
   <properties>
    <property name="Water" value="T"/>
   </properties>
  </tile>
  <tile id="419">
   <properties>
    <property name="Type" value="Wood"/>
   </properties>
  </tile>
  <tile id="420">
   <properties>
    <property name="Type" value="Wood"/>
   </properties>
  </tile>
  <tile id="421">
   <properties>
    <property name="Type" value="Wood"/>
   </properties>
  </tile>
  <tile id="423">
   <properties>
    <property name="Water" value="T"/>
   </properties>
  </tile>
  <tile id="424">
   <properties>
    <property name="Water" value="T"/>
   </properties>
  </tile>
  <tile id="435">
   <properties>
    <property name="Type" value="Wood"/>
   </properties>
  </tile>
  <tile id="440">
   <properties>
    <property name="Water" value="T"/>
   </properties>
  </tile>
  <tile id="441">
   <properties>
    <property name="Water" value="T"/>
   </properties>
  </tile>
  <tile id="453">
   <properties>
    <property name="Type" value="Wood"/>
   </properties>
  </tile>
  <tile id="454">
   <properties>
    <property name="Type" value="Wood"/>
   </properties>
  </tile>
  <tile id="455">
   <properties>
    <property name="Type" value="Wood"/>
   </properties>
  </tile>
  <tile id="458">
   <properties>
    <property name="Water" value="T"/>
   </properties>
  </tile>
  <tile id="470">
   <properties>
    <property name="Type" value="Wood"/>
   </properties>
  </tile>
  <tile id="471">
   <properties>
    <property name="Type" value="Wood"/>
   </properties>
  </tile>
  <tile id="472">
   <properties>
    <property name="Type" value="Wood"/>
   </properties>
  </tile>
  <tile id="475">
   <properties>
    <property name="Water" value="T"/>
   </properties>
  </tile>
  <tile id="487">
   <properties>
    <property name="Type" value="Wood"/>
   </properties>
  </tile>
  <tile id="488">
   <properties>
    <property name="Type" value="Wood"/>
   </properties>
  </tile>
  <tile id="489">
   <properties>
    <property name="Type" value="Wood"/>
   </properties>
  </tile>
  <tile id="491">
   <properties>
    <property name="Type" value="Wood"/>
   </properties>
  </tile>
  <tile id="504">
   <properties>
    <property name="Type" value="Wood"/>
   </properties>
  </tile>
  <tile id="505">
   <properties>
    <property name="Type" value="Wood"/>
   </properties>
  </tile>
  <tile id="506">
   <properties>
    <property name="Type" value="Wood"/>
   </properties>
  </tile>
  <tile id="508">
   <properties>
    <property name="Type" value="Wood"/>
   </properties>
  </tile>
 </tileset>
 <layer id="18" name="Back" width="19" height="18">
  <data encoding="csv">
1308,1721,1721,1703,1308,1308,1308,1308,1308,1308,1308,1308,1363,1308,1691,1308,1708,1308,1308,
1308,1721,1722,1721,1308,1363,1308,1308,1308,1708,1308,1308,1308,1308,1308,1363,1308,1308,1308,
1308,1703,1721,1705,1691,1308,1308,1308,1308,1308,1308,1308,1308,1308,1308,1308,1363,1308,1308,
1308,1720,1720,1721,1308,1308,1308,1308,1308,1308,1363,1308,1308,1363,1308,1308,1308,1308,1308,
1308,1720,1721,1722,1308,1308,1363,1308,1308,1308,1308,1308,1308,1308,1308,1308,1308,1308,1308,
1308,1703,1704,1722,1308,1308,1308,1308,1308,1308,1308,1308,1308,1308,1308,1308,1308,1308,1308,
1653,1654,1652,1654,1654,1654,1308,1308,1308,5779,1308,1308,1308,1691,1708,1308,1308,1308,1308,
1721,1703,1705,1721,1705,3758101316,1610617524,1610617596,1530,1531,1531,1532,1308,1308,1308,1308,1308,1308,1363,
1738,1738,1737,1738,1738,1724,1308,1308,1530,1531,1531,1532,1308,1308,1308,1308,1363,1308,1308,
1322,1606,1322,1322,1322,1322,1308,1308,1530,1531,1531,1532,1363,1308,1308,1308,1308,1308,1308,
1308,1308,0,0,1308,1691,1308,1308,1547,1548,1548,1549,1308,1308,1308,0,1308,1308,1308,
1308,0,2235,2236,2237,2238,2239,2240,2241,2242,2243,2244,2245,2246,2247,2248,2249,2250,1308,
1308,2277,2278,2279,2280,2281,2282,2283,2284,2285,2286,2287,2288,2289,2290,2291,2292,2293,1308,
1691,2320,2321,2322,2323,2324,2325,2325,2326,2328,2329,2330,2331,2332,2333,2334,2335,2336,1308,
1308,1308,1308,1363,1691,2367,2368,2369,2370,2371,2372,2373,2374,2375,2375,1308,1308,1363,1308,
1308,1363,1708,1656,1657,1363,1708,1363,1308,1308,1308,1308,1308,1708,1308,1363,1308,1308,1308,
1308,1308,1691,1673,1674,1691,1308,1308,1308,1308,1308,1363,1308,1308,1308,1308,1308,1308,1308,
1308,1308,1363,1308,1363,1308,1308,1308,1308,1308,1308,1308,1308,1308,1308,1308,1308,1308,1308
</data>
 </layer>
 <layer id="13" name="Back1" width="19" height="18">
  <data encoding="csv">
0,0,0,0,0,0,0,0,0,0,0,0,0,0,0,0,0,0,0,
0,0,0,0,0,0,0,0,0,0,0,0,0,0,0,0,0,0,0,
0,0,0,0,0,0,0,0,0,0,0,0,0,0,0,0,0,0,0,
0,0,0,0,0,0,0,0,0,0,0,0,0,0,0,0,0,0,0,
0,0,0,0,0,0,0,0,0,0,0,0,0,0,0,0,0,0,0,
0,0,0,0,0,0,0,0,0,0,0,0,0,0,0,0,0,0,0,
0,0,0,0,0,0,0,0,0,0,0,0,0,0,0,0,0,0,0,
0,0,0,0,0,0,0,0,0,0,0,0,0,0,0,0,0,0,0,
0,0,0,0,0,0,5355,5356,0,0,0,0,0,0,0,0,0,0,0,
0,0,0,0,0,0,0,0,0,0,0,0,0,0,0,0,0,0,0,
0,0,2192,2193,0,0,0,0,0,0,0,0,0,0,2204,2205,0,0,0,
0,0,0,0,0,0,1775,1776,1777,1779,1780,1781,1782,0,0,0,0,0,0,
0,0,0,0,0,0,1818,1819,1820,1822,1823,1824,1825,0,0,0,0,0,0,
0,0,0,0,0,0,1861,1862,1863,1865,1866,1867,1868,0,0,0,0,0,0,
0,0,0,0,0,0,0,0,0,0,0,0,0,0,0,0,0,0,0,
0,0,0,0,0,0,0,0,0,0,0,0,0,0,0,0,0,0,0,
0,0,0,0,0,0,0,0,0,0,0,0,0,0,0,0,0,0,0,
0,0,0,0,0,0,0,0,0,0,0,0,0,0,0,0,0,0,0
</data>
 </layer>
 <layer id="17" name="Back2" width="19" height="18">
  <data encoding="csv">
0,0,0,0,0,0,0,0,0,0,0,0,0,0,0,0,0,2684360011,5462,
0,0,0,0,0,0,0,0,0,0,0,0,0,0,0,0,0,2684360010,5462,
0,0,0,0,0,0,0,0,0,0,0,0,0,0,0,0,0,2684360034,5462,
0,0,0,0,0,0,0,0,0,0,0,0,0,0,0,0,2684360011,5462,5462,
0,0,0,0,0,0,0,0,0,0,0,0,0,0,0,2684360011,5462,5462,5462,
0,0,0,0,0,0,0,0,0,0,0,0,0,0,0,2684360034,5462,5462,5462,
0,0,0,0,0,0,0,0,0,0,0,0,0,0,2684360011,5462,5462,5462,5462,
0,0,0,0,0,0,0,0,0,0,0,0,2684360011,3221230946,5462,5462,5462,5462,5462,
0,0,0,0,0,0,0,0,0,0,0,0,5462,5462,5462,5462,5462,5462,5462,
0,0,0,0,0,0,0,0,0,0,0,0,5462,5462,5462,5462,5462,5462,5462,
0,0,0,0,0,0,0,0,0,0,0,0,5462,5462,5462,5462,5462,5462,5462,
0,0,0,0,0,0,0,0,1565,2147485213,2147485213,2147485213,0,0,0,0,5462,5462,5462,
0,0,0,0,0,0,0,0,0,0,0,0,0,0,0,0,0,5462,5462,
3221230922,3221230946,0,0,0,0,0,0,0,0,0,0,0,0,0,0,0,5462,5462,
5462,5462,5462,5462,5462,0,0,0,0,0,0,0,0,0,0,0,5462,5462,5462,
5462,5462,5462,5462,5462,5462,5462,5462,5462,5462,5462,5462,5462,5462,5462,5462,5462,5462,5462,
5462,5462,5462,5462,5462,5462,5462,5462,5462,5462,5462,5462,5462,5462,5462,5462,5462,5462,5462,
5462,5462,5462,5462,5462,5462,5462,5462,5462,5462,5462,5462,5462,5462,5462,5462,5462,5462,5462
</data>
 </layer>
 <layer id="3" name="Buildings" width="19" height="18">
  <data encoding="csv">
1719,0,0,0,1706,0,0,0,0,0,0,0,0,0,0,0,0,0,0,
1702,0,0,0,1723,0,0,0,0,0,0,0,0,0,0,0,0,0,0,
1719,0,0,0,1706,0,0,0,0,0,0,0,0,0,0,0,0,0,0,
1719,0,0,0,1723,0,0,0,0,0,0,0,0,0,0,0,0,0,0,
1702,0,0,1516,1723,1600,0,0,0,0,0,0,0,0,0,0,0,0,0,
1719,0,0,1550,1740,1617,0,443,1073743389,1073743389,1073743389,1073743389,0,0,0,0,0,0,0,
0,0,0,1563,1516,1634,1672,2028,1530,1531,1532,1532,0,0,0,0,0,0,0,
0,0,0,0,0,0,0,0,0,0,0,216,2028,0,0,0,0,0,0,
0,0,0,0,1550,0,1740,2028,0,0,0,248,443,0,0,0,0,0,0,
1755,1754,1755,1755,2151,1755,1757,2028,0,0,0,280,0,0,0,0,0,0,0,
2190,2191,1904,1905,2194,2195,2196,2197,1550,0,0,2201,2202,2203,1904,1905,2206,2207,2208,
2233,2234,1947,1948,2237,0,0,0,0,0,0,0,0,0,1947,1948,2249,2250,2251,
2276,0,0,0,2222,0,2358,0,0,0,0,0,0,2313,0,0,0,2293,2294,
2319,0,0,0,0,0,0,0,0,0,0,0,0,0,0,0,0,2336,2337,
2362,2363,2364,2365,2366,0,0,0,0,0,0,0,0,0,2376,2377,2378,2379,2380,
0,0,0,0,0,2410,2411,2412,2413,2414,2415,2416,2417,2418,0,0,0,0,0,
0,443,0,0,0,0,0,0,0,0,0,0,0,0,0,0,0,443,0,
0,0,0,2494,0,0,0,0,0,443,0,0,0,0,0,0,0,0,0
</data>
 </layer>
 <layer id="14" name="Buildings1" width="19" height="18">
  <data encoding="csv">
0,0,0,0,0,0,0,0,0,0,0,0,0,0,0,0,0,0,0,
0,0,0,0,0,0,0,0,0,0,0,0,0,0,0,0,0,0,0,
0,0,0,0,0,0,0,0,0,0,0,0,0,0,0,0,0,0,0,
0,0,0,0,0,0,0,0,0,0,0,0,0,0,0,0,0,0,0,
0,0,0,0,0,0,0,0,0,0,0,0,0,0,0,0,0,0,0,
0,0,0,0,0,0,0,0,0,0,0,0,0,0,0,0,0,0,0,
0,0,0,0,0,0,0,0,181,182,183,0,0,0,0,0,0,0,0,
0,0,0,0,0,0,0,0,0,0,0,0,0,0,0,0,0,0,0,
0,0,0,0,0,0,0,0,0,0,0,0,0,0,0,0,0,0,0,
0,2148,2149,0,0,0,0,0,0,0,0,0,0,0,0,2162,0,0,0,
2190,2191,0,0,2194,0,0,0,0,0,0,0,0,0,0,0,0,0,0,
0,0,0,0,0,0,0,0,0,0,0,0,0,0,0,0,0,0,0,
0,0,0,0,0,0,0,0,0,0,0,0,0,0,0,0,0,2293,0,
0,0,0,0,0,0,0,0,0,0,0,0,0,0,0,0,0,2336,0,
0,0,0,0,0,0,0,0,0,0,0,0,0,0,0,0,0,2379,0,
0,0,0,0,0,0,0,0,0,0,0,0,0,0,0,0,0,2422,0,
0,0,0,0,0,0,0,0,0,0,0,0,0,0,0,0,0,0,0,
0,0,0,0,0,0,0,0,0,0,0,0,0,0,0,0,0,0,0
</data>
 </layer>
 <layer id="5" name="Front" width="19" height="18">
  <data encoding="csv">
0,0,0,0,0,0,0,0,0,0,0,0,0,0,0,0,0,0,0,
0,0,0,0,0,0,0,0,0,0,0,0,0,1840,0,0,0,0,0,
0,0,0,0,0,0,0,0,0,0,0,0,0,0,0,0,0,0,0,
0,0,0,0,0,1602,0,0,0,0,0,0,0,0,0,0,0,0,0,
0,0,0,0,0,1600,0,0,0,0,0,0,0,0,0,0,0,0,0,
0,0,0,0,0,0,0,0,149,150,151,152,0,0,0,0,0,0,0,
0,0,0,0,0,0,0,0,0,0,0,184,0,0,0,0,0,0,0,
0,0,0,0,0,0,0,0,0,0,0,0,0,0,0,0,0,0,0,
0,0,0,0,0,0,0,0,0,0,0,0,0,0,0,0,0,0,0,
0,0,0,0,2151,2152,2153,2154,0,0,0,2158,2159,2160,2161,0,0,0,0,
0,0,0,0,2136,0,0,0,0,0,0,0,0,2227,0,0,0,0,0,
0,0,0,0,2179,0,2315,0,0,0,0,0,0,2270,0,0,0,0,0,
2469,2470,0,0,0,0,0,0,0,0,0,0,0,0,0,0,0,2486,0,
2512,2513,2514,2515,2516,2517,2518,0,0,0,0,0,2524,2525,2526,2527,2528,2529,0,
2555,2556,2557,2558,2559,2560,2561,2562,2563,2564,2565,2566,2567,2568,2569,2570,2571,2572,0,
2598,2599,2600,2601,2602,2603,2604,2605,2606,2607,2608,2609,2610,2611,2612,2613,2614,0,0,
2641,2642,0,2644,2645,2646,2647,2648,2649,2650,2651,2652,2653,2654,2655,2656,0,0,0,
2684,2685,0,2687,0,0,0,0,0,0,0,0,0,0,0,0,0,0,0
</data>
 </layer>
 <layer id="7" name="Paths" width="19" height="18">
  <data encoding="csv">
0,0,0,0,0,0,0,0,0,0,0,0,0,0,0,0,0,0,0,
0,0,0,0,0,0,0,0,0,0,0,0,0,0,0,0,0,0,0,
0,0,0,0,0,0,0,0,0,0,0,0,0,0,0,0,0,0,0,
0,0,0,0,0,0,0,0,0,0,0,0,0,0,0,0,0,0,0,
0,0,0,0,0,0,0,0,0,0,0,0,0,0,0,0,0,0,0,
0,0,0,0,0,0,0,1177,0,0,0,0,0,0,0,0,0,0,0,
0,0,0,0,0,0,0,0,0,0,0,0,0,0,0,0,0,0,0,
0,0,0,0,0,0,0,0,0,0,0,0,0,0,0,0,0,0,0,
0,0,0,0,0,0,0,0,0,0,0,0,1177,0,0,0,0,0,0,
0,0,0,0,1177,0,0,0,0,0,0,0,0,0,0,0,0,0,0,
0,0,0,0,0,0,1177,0,0,0,0,0,0,0,0,0,0,0,0,
0,0,0,0,0,0,0,0,0,0,0,0,0,0,0,0,0,0,0,
0,0,0,0,0,0,0,0,0,0,0,0,0,0,0,0,0,0,0,
0,0,0,0,0,0,0,0,0,0,0,0,0,0,0,0,0,0,0,
0,0,0,0,0,0,0,0,0,0,0,0,0,0,0,0,0,0,0,
0,0,0,0,0,0,0,0,0,0,0,0,0,0,0,0,0,0,0,
0,1177,0,0,0,0,0,0,0,0,0,0,0,0,0,0,0,1177,0,
0,0,0,0,0,0,0,0,0,1177,0,0,0,0,0,0,0,0,0
</data>
 </layer>
 <layer id="11" name="AlwaysFront" width="19" height="18">
  <data encoding="csv">
0,0,0,0,0,0,0,0,0,3566,3567,3568,3569,3570,0,0,0,0,0,
0,0,0,0,0,0,0,0,0,3609,3610,3611,3612,3613,1817,0,0,0,0,
3566,3567,3568,3569,3570,0,0,0,0,0,0,0,0,1859,1860,0,0,0,0,
3609,3610,3611,3612,3613,0,0,0,0,0,0,0,0,1902,1903,0,0,0,0,
0,0,0,0,0,0,0,0,0,0,0,0,0,2977,1946,0,0,0,0,
0,0,0,1978,0,0,0,0,0,0,0,0,0,3020,1989,1990,1991,1992,0,
0,0,0,2021,0,0,0,0,0,0,0,0,0,2031,2032,2033,2034,2035,0,
0,0,2063,3096,0,0,0,0,0,0,0,0,0,2074,2075,2076,2077,2078,0,
0,2105,2106,3139,0,0,0,0,0,0,0,0,0,3149,2118,2119,2120,2121,0,
0,0,3181,3182,3183,0,0,0,0,0,0,0,0,3192,3193,0,2163,2164,0,
0,0,0,0,0,0,0,0,0,0,0,0,0,0,0,0,0,0,0,
0,0,0,0,0,0,0,0,0,0,0,0,0,0,0,0,0,2250,0,
0,0,0,0,0,0,0,0,0,0,0,0,0,0,0,0,0,2293,0,
0,0,0,0,0,0,0,0,0,0,0,0,0,0,0,0,0,2336,0,
0,0,0,0,3330,3331,3332,3333,3334,3336,3337,3338,3339,3340,0,0,2637,2638,0,
3738,3739,2665,0,3373,3374,3375,3376,3377,3379,3380,3381,3382,3383,0,2679,3755,3756,0,
3781,3782,3783,3784,3785,2711,2712,2713,2714,2716,2717,2718,2719,3795,3796,3797,3798,3799,0,
3824,3825,3826,3827,3828,3829,3830,3831,3832,3833,3834,3835,3836,3837,3838,3839,3840,3841,3842
</data>
 </layer>
 <layer id="15" name="AlwaysFront1" width="19" height="18">
  <data encoding="csv">
0,0,0,0,0,0,0,0,0,0,0,0,0,0,0,0,0,0,0,
0,0,0,0,0,0,0,0,0,0,0,0,0,0,0,0,0,0,0,
0,0,0,0,0,0,0,0,0,0,0,0,0,0,0,0,0,0,0,
0,0,0,0,3472,3473,0,0,0,0,0,0,0,0,0,0,0,0,0,
0,0,0,0,3515,3516,0,0,0,0,0,0,0,0,0,0,0,0,0,
0,0,0,0,3558,3559,0,0,0,0,0,0,0,0,0,0,0,0,0,
0,0,0,0,3601,3602,0,0,0,0,0,0,0,0,0,0,0,0,0,
0,0,0,0,3644,3645,0,0,0,0,0,0,0,0,0,0,0,0,0,
0,0,0,0,3687,3688,0,0,0,0,0,0,0,0,0,0,0,0,0,
0,0,0,0,0,0,0,0,0,0,0,0,0,0,0,0,0,0,0,
0,0,0,0,0,0,0,0,0,0,0,0,0,0,0,0,0,0,0,
0,0,0,0,0,0,0,0,0,0,0,0,0,0,0,0,0,0,0,
0,0,0,0,0,0,0,0,0,0,0,0,0,0,0,0,0,0,0,
0,0,0,0,0,0,0,0,0,0,0,0,0,0,0,0,0,0,0,
0,0,0,0,0,0,0,0,0,0,0,0,0,0,0,0,0,0,0,
0,0,0,0,0,0,0,0,0,0,0,0,0,0,0,0,0,0,0,
0,0,0,0,0,0,0,0,0,0,0,0,0,0,0,0,0,0,0,
0,0,0,0,0,0,0,0,0,0,0,0,0,0,0,0,0,0,0
</data>
 </layer>
 <objectgroup id="2" name="Back" visible="0">
  <object id="5" name="TileData" x="80" y="112" width="16" height="16">
   <properties>
    <property name="Type" value="Wood"/>
   </properties>
  </object>
  <object id="6" name="TileData" x="96" y="112" width="16" height="16">
   <properties>
    <property name="Type" value="Wood"/>
   </properties>
  </object>
  <object id="7" name="TileData" x="112" y="112" width="16" height="16">
   <properties>
    <property name="Type" value="Wood"/>
   </properties>
  </object>
  <object id="8" name="TileData" x="128" y="112" width="16" height="16">
   <properties>
    <property name="Type" value="Wood"/>
   </properties>
  </object>
  <object id="9" name="TileData" x="144" y="112" width="16" height="16">
   <properties>
    <property name="Type" value="Wood"/>
   </properties>
  </object>
  <object id="10" name="TileData" x="160" y="112" width="16" height="16">
   <properties>
    <property name="Type" value="Wood"/>
   </properties>
  </object>
  <object id="11" name="TileData" x="160" y="128" width="16" height="16">
   <properties>
    <property name="Type" value="Wood"/>
   </properties>
  </object>
  <object id="12" name="TileData" x="144" y="128" width="16" height="16">
   <properties>
    <property name="Type" value="Wood"/>
   </properties>
  </object>
  <object id="13" name="TileData" x="128" y="128" width="16" height="16">
   <properties>
    <property name="Type" value="Wood"/>
   </properties>
  </object>
  <object id="14" name="TileData" x="128" y="144" width="16" height="16">
   <properties>
    <property name="Type" value="Wood"/>
   </properties>
  </object>
  <object id="15" name="TileData" x="144" y="144" width="16" height="16">
   <properties>
    <property name="Type" value="Wood"/>
   </properties>
  </object>
  <object id="16" name="TileData" x="160" y="144" width="16" height="16">
   <properties>
    <property name="Type" value="Wood"/>
   </properties>
  </object>
  <object id="17" name="TileData" x="160" y="160" width="16" height="16">
   <properties>
    <property name="Type" value="Wood"/>
   </properties>
  </object>
  <object id="18" name="TileData" x="144" y="160" width="16" height="16">
   <properties>
    <property name="Type" value="Wood"/>
   </properties>
  </object>
  <object id="19" name="TileData" x="128" y="160" width="16" height="16">
   <properties>
    <property name="Type" value="Wood"/>
   </properties>
  </object>
  <object id="20" name="TileData" x="16" y="176" width="256" height="48">
   <properties>
    <property name="Type" value="Wood"/>
   </properties>
  </object>
  <object id="21" name="TileData" x="80" y="224" width="144" height="16">
   <properties>
    <property name="Type" value="Wood"/>
   </properties>
  </object>
  <object id="22" name="TileData" x="272" y="192" width="16" height="16">
   <properties>
    <property name="Type" value="Wood"/>
   </properties>
  </object>
 </objectgroup>
 <objectgroup id="4" name="Buildings"/>
 <objectgroup id="6" name="Front"/>
 <objectgroup id="8" name="Paths"/>
 <objectgroup id="12" name="AlwaysFront"/>
</map>
