<?xml version="1.0" encoding="UTF-8"?>
<map version="1.10" tiledversion="1.10.2" orientation="orthogonal" renderorder="right-down" compressionlevel="0" width="37" height="25" tilewidth="16" tileheight="16" infinite="0" nextlayerid="34" nextobjectid="240">
 <properties>
  <property name="AllowGrassSurviveInWinter" value="T"/>
  <property name="Arch" value="116 .005 117 .003 118 .02 126 .0001"/>
  <property name="DayTiles" value="Front 44 31 369 Front 90 35 369"/>
  <property name="Debris" value="8 .025 4 6 .008 4"/>
  <property name="Fall_Objects" value="372 .9 382 .6"/>
  <property name="Fish" value="128 .08 129 .2 130 .1 131 .2 146 .15 147 .2 148 .18 149 .12 150 .2 151 .18 152 .25 154 .15 155 .08 166 .001"/>
  <property name="Light" value="44 33 4 90 35 4 44 32 6 90 36 6"/>
  <property name="NightTiles" value="Front 44 31 368 Front 90 35 368"/>
  <property name="Outdoors" value="T"/>
  <property name="Spring_Objects" value="372 .9"/>
  <property name="Summer_Objects" value="372 .9 394 .5"/>
  <property name="Warp" value="37 -1 Town 58 115 38 -1 Town 58 115 39 -1 Town 58 115 40 -1 Town 58 115"/>
  <property name="Winter_Objects" value="392 .8"/>
 </properties>
 <tileset firstgid="1" name="v16_Shadows" tilewidth="16" tileheight="16" tilecount="475" columns="19">
  <image source="spring_Shadows" width="304" height="400"/>
 </tileset>
 <tileset firstgid="476" name="z_aimon_bextras" tilewidth="16" tileheight="16" tilecount="144" columns="12">
  <image source="z_aimon_bextras.png" width="207" height="192"/>
 </tileset>
 <tileset firstgid="620" name="untitled tile sheet" tilewidth="16" tileheight="16" tilecount="527" columns="17">
  <image source="spring_beach" width="272" height="496"/>
  <tile id="7">
   <properties>
    <property name="Water" value="T"/>
   </properties>
  </tile>
  <tile id="8">
   <properties>
    <property name="Water" value="T"/>
   </properties>
  </tile>
  <tile id="18">
   <properties>
    <property name="Diggable" value="T"/>
    <property name="Type" value="Dirt"/>
   </properties>
  </tile>
  <tile id="19">
   <properties>
    <property name="Diggable" value="T"/>
    <property name="Type" value="Dirt"/>
   </properties>
  </tile>
  <tile id="20">
   <properties>
    <property name="Diggable" value="T"/>
    <property name="Type" value="Dirt"/>
   </properties>
  </tile>
  <tile id="21">
   <properties>
    <property name="Type" value="Dirt"/>
   </properties>
  </tile>
  <tile id="22">
   <properties>
    <property name="Diggable" value="T"/>
    <property name="Type" value="Dirt"/>
   </properties>
  </tile>
  <tile id="23">
   <properties>
    <property name="Type" value="Dirt"/>
   </properties>
  </tile>
  <tile id="24">
   <properties>
    <property name="Type" value="Dirt"/>
   </properties>
  </tile>
  <tile id="25">
   <properties>
    <property name="Diggable" value="T"/>
    <property name="Type" value="Dirt"/>
   </properties>
  </tile>
  <tile id="26">
   <properties>
    <property name="Diggable" value="T"/>
    <property name="Type" value="Dirt"/>
   </properties>
  </tile>
  <tile id="41">
   <properties>
    <property name="Diggable" value="T"/>
    <property name="Type" value="Dirt"/>
   </properties>
  </tile>
  <tile id="42">
   <properties>
    <property name="Diggable" value="T"/>
    <property name="Spawnable" value="T"/>
    <property name="Type" value="Dirt"/>
   </properties>
  </tile>
  <tile id="43">
   <properties>
    <property name="Diggable" value="T"/>
   </properties>
  </tile>
  <tile id="51">
   <properties>
    <property name="Type" value="Dirt"/>
   </properties>
  </tile>
  <tile id="52">
   <properties>
    <property name="Type" value="Dirt"/>
   </properties>
  </tile>
  <tile id="53">
   <properties>
    <property name="Type" value="Dirt"/>
   </properties>
  </tile>
  <tile id="54">
   <properties>
    <property name="Type" value="Dirt"/>
   </properties>
  </tile>
  <tile id="56">
   <properties>
    <property name="Type" value="Stone"/>
   </properties>
  </tile>
  <tile id="58">
   <properties>
    <property name="Type" value="Dirt"/>
   </properties>
  </tile>
  <tile id="59">
   <properties>
    <property name="Diggable" value="T"/>
    <property name="Type" value="Dirt"/>
   </properties>
  </tile>
  <tile id="60">
   <properties>
    <property name="Type" value="Stone"/>
   </properties>
  </tile>
  <tile id="61">
   <properties>
    <property name="Type" value="Stone"/>
   </properties>
  </tile>
  <tile id="62">
   <properties>
    <property name="Type" value="Stone"/>
   </properties>
  </tile>
  <tile id="63">
   <properties>
    <property name="Type" value="Stone"/>
   </properties>
  </tile>
  <tile id="68">
   <properties>
    <property name="Type" value="Dirt"/>
   </properties>
  </tile>
  <tile id="69">
   <properties>
    <property name="Diggable" value="T"/>
    <property name="Type" value="Dirt"/>
   </properties>
  </tile>
  <tile id="70">
   <properties>
    <property name="Diggable" value="T"/>
    <property name="Type" value="Dirt"/>
   </properties>
  </tile>
  <tile id="71">
   <properties>
    <property name="Type" value="Dirt"/>
   </properties>
  </tile>
  <tile id="75">
   <properties>
    <property name="Water" value="T"/>
   </properties>
  </tile>
  <tile id="77">
   <properties>
    <property name="Type" value="Stone"/>
   </properties>
  </tile>
  <tile id="78">
   <properties>
    <property name="Type" value="Stone"/>
   </properties>
  </tile>
  <tile id="79">
   <properties>
    <property name="Type" value="Stone"/>
   </properties>
  </tile>
  <tile id="80">
   <properties>
    <property name="Type" value="Stone"/>
   </properties>
   <animation>
    <frame tileid="80" duration="600"/>
    <frame tileid="337" duration="600"/>
    <frame tileid="338" duration="600"/>
    <frame tileid="337" duration="600"/>
   </animation>
  </tile>
  <tile id="81">
   <properties>
    <property name="Type" value="Grass"/>
   </properties>
  </tile>
  <tile id="82">
   <properties>
    <property name="Type" value="Grass"/>
   </properties>
  </tile>
  <tile id="85">
   <properties>
    <property name="Type" value="Dirt"/>
   </properties>
  </tile>
  <tile id="86">
   <properties>
    <property name="Diggable" value="T"/>
    <property name="Type" value="Dirt"/>
   </properties>
  </tile>
  <tile id="87">
   <properties>
    <property name="Diggable" value="T"/>
    <property name="Type" value="Dirt"/>
   </properties>
  </tile>
  <tile id="88">
   <properties>
    <property name="Type" value="Dirt"/>
   </properties>
  </tile>
  <tile id="89">
   <properties>
    <property name="Water" value="T"/>
   </properties>
  </tile>
  <tile id="90">
   <properties>
    <property name="Water" value="T"/>
   </properties>
  </tile>
  <tile id="91">
   <properties>
    <property name="Water" value="T"/>
   </properties>
  </tile>
  <tile id="92">
   <properties>
    <property name="Water" value="T"/>
   </properties>
  </tile>
  <tile id="93">
   <properties>
    <property name="Water" value="T"/>
   </properties>
  </tile>
  <tile id="94">
   <properties>
    <property name="Type" value="Stone"/>
   </properties>
  </tile>
  <tile id="95">
   <properties>
    <property name="Type" value="Stone"/>
   </properties>
  </tile>
  <tile id="96">
   <properties>
    <property name="Type" value="Stone"/>
   </properties>
  </tile>
  <tile id="97">
   <properties>
    <property name="Type" value="Stone"/>
   </properties>
  </tile>
  <tile id="100">
   <properties>
    <property name="Type" value="Grass"/>
   </properties>
  </tile>
  <tile id="101">
   <properties>
    <property name="Type" value="Grass"/>
   </properties>
  </tile>
  <tile id="107">
   <properties>
    <property name="Type" value="Dirt"/>
    <property name="Water" value="T"/>
   </properties>
  </tile>
  <tile id="108">
   <properties>
    <property name="Water" value="T"/>
   </properties>
  </tile>
  <tile id="109">
   <properties>
    <property name="Water" value="T"/>
   </properties>
  </tile>
  <tile id="110">
   <properties>
    <property name="Water" value="T"/>
   </properties>
  </tile>
  <tile id="111">
   <properties>
    <property name="Type" value="Stone"/>
   </properties>
  </tile>
  <tile id="112">
   <properties>
    <property name="Type" value="Stone"/>
   </properties>
  </tile>
  <tile id="113">
   <properties>
    <property name="Type" value="Stone"/>
   </properties>
  </tile>
  <tile id="114">
   <properties>
    <property name="Type" value="Stone"/>
   </properties>
  </tile>
  <tile id="117">
   <properties>
    <property name="Type" value="Grass"/>
   </properties>
  </tile>
  <tile id="118">
   <properties>
    <property name="Type" value="Grass"/>
   </properties>
  </tile>
  <tile id="124">
   <properties>
    <property name="Water" value="T"/>
   </properties>
  </tile>
  <tile id="125">
   <properties>
    <property name="Water" value="T"/>
   </properties>
  </tile>
  <tile id="126">
   <properties>
    <property name="Water" value="T"/>
   </properties>
  </tile>
  <tile id="127">
   <properties>
    <property name="Water" value="T"/>
   </properties>
  </tile>
  <tile id="128">
   <properties>
    <property name="Passable" value="T"/>
    <property name="Type" value="Dirt"/>
   </properties>
  </tile>
  <tile id="129">
   <properties>
    <property name="Water" value="T"/>
   </properties>
  </tile>
  <tile id="130">
   <properties>
    <property name="Water" value="T"/>
   </properties>
  </tile>
  <tile id="131">
   <properties>
    <property name="Passable" value="F"/>
    <property name="Water" value="T"/>
   </properties>
  </tile>
  <tile id="141">
   <properties>
    <property name="Passable" value="T"/>
    <property name="Type" value="Dirt"/>
   </properties>
   <animation>
    <frame tileid="141" duration="250"/>
    <frame tileid="142" duration="250"/>
    <frame tileid="143" duration="250"/>
    <frame tileid="144" duration="250"/>
    <frame tileid="144" duration="250"/>
    <frame tileid="145" duration="250"/>
    <frame tileid="146" duration="250"/>
    <frame tileid="147" duration="250"/>
    <frame tileid="141" duration="250"/>
    <frame tileid="141" duration="250"/>
    <frame tileid="141" duration="250"/>
   </animation>
  </tile>
  <tile id="142">
   <properties>
    <property name="Passable" value="T"/>
    <property name="Type" value="Dirt"/>
   </properties>
  </tile>
  <tile id="143">
   <properties>
    <property name="Passable" value="T"/>
    <property name="Type" value="Dirt"/>
   </properties>
  </tile>
  <tile id="144">
   <properties>
    <property name="Passable" value="T"/>
    <property name="Type" value="Dirt"/>
   </properties>
  </tile>
  <tile id="145">
   <properties>
    <property name="Passable" value="T"/>
    <property name="Type" value="Dirt"/>
   </properties>
  </tile>
  <tile id="146">
   <properties>
    <property name="Passable" value="T"/>
    <property name="Type" value="Dirt"/>
   </properties>
  </tile>
  <tile id="147">
   <properties>
    <property name="Passable" value="T"/>
    <property name="Type" value="Dirt"/>
   </properties>
  </tile>
  <tile id="148">
   <properties>
    <property name="Water" value="T"/>
   </properties>
  </tile>
  <tile id="158">
   <properties>
    <property name="Passable" value="T"/>
    <property name="Type" value="Dirt"/>
   </properties>
   <animation>
    <frame tileid="158" duration="250"/>
    <frame tileid="159" duration="250"/>
    <frame tileid="160" duration="250"/>
    <frame tileid="161" duration="250"/>
    <frame tileid="161" duration="250"/>
    <frame tileid="162" duration="250"/>
    <frame tileid="163" duration="250"/>
    <frame tileid="164" duration="250"/>
    <frame tileid="158" duration="250"/>
    <frame tileid="158" duration="250"/>
    <frame tileid="158" duration="250"/>
   </animation>
  </tile>
  <tile id="159">
   <properties>
    <property name="Passable" value="T"/>
    <property name="Type" value="Dirt"/>
   </properties>
  </tile>
  <tile id="160">
   <properties>
    <property name="Passable" value="T"/>
    <property name="Type" value="Dirt"/>
   </properties>
  </tile>
  <tile id="161">
   <properties>
    <property name="Passable" value="T"/>
    <property name="Type" value="Dirt"/>
   </properties>
  </tile>
  <tile id="162">
   <properties>
    <property name="Passable" value="T"/>
    <property name="Type" value="Dirt"/>
   </properties>
  </tile>
  <tile id="163">
   <properties>
    <property name="Passable" value="T"/>
    <property name="Type" value="Dirt"/>
   </properties>
  </tile>
  <tile id="164">
   <properties>
    <property name="Passable" value="T"/>
    <property name="Type" value="Dirt"/>
   </properties>
  </tile>
  <tile id="165">
   <properties>
    <property name="Passable" value="F"/>
    <property name="Water" value="T"/>
   </properties>
  </tile>
  <tile id="169">
   <properties>
    <property name="Type" value="Stone"/>
   </properties>
  </tile>
  <tile id="175">
   <properties>
    <property name="Passable" value="T"/>
    <property name="Type" value="Dirt"/>
   </properties>
   <animation>
    <frame tileid="175" duration="250"/>
    <frame tileid="176" duration="250"/>
    <frame tileid="177" duration="250"/>
    <frame tileid="178" duration="250"/>
    <frame tileid="178" duration="250"/>
    <frame tileid="179" duration="250"/>
    <frame tileid="180" duration="250"/>
    <frame tileid="181" duration="250"/>
    <frame tileid="175" duration="250"/>
    <frame tileid="175" duration="250"/>
    <frame tileid="175" duration="250"/>
   </animation>
  </tile>
  <tile id="176">
   <properties>
    <property name="Passable" value="T"/>
    <property name="Type" value="Dirt"/>
   </properties>
  </tile>
  <tile id="177">
   <properties>
    <property name="Passable" value="T"/>
    <property name="Type" value="Dirt"/>
   </properties>
  </tile>
  <tile id="178">
   <properties>
    <property name="Passable" value="T"/>
    <property name="Type" value="Dirt"/>
   </properties>
  </tile>
  <tile id="179">
   <properties>
    <property name="Passable" value="T"/>
    <property name="Type" value="Dirt"/>
   </properties>
  </tile>
  <tile id="180">
   <properties>
    <property name="Passable" value="T"/>
    <property name="Type" value="Dirt"/>
   </properties>
  </tile>
  <tile id="181">
   <properties>
    <property name="Passable" value="T"/>
    <property name="Type" value="Dirt"/>
   </properties>
  </tile>
  <tile id="185">
   <properties>
    <property name="Water" value="T"/>
   </properties>
  </tile>
  <tile id="186">
   <properties>
    <property name="Type" value="Stone"/>
   </properties>
  </tile>
  <tile id="192">
   <properties>
    <property name="Passable" value="T"/>
    <property name="Type" value="Dirt"/>
   </properties>
   <animation>
    <frame tileid="192" duration="250"/>
    <frame tileid="193" duration="250"/>
    <frame tileid="194" duration="250"/>
    <frame tileid="195" duration="250"/>
    <frame tileid="195" duration="250"/>
    <frame tileid="196" duration="250"/>
    <frame tileid="197" duration="250"/>
    <frame tileid="198" duration="250"/>
    <frame tileid="192" duration="250"/>
    <frame tileid="192" duration="250"/>
    <frame tileid="192" duration="250"/>
   </animation>
  </tile>
  <tile id="193">
   <properties>
    <property name="Passable" value="T"/>
    <property name="Type" value="Dirt"/>
   </properties>
  </tile>
  <tile id="194">
   <properties>
    <property name="Passable" value="T"/>
    <property name="Type" value="Dirt"/>
   </properties>
  </tile>
  <tile id="195">
   <properties>
    <property name="Passable" value="T"/>
    <property name="Type" value="Dirt"/>
   </properties>
  </tile>
  <tile id="196">
   <properties>
    <property name="Passable" value="T"/>
    <property name="Type" value="Dirt"/>
   </properties>
  </tile>
  <tile id="197">
   <properties>
    <property name="Passable" value="T"/>
    <property name="Type" value="Dirt"/>
   </properties>
  </tile>
  <tile id="198">
   <properties>
    <property name="Passable" value="T"/>
    <property name="Type" value="Dirt"/>
   </properties>
  </tile>
  <tile id="202">
   <properties>
    <property name="Diggable" value="T"/>
   </properties>
  </tile>
  <tile id="203">
   <properties>
    <property name="Water" value="T"/>
   </properties>
  </tile>
  <tile id="209">
   <properties>
    <property name="Passable" value="T"/>
    <property name="Type" value="Dirt"/>
   </properties>
   <animation>
    <frame tileid="209" duration="250"/>
    <frame tileid="210" duration="250"/>
    <frame tileid="211" duration="250"/>
    <frame tileid="212" duration="250"/>
    <frame tileid="212" duration="250"/>
    <frame tileid="213" duration="250"/>
    <frame tileid="214" duration="250"/>
    <frame tileid="215" duration="250"/>
    <frame tileid="209" duration="250"/>
    <frame tileid="209" duration="250"/>
    <frame tileid="209" duration="250"/>
   </animation>
  </tile>
  <tile id="210">
   <properties>
    <property name="Passable" value="T"/>
    <property name="Type" value="Dirt"/>
   </properties>
  </tile>
  <tile id="211">
   <properties>
    <property name="Passable" value="T"/>
    <property name="Type" value="Dirt"/>
   </properties>
  </tile>
  <tile id="212">
   <properties>
    <property name="Passable" value="T"/>
    <property name="Type" value="Dirt"/>
   </properties>
  </tile>
  <tile id="213">
   <properties>
    <property name="Passable" value="T"/>
    <property name="Type" value="Dirt"/>
   </properties>
  </tile>
  <tile id="214">
   <properties>
    <property name="Passable" value="T"/>
    <property name="Type" value="Dirt"/>
   </properties>
  </tile>
  <tile id="215">
   <properties>
    <property name="Passable" value="T"/>
    <property name="Type" value="Dirt"/>
   </properties>
  </tile>
  <tile id="216">
   <animation>
    <frame tileid="216" duration="1000"/>
    <frame tileid="267" duration="1000"/>
   </animation>
  </tile>
  <tile id="217">
   <animation>
    <frame tileid="217" duration="1000"/>
    <frame tileid="268" duration="1000"/>
   </animation>
  </tile>
  <tile id="218">
   <animation>
    <frame tileid="218" duration="1000"/>
    <frame tileid="269" duration="1000"/>
   </animation>
  </tile>
  <tile id="219">
   <properties>
    <property name="Type" value="Stone"/>
   </properties>
  </tile>
  <tile id="220">
   <properties>
    <property name="Type" value="Stone"/>
   </properties>
  </tile>
  <tile id="226">
   <properties>
    <property name="Passable" value="T"/>
    <property name="Type" value="Dirt"/>
   </properties>
   <animation>
    <frame tileid="226" duration="250"/>
    <frame tileid="227" duration="250"/>
    <frame tileid="228" duration="250"/>
    <frame tileid="229" duration="250"/>
    <frame tileid="229" duration="250"/>
    <frame tileid="230" duration="250"/>
    <frame tileid="231" duration="250"/>
    <frame tileid="232" duration="250"/>
    <frame tileid="226" duration="250"/>
    <frame tileid="226" duration="250"/>
    <frame tileid="226" duration="250"/>
   </animation>
  </tile>
  <tile id="227">
   <properties>
    <property name="Passable" value="T"/>
    <property name="Type" value="Dirt"/>
   </properties>
  </tile>
  <tile id="228">
   <properties>
    <property name="Passable" value="T"/>
    <property name="Type" value="Dirt"/>
   </properties>
  </tile>
  <tile id="229">
   <properties>
    <property name="Passable" value="T"/>
    <property name="Type" value="Dirt"/>
   </properties>
  </tile>
  <tile id="230">
   <properties>
    <property name="Passable" value="T"/>
    <property name="Type" value="Dirt"/>
   </properties>
  </tile>
  <tile id="231">
   <properties>
    <property name="Passable" value="T"/>
    <property name="Type" value="Dirt"/>
   </properties>
  </tile>
  <tile id="232">
   <properties>
    <property name="Passable" value="T"/>
    <property name="Type" value="Dirt"/>
   </properties>
  </tile>
  <tile id="233">
   <properties>
    <property name="Water" value="T"/>
   </properties>
  </tile>
  <tile id="234">
   <properties>
    <property name="Water" value="T"/>
   </properties>
  </tile>
  <tile id="235">
   <properties>
    <property name="Water" value="T"/>
   </properties>
  </tile>
  <tile id="236">
   <properties>
    <property name="Type" value="Stone"/>
   </properties>
  </tile>
  <tile id="237">
   <properties>
    <property name="Type" value="Stone"/>
   </properties>
  </tile>
  <tile id="243">
   <properties>
    <property name="Passable" value="T"/>
    <property name="Type" value="Dirt"/>
   </properties>
   <animation>
    <frame tileid="243" duration="250"/>
    <frame tileid="244" duration="250"/>
    <frame tileid="245" duration="250"/>
    <frame tileid="246" duration="250"/>
    <frame tileid="246" duration="250"/>
    <frame tileid="247" duration="250"/>
    <frame tileid="248" duration="250"/>
    <frame tileid="249" duration="250"/>
    <frame tileid="243" duration="250"/>
    <frame tileid="243" duration="250"/>
    <frame tileid="243" duration="250"/>
   </animation>
  </tile>
  <tile id="244">
   <properties>
    <property name="Passable" value="T"/>
    <property name="Type" value="Dirt"/>
   </properties>
  </tile>
  <tile id="245">
   <properties>
    <property name="Passable" value="T"/>
    <property name="Type" value="Dirt"/>
   </properties>
  </tile>
  <tile id="246">
   <properties>
    <property name="Passable" value="T"/>
    <property name="Type" value="Dirt"/>
   </properties>
  </tile>
  <tile id="247">
   <properties>
    <property name="Passable" value="T"/>
    <property name="Type" value="Dirt"/>
   </properties>
  </tile>
  <tile id="248">
   <properties>
    <property name="Passable" value="T"/>
    <property name="Type" value="Dirt"/>
   </properties>
  </tile>
  <tile id="249">
   <properties>
    <property name="Passable" value="T"/>
    <property name="Type" value="Dirt"/>
   </properties>
  </tile>
  <tile id="250">
   <properties>
    <property name="Water" value="T"/>
   </properties>
  </tile>
  <tile id="251">
   <properties>
    <property name="Water" value="T"/>
   </properties>
  </tile>
  <tile id="252">
   <properties>
    <property name="Water" value="T"/>
   </properties>
  </tile>
  <tile id="253">
   <properties>
    <property name="Type" value="Stone"/>
   </properties>
  </tile>
  <tile id="254">
   <properties>
    <property name="Type" value="Stone"/>
   </properties>
  </tile>
  <tile id="260">
   <properties>
    <property name="Passable" value="T"/>
    <property name="Type" value="Dirt"/>
   </properties>
   <animation>
    <frame tileid="260" duration="250"/>
    <frame tileid="261" duration="250"/>
    <frame tileid="262" duration="250"/>
    <frame tileid="263" duration="250"/>
    <frame tileid="263" duration="250"/>
    <frame tileid="264" duration="250"/>
    <frame tileid="265" duration="250"/>
    <frame tileid="266" duration="250"/>
    <frame tileid="260" duration="250"/>
    <frame tileid="260" duration="250"/>
    <frame tileid="260" duration="250"/>
   </animation>
  </tile>
  <tile id="261">
   <properties>
    <property name="Passable" value="T"/>
    <property name="Type" value="Dirt"/>
   </properties>
  </tile>
  <tile id="262">
   <properties>
    <property name="Passable" value="T"/>
    <property name="Type" value="Dirt"/>
   </properties>
  </tile>
  <tile id="263">
   <properties>
    <property name="Passable" value="T"/>
    <property name="Type" value="Dirt"/>
   </properties>
  </tile>
  <tile id="264">
   <properties>
    <property name="Passable" value="T"/>
    <property name="Type" value="Dirt"/>
   </properties>
  </tile>
  <tile id="265">
   <properties>
    <property name="Passable" value="T"/>
    <property name="Type" value="Dirt"/>
   </properties>
  </tile>
  <tile id="266">
   <properties>
    <property name="Passable" value="T"/>
    <property name="Type" value="Dirt"/>
   </properties>
  </tile>
  <tile id="270">
   <properties>
    <property name="Type" value="Stone"/>
   </properties>
  </tile>
  <tile id="271">
   <properties>
    <property name="Type" value="Stone"/>
   </properties>
  </tile>
  <tile id="277">
   <properties>
    <property name="Type" value="Wood"/>
   </properties>
  </tile>
  <tile id="278">
   <properties>
    <property name="Type" value="Wood"/>
   </properties>
  </tile>
  <tile id="279">
   <properties>
    <property name="Type" value="Wood"/>
   </properties>
  </tile>
  <tile id="280">
   <properties>
    <property name="Type" value="Dirt"/>
   </properties>
  </tile>
  <tile id="287">
   <properties>
    <property name="Type" value="Stone"/>
   </properties>
  </tile>
  <tile id="297">
   <properties>
    <property name="Type" value="Wood"/>
   </properties>
  </tile>
  <tile id="298">
   <properties>
    <property name="Type" value="Wood"/>
   </properties>
  </tile>
  <tile id="299">
   <properties>
    <property name="Type" value="Wood"/>
   </properties>
  </tile>
  <tile id="300">
   <properties>
    <property name="Type" value="Wood"/>
   </properties>
  </tile>
  <tile id="301">
   <properties>
    <property name="Passable" value="T"/>
    <property name="Type" value="Wood"/>
   </properties>
  </tile>
  <tile id="302">
   <properties>
    <property name="Type" value="Wood"/>
   </properties>
  </tile>
  <tile id="334">
   <properties>
    <property name="Water" value="T"/>
   </properties>
  </tile>
  <tile id="335">
   <properties>
    <property name="Water" value="T"/>
   </properties>
  </tile>
  <tile id="336">
   <properties>
    <property name="Water" value="T"/>
   </properties>
  </tile>
  <tile id="337">
   <properties>
    <property name="Type" value="Stone"/>
   </properties>
  </tile>
  <tile id="338">
   <properties>
    <property name="Type" value="Stone"/>
   </properties>
  </tile>
  <tile id="339">
   <properties>
    <property name="Passable" value="F"/>
    <property name="Water" value="T"/>
   </properties>
  </tile>
  <tile id="373">
   <properties>
    <property name="Water" value="T"/>
   </properties>
  </tile>
  <tile id="419">
   <properties>
    <property name="Type" value="Wood"/>
   </properties>
  </tile>
  <tile id="420">
   <properties>
    <property name="Type" value="Wood"/>
   </properties>
  </tile>
  <tile id="421">
   <properties>
    <property name="Type" value="Wood"/>
   </properties>
  </tile>
  <tile id="423">
   <properties>
    <property name="Water" value="T"/>
   </properties>
  </tile>
  <tile id="424">
   <properties>
    <property name="Water" value="T"/>
   </properties>
  </tile>
  <tile id="435">
   <properties>
    <property name="Type" value="Wood"/>
   </properties>
  </tile>
  <tile id="440">
   <properties>
    <property name="Water" value="T"/>
   </properties>
  </tile>
  <tile id="441">
   <properties>
    <property name="Water" value="T"/>
   </properties>
  </tile>
  <tile id="453">
   <properties>
    <property name="Type" value="Wood"/>
   </properties>
  </tile>
  <tile id="454">
   <properties>
    <property name="Type" value="Wood"/>
   </properties>
  </tile>
  <tile id="455">
   <properties>
    <property name="Type" value="Wood"/>
   </properties>
  </tile>
  <tile id="458">
   <properties>
    <property name="Water" value="T"/>
   </properties>
  </tile>
  <tile id="470">
   <properties>
    <property name="Type" value="Wood"/>
   </properties>
  </tile>
  <tile id="471">
   <properties>
    <property name="Type" value="Wood"/>
   </properties>
  </tile>
  <tile id="472">
   <properties>
    <property name="Type" value="Wood"/>
   </properties>
  </tile>
  <tile id="475">
   <properties>
    <property name="Water" value="T"/>
   </properties>
  </tile>
  <tile id="487">
   <properties>
    <property name="Type" value="Wood"/>
   </properties>
  </tile>
  <tile id="488">
   <properties>
    <property name="Type" value="Wood"/>
   </properties>
  </tile>
  <tile id="489">
   <properties>
    <property name="Type" value="Wood"/>
   </properties>
  </tile>
  <tile id="491">
   <properties>
    <property name="Type" value="Wood"/>
   </properties>
  </tile>
  <tile id="504">
   <properties>
    <property name="Type" value="Wood"/>
   </properties>
  </tile>
  <tile id="505">
   <properties>
    <property name="Type" value="Wood"/>
   </properties>
  </tile>
  <tile id="506">
   <properties>
    <property name="Type" value="Wood"/>
   </properties>
  </tile>
  <tile id="508">
   <properties>
    <property name="Type" value="Wood"/>
   </properties>
  </tile>
 </tileset>
 <tileset firstgid="1147" name="Paths" tilewidth="16" tileheight="16" tilecount="64" columns="4">
  <image source="paths.png" width="64" height="256"/>
  <tile id="0">
   <properties>
    <property name="PathType" value="NE"/>
   </properties>
  </tile>
  <tile id="1">
   <properties>
    <property name="PathType" value="SE"/>
   </properties>
  </tile>
  <tile id="2">
   <properties>
    <property name="PathType" value="WS"/>
   </properties>
  </tile>
  <tile id="3">
   <properties>
    <property name="PathType" value="WN"/>
   </properties>
  </tile>
  <tile id="4">
   <properties>
    <property name="PathType" value="Crossroad"/>
   </properties>
  </tile>
  <tile id="7">
   <properties>
    <property name="PathType" value="End"/>
   </properties>
  </tile>
 </tileset>
 <tileset firstgid="1211" name="zspring_town" tilewidth="16" tileheight="16" tilecount="2304" columns="32">
  <image source="spring_town.png" width="512" height="1152"/>
 </tileset>
 <tileset firstgid="3515" source="untitled tile sheet.tsx"/>
 <tileset firstgid="4042" name="z_spring_outdoorsTileSheet" tilewidth="16" tileheight="16" tilecount="1975" columns="25">
  <image source="spring_outdoorsTileSheet.png" width="400" height="1264"/>
 </tileset>
 <tileset firstgid="6017" name="untitled tile sheet" tilewidth="16" tileheight="16" tilecount="527" columns="17">
  <image source="summer_beach" width="272" height="496"/>
  <tile id="7">
   <properties>
    <property name="Water" value="T"/>
   </properties>
  </tile>
  <tile id="8">
   <properties>
    <property name="Water" value="T"/>
   </properties>
  </tile>
  <tile id="18">
   <properties>
    <property name="Diggable" value="T"/>
    <property name="Type" value="Dirt"/>
   </properties>
  </tile>
  <tile id="19">
   <properties>
    <property name="Diggable" value="T"/>
    <property name="Type" value="Dirt"/>
   </properties>
  </tile>
  <tile id="20">
   <properties>
    <property name="Diggable" value="T"/>
    <property name="Type" value="Dirt"/>
   </properties>
  </tile>
  <tile id="21">
   <properties>
    <property name="Type" value="Dirt"/>
   </properties>
  </tile>
  <tile id="22">
   <properties>
    <property name="Diggable" value="T"/>
    <property name="Type" value="Dirt"/>
   </properties>
  </tile>
  <tile id="23">
   <properties>
    <property name="Type" value="Dirt"/>
   </properties>
  </tile>
  <tile id="24">
   <properties>
    <property name="Type" value="Dirt"/>
   </properties>
  </tile>
  <tile id="25">
   <properties>
    <property name="Diggable" value="T"/>
    <property name="Type" value="Dirt"/>
   </properties>
  </tile>
  <tile id="26">
   <properties>
    <property name="Diggable" value="T"/>
    <property name="Type" value="Dirt"/>
   </properties>
  </tile>
  <tile id="41">
   <properties>
    <property name="Diggable" value="T"/>
    <property name="Type" value="Dirt"/>
   </properties>
  </tile>
  <tile id="42">
   <properties>
    <property name="Diggable" value="T"/>
    <property name="Spawnable" value="T"/>
    <property name="Type" value="Dirt"/>
   </properties>
  </tile>
  <tile id="43">
   <properties>
    <property name="Diggable" value="T"/>
   </properties>
  </tile>
  <tile id="51">
   <properties>
    <property name="Type" value="Dirt"/>
   </properties>
  </tile>
  <tile id="52">
   <properties>
    <property name="Type" value="Dirt"/>
   </properties>
  </tile>
  <tile id="53">
   <properties>
    <property name="Type" value="Dirt"/>
   </properties>
  </tile>
  <tile id="54">
   <properties>
    <property name="Type" value="Dirt"/>
   </properties>
  </tile>
  <tile id="56">
   <properties>
    <property name="Type" value="Stone"/>
   </properties>
  </tile>
  <tile id="58">
   <properties>
    <property name="Type" value="Dirt"/>
   </properties>
  </tile>
  <tile id="59">
   <properties>
    <property name="Diggable" value="T"/>
    <property name="Type" value="Dirt"/>
   </properties>
  </tile>
  <tile id="68">
   <properties>
    <property name="Type" value="Dirt"/>
   </properties>
  </tile>
  <tile id="69">
   <properties>
    <property name="Diggable" value="T"/>
    <property name="Type" value="Dirt"/>
   </properties>
  </tile>
  <tile id="70">
   <properties>
    <property name="Diggable" value="T"/>
    <property name="Type" value="Dirt"/>
   </properties>
  </tile>
  <tile id="71">
   <properties>
    <property name="Type" value="Dirt"/>
   </properties>
  </tile>
  <tile id="75">
   <properties>
    <property name="Water" value="T"/>
   </properties>
  </tile>
  <tile id="80">
   <animation>
    <frame tileid="80" duration="600"/>
    <frame tileid="337" duration="600"/>
    <frame tileid="338" duration="600"/>
    <frame tileid="337" duration="600"/>
   </animation>
  </tile>
  <tile id="81">
   <properties>
    <property name="Type" value="Grass"/>
   </properties>
  </tile>
  <tile id="82">
   <properties>
    <property name="Type" value="Grass"/>
   </properties>
  </tile>
  <tile id="85">
   <properties>
    <property name="Type" value="Dirt"/>
   </properties>
  </tile>
  <tile id="86">
   <properties>
    <property name="Diggable" value="T"/>
    <property name="Type" value="Dirt"/>
   </properties>
  </tile>
  <tile id="87">
   <properties>
    <property name="Diggable" value="T"/>
    <property name="Type" value="Dirt"/>
   </properties>
  </tile>
  <tile id="88">
   <properties>
    <property name="Type" value="Dirt"/>
   </properties>
  </tile>
  <tile id="89">
   <properties>
    <property name="Water" value="T"/>
   </properties>
  </tile>
  <tile id="90">
   <properties>
    <property name="Water" value="T"/>
   </properties>
  </tile>
  <tile id="91">
   <properties>
    <property name="Water" value="T"/>
   </properties>
  </tile>
  <tile id="92">
   <properties>
    <property name="Water" value="T"/>
   </properties>
  </tile>
  <tile id="93">
   <properties>
    <property name="Water" value="T"/>
   </properties>
  </tile>
  <tile id="100">
   <properties>
    <property name="Type" value="Grass"/>
   </properties>
  </tile>
  <tile id="101">
   <properties>
    <property name="Type" value="Grass"/>
   </properties>
  </tile>
  <tile id="107">
   <properties>
    <property name="Type" value="Dirt"/>
    <property name="Water" value="T"/>
   </properties>
  </tile>
  <tile id="108">
   <properties>
    <property name="Water" value="T"/>
   </properties>
  </tile>
  <tile id="109">
   <properties>
    <property name="Water" value="T"/>
   </properties>
  </tile>
  <tile id="110">
   <properties>
    <property name="Water" value="T"/>
   </properties>
  </tile>
  <tile id="111">
   <properties>
    <property name="Type" value="Stone"/>
   </properties>
  </tile>
  <tile id="112">
   <properties>
    <property name="Type" value="Stone"/>
   </properties>
  </tile>
  <tile id="113">
   <properties>
    <property name="Type" value="Stone"/>
   </properties>
  </tile>
  <tile id="117">
   <properties>
    <property name="Type" value="Grass"/>
   </properties>
  </tile>
  <tile id="118">
   <properties>
    <property name="Type" value="Grass"/>
   </properties>
  </tile>
  <tile id="124">
   <properties>
    <property name="Water" value="T"/>
   </properties>
  </tile>
  <tile id="125">
   <properties>
    <property name="Water" value="T"/>
   </properties>
  </tile>
  <tile id="126">
   <properties>
    <property name="Water" value="T"/>
   </properties>
  </tile>
  <tile id="127">
   <properties>
    <property name="Water" value="T"/>
   </properties>
  </tile>
  <tile id="128">
   <properties>
    <property name="Passable" value="T"/>
    <property name="Type" value="Dirt"/>
   </properties>
  </tile>
  <tile id="129">
   <properties>
    <property name="Water" value="T"/>
   </properties>
  </tile>
  <tile id="130">
   <properties>
    <property name="Water" value="T"/>
   </properties>
  </tile>
  <tile id="131">
   <properties>
    <property name="Passable" value="F"/>
    <property name="Water" value="T"/>
   </properties>
  </tile>
  <tile id="141">
   <properties>
    <property name="Passable" value="T"/>
    <property name="Type" value="Dirt"/>
   </properties>
   <animation>
    <frame tileid="141" duration="250"/>
    <frame tileid="142" duration="250"/>
    <frame tileid="143" duration="250"/>
    <frame tileid="144" duration="250"/>
    <frame tileid="144" duration="250"/>
    <frame tileid="145" duration="250"/>
    <frame tileid="146" duration="250"/>
    <frame tileid="147" duration="250"/>
    <frame tileid="141" duration="250"/>
    <frame tileid="141" duration="250"/>
    <frame tileid="141" duration="250"/>
   </animation>
  </tile>
  <tile id="142">
   <properties>
    <property name="Passable" value="T"/>
    <property name="Type" value="Dirt"/>
   </properties>
  </tile>
  <tile id="143">
   <properties>
    <property name="Passable" value="T"/>
    <property name="Type" value="Dirt"/>
   </properties>
  </tile>
  <tile id="144">
   <properties>
    <property name="Passable" value="T"/>
    <property name="Type" value="Dirt"/>
   </properties>
  </tile>
  <tile id="145">
   <properties>
    <property name="Passable" value="T"/>
    <property name="Type" value="Dirt"/>
   </properties>
  </tile>
  <tile id="146">
   <properties>
    <property name="Passable" value="T"/>
    <property name="Type" value="Dirt"/>
   </properties>
  </tile>
  <tile id="147">
   <properties>
    <property name="Passable" value="T"/>
    <property name="Type" value="Dirt"/>
   </properties>
  </tile>
  <tile id="148">
   <properties>
    <property name="Water" value="T"/>
   </properties>
  </tile>
  <tile id="158">
   <properties>
    <property name="Passable" value="T"/>
    <property name="Type" value="Dirt"/>
   </properties>
   <animation>
    <frame tileid="158" duration="250"/>
    <frame tileid="159" duration="250"/>
    <frame tileid="160" duration="250"/>
    <frame tileid="161" duration="250"/>
    <frame tileid="161" duration="250"/>
    <frame tileid="162" duration="250"/>
    <frame tileid="163" duration="250"/>
    <frame tileid="164" duration="250"/>
    <frame tileid="158" duration="250"/>
    <frame tileid="158" duration="250"/>
    <frame tileid="158" duration="250"/>
   </animation>
  </tile>
  <tile id="159">
   <properties>
    <property name="Passable" value="T"/>
    <property name="Type" value="Dirt"/>
   </properties>
  </tile>
  <tile id="160">
   <properties>
    <property name="Passable" value="T"/>
    <property name="Type" value="Dirt"/>
   </properties>
  </tile>
  <tile id="161">
   <properties>
    <property name="Passable" value="T"/>
    <property name="Type" value="Dirt"/>
   </properties>
  </tile>
  <tile id="162">
   <properties>
    <property name="Passable" value="T"/>
    <property name="Type" value="Dirt"/>
   </properties>
  </tile>
  <tile id="163">
   <properties>
    <property name="Passable" value="T"/>
    <property name="Type" value="Dirt"/>
   </properties>
  </tile>
  <tile id="164">
   <properties>
    <property name="Passable" value="T"/>
    <property name="Type" value="Dirt"/>
   </properties>
  </tile>
  <tile id="165">
   <properties>
    <property name="Passable" value="F"/>
    <property name="Water" value="T"/>
   </properties>
  </tile>
  <tile id="169">
   <properties>
    <property name="Type" value="Stone"/>
   </properties>
  </tile>
  <tile id="175">
   <properties>
    <property name="Passable" value="T"/>
    <property name="Type" value="Dirt"/>
   </properties>
   <animation>
    <frame tileid="175" duration="250"/>
    <frame tileid="176" duration="250"/>
    <frame tileid="177" duration="250"/>
    <frame tileid="178" duration="250"/>
    <frame tileid="178" duration="250"/>
    <frame tileid="179" duration="250"/>
    <frame tileid="180" duration="250"/>
    <frame tileid="181" duration="250"/>
    <frame tileid="175" duration="250"/>
    <frame tileid="175" duration="250"/>
    <frame tileid="175" duration="250"/>
   </animation>
  </tile>
  <tile id="176">
   <properties>
    <property name="Passable" value="T"/>
    <property name="Type" value="Dirt"/>
   </properties>
  </tile>
  <tile id="177">
   <properties>
    <property name="Passable" value="T"/>
    <property name="Type" value="Dirt"/>
   </properties>
  </tile>
  <tile id="178">
   <properties>
    <property name="Passable" value="T"/>
    <property name="Type" value="Dirt"/>
   </properties>
  </tile>
  <tile id="179">
   <properties>
    <property name="Passable" value="T"/>
    <property name="Type" value="Dirt"/>
   </properties>
  </tile>
  <tile id="180">
   <properties>
    <property name="Passable" value="T"/>
    <property name="Type" value="Dirt"/>
   </properties>
  </tile>
  <tile id="181">
   <properties>
    <property name="Passable" value="T"/>
    <property name="Type" value="Dirt"/>
   </properties>
  </tile>
  <tile id="185">
   <properties>
    <property name="Water" value="T"/>
   </properties>
  </tile>
  <tile id="186">
   <properties>
    <property name="Type" value="Stone"/>
   </properties>
  </tile>
  <tile id="192">
   <properties>
    <property name="Passable" value="T"/>
    <property name="Type" value="Dirt"/>
   </properties>
   <animation>
    <frame tileid="192" duration="250"/>
    <frame tileid="193" duration="250"/>
    <frame tileid="194" duration="250"/>
    <frame tileid="195" duration="250"/>
    <frame tileid="195" duration="250"/>
    <frame tileid="196" duration="250"/>
    <frame tileid="197" duration="250"/>
    <frame tileid="198" duration="250"/>
    <frame tileid="192" duration="250"/>
    <frame tileid="192" duration="250"/>
    <frame tileid="192" duration="250"/>
   </animation>
  </tile>
  <tile id="193">
   <properties>
    <property name="Passable" value="T"/>
    <property name="Type" value="Dirt"/>
   </properties>
  </tile>
  <tile id="194">
   <properties>
    <property name="Passable" value="T"/>
    <property name="Type" value="Dirt"/>
   </properties>
  </tile>
  <tile id="195">
   <properties>
    <property name="Passable" value="T"/>
    <property name="Type" value="Dirt"/>
   </properties>
  </tile>
  <tile id="196">
   <properties>
    <property name="Passable" value="T"/>
    <property name="Type" value="Dirt"/>
   </properties>
  </tile>
  <tile id="197">
   <properties>
    <property name="Passable" value="T"/>
    <property name="Type" value="Dirt"/>
   </properties>
  </tile>
  <tile id="198">
   <properties>
    <property name="Passable" value="T"/>
    <property name="Type" value="Dirt"/>
   </properties>
  </tile>
  <tile id="202">
   <properties>
    <property name="Diggable" value="T"/>
   </properties>
  </tile>
  <tile id="203">
   <properties>
    <property name="Water" value="T"/>
   </properties>
  </tile>
  <tile id="209">
   <properties>
    <property name="Passable" value="T"/>
    <property name="Type" value="Dirt"/>
   </properties>
   <animation>
    <frame tileid="209" duration="250"/>
    <frame tileid="210" duration="250"/>
    <frame tileid="211" duration="250"/>
    <frame tileid="212" duration="250"/>
    <frame tileid="212" duration="250"/>
    <frame tileid="213" duration="250"/>
    <frame tileid="214" duration="250"/>
    <frame tileid="215" duration="250"/>
    <frame tileid="209" duration="250"/>
    <frame tileid="209" duration="250"/>
    <frame tileid="209" duration="250"/>
   </animation>
  </tile>
  <tile id="210">
   <properties>
    <property name="Passable" value="T"/>
    <property name="Type" value="Dirt"/>
   </properties>
  </tile>
  <tile id="211">
   <properties>
    <property name="Passable" value="T"/>
    <property name="Type" value="Dirt"/>
   </properties>
  </tile>
  <tile id="212">
   <properties>
    <property name="Passable" value="T"/>
    <property name="Type" value="Dirt"/>
   </properties>
  </tile>
  <tile id="213">
   <properties>
    <property name="Passable" value="T"/>
    <property name="Type" value="Dirt"/>
   </properties>
  </tile>
  <tile id="214">
   <properties>
    <property name="Passable" value="T"/>
    <property name="Type" value="Dirt"/>
   </properties>
  </tile>
  <tile id="215">
   <properties>
    <property name="Passable" value="T"/>
    <property name="Type" value="Dirt"/>
   </properties>
  </tile>
  <tile id="216">
   <animation>
    <frame tileid="216" duration="1000"/>
    <frame tileid="267" duration="1000"/>
   </animation>
  </tile>
  <tile id="217">
   <animation>
    <frame tileid="217" duration="1000"/>
    <frame tileid="268" duration="1000"/>
   </animation>
  </tile>
  <tile id="218">
   <animation>
    <frame tileid="218" duration="1000"/>
    <frame tileid="269" duration="1000"/>
   </animation>
  </tile>
  <tile id="226">
   <properties>
    <property name="Passable" value="T"/>
    <property name="Type" value="Dirt"/>
   </properties>
   <animation>
    <frame tileid="226" duration="250"/>
    <frame tileid="227" duration="250"/>
    <frame tileid="228" duration="250"/>
    <frame tileid="229" duration="250"/>
    <frame tileid="229" duration="250"/>
    <frame tileid="230" duration="250"/>
    <frame tileid="231" duration="250"/>
    <frame tileid="232" duration="250"/>
    <frame tileid="226" duration="250"/>
    <frame tileid="226" duration="250"/>
    <frame tileid="226" duration="250"/>
   </animation>
  </tile>
  <tile id="227">
   <properties>
    <property name="Passable" value="T"/>
    <property name="Type" value="Dirt"/>
   </properties>
  </tile>
  <tile id="228">
   <properties>
    <property name="Passable" value="T"/>
    <property name="Type" value="Dirt"/>
   </properties>
  </tile>
  <tile id="229">
   <properties>
    <property name="Passable" value="T"/>
    <property name="Type" value="Dirt"/>
   </properties>
  </tile>
  <tile id="230">
   <properties>
    <property name="Passable" value="T"/>
    <property name="Type" value="Dirt"/>
   </properties>
  </tile>
  <tile id="231">
   <properties>
    <property name="Passable" value="T"/>
    <property name="Type" value="Dirt"/>
   </properties>
  </tile>
  <tile id="232">
   <properties>
    <property name="Passable" value="T"/>
    <property name="Type" value="Dirt"/>
   </properties>
  </tile>
  <tile id="233">
   <properties>
    <property name="Water" value="T"/>
   </properties>
  </tile>
  <tile id="234">
   <properties>
    <property name="Water" value="T"/>
   </properties>
  </tile>
  <tile id="235">
   <properties>
    <property name="Water" value="T"/>
   </properties>
  </tile>
  <tile id="243">
   <properties>
    <property name="Passable" value="T"/>
    <property name="Type" value="Dirt"/>
   </properties>
   <animation>
    <frame tileid="243" duration="250"/>
    <frame tileid="244" duration="250"/>
    <frame tileid="245" duration="250"/>
    <frame tileid="246" duration="250"/>
    <frame tileid="246" duration="250"/>
    <frame tileid="247" duration="250"/>
    <frame tileid="248" duration="250"/>
    <frame tileid="249" duration="250"/>
    <frame tileid="243" duration="250"/>
    <frame tileid="243" duration="250"/>
    <frame tileid="243" duration="250"/>
   </animation>
  </tile>
  <tile id="244">
   <properties>
    <property name="Passable" value="T"/>
    <property name="Type" value="Dirt"/>
   </properties>
  </tile>
  <tile id="245">
   <properties>
    <property name="Passable" value="T"/>
    <property name="Type" value="Dirt"/>
   </properties>
  </tile>
  <tile id="246">
   <properties>
    <property name="Passable" value="T"/>
    <property name="Type" value="Dirt"/>
   </properties>
  </tile>
  <tile id="247">
   <properties>
    <property name="Passable" value="T"/>
    <property name="Type" value="Dirt"/>
   </properties>
  </tile>
  <tile id="248">
   <properties>
    <property name="Passable" value="T"/>
    <property name="Type" value="Dirt"/>
   </properties>
  </tile>
  <tile id="249">
   <properties>
    <property name="Passable" value="T"/>
    <property name="Type" value="Dirt"/>
   </properties>
  </tile>
  <tile id="250">
   <properties>
    <property name="Water" value="T"/>
   </properties>
  </tile>
  <tile id="251">
   <properties>
    <property name="Water" value="T"/>
   </properties>
  </tile>
  <tile id="252">
   <properties>
    <property name="Water" value="T"/>
   </properties>
  </tile>
  <tile id="260">
   <properties>
    <property name="Passable" value="T"/>
    <property name="Type" value="Dirt"/>
   </properties>
   <animation>
    <frame tileid="260" duration="250"/>
    <frame tileid="261" duration="250"/>
    <frame tileid="262" duration="250"/>
    <frame tileid="263" duration="250"/>
    <frame tileid="263" duration="250"/>
    <frame tileid="264" duration="250"/>
    <frame tileid="265" duration="250"/>
    <frame tileid="266" duration="250"/>
    <frame tileid="260" duration="250"/>
    <frame tileid="260" duration="250"/>
    <frame tileid="260" duration="250"/>
   </animation>
  </tile>
  <tile id="261">
   <properties>
    <property name="Passable" value="T"/>
    <property name="Type" value="Dirt"/>
   </properties>
  </tile>
  <tile id="262">
   <properties>
    <property name="Passable" value="T"/>
    <property name="Type" value="Dirt"/>
   </properties>
  </tile>
  <tile id="263">
   <properties>
    <property name="Passable" value="T"/>
    <property name="Type" value="Dirt"/>
   </properties>
  </tile>
  <tile id="264">
   <properties>
    <property name="Passable" value="T"/>
    <property name="Type" value="Dirt"/>
   </properties>
  </tile>
  <tile id="265">
   <properties>
    <property name="Passable" value="T"/>
    <property name="Type" value="Dirt"/>
   </properties>
  </tile>
  <tile id="266">
   <properties>
    <property name="Passable" value="T"/>
    <property name="Type" value="Dirt"/>
   </properties>
  </tile>
  <tile id="277">
   <properties>
    <property name="Type" value="Wood"/>
   </properties>
  </tile>
  <tile id="278">
   <properties>
    <property name="Type" value="Wood"/>
   </properties>
  </tile>
  <tile id="279">
   <properties>
    <property name="Type" value="Wood"/>
   </properties>
  </tile>
  <tile id="280">
   <properties>
    <property name="Type" value="Dirt"/>
   </properties>
  </tile>
  <tile id="297">
   <properties>
    <property name="Type" value="Wood"/>
   </properties>
  </tile>
  <tile id="298">
   <properties>
    <property name="Type" value="Wood"/>
   </properties>
  </tile>
  <tile id="299">
   <properties>
    <property name="Type" value="Wood"/>
   </properties>
  </tile>
  <tile id="300">
   <properties>
    <property name="Type" value="Wood"/>
   </properties>
  </tile>
  <tile id="301">
   <properties>
    <property name="Passable" value="T"/>
    <property name="Type" value="Wood"/>
   </properties>
  </tile>
  <tile id="302">
   <properties>
    <property name="Type" value="Wood"/>
   </properties>
  </tile>
  <tile id="334">
   <properties>
    <property name="Water" value="T"/>
   </properties>
  </tile>
  <tile id="335">
   <properties>
    <property name="Water" value="T"/>
   </properties>
  </tile>
  <tile id="336">
   <properties>
    <property name="Water" value="T"/>
   </properties>
  </tile>
  <tile id="339">
   <properties>
    <property name="Passable" value="F"/>
    <property name="Water" value="T"/>
   </properties>
  </tile>
  <tile id="373">
   <properties>
    <property name="Water" value="T"/>
   </properties>
  </tile>
  <tile id="419">
   <properties>
    <property name="Type" value="Wood"/>
   </properties>
  </tile>
  <tile id="420">
   <properties>
    <property name="Type" value="Wood"/>
   </properties>
  </tile>
  <tile id="421">
   <properties>
    <property name="Type" value="Wood"/>
   </properties>
  </tile>
  <tile id="423">
   <properties>
    <property name="Water" value="T"/>
   </properties>
  </tile>
  <tile id="424">
   <properties>
    <property name="Water" value="T"/>
   </properties>
  </tile>
  <tile id="435">
   <properties>
    <property name="Type" value="Wood"/>
   </properties>
  </tile>
  <tile id="440">
   <properties>
    <property name="Water" value="T"/>
   </properties>
  </tile>
  <tile id="441">
   <properties>
    <property name="Water" value="T"/>
   </properties>
  </tile>
  <tile id="453">
   <properties>
    <property name="Type" value="Wood"/>
   </properties>
  </tile>
  <tile id="454">
   <properties>
    <property name="Type" value="Wood"/>
   </properties>
  </tile>
  <tile id="455">
   <properties>
    <property name="Type" value="Wood"/>
   </properties>
  </tile>
  <tile id="458">
   <properties>
    <property name="Water" value="T"/>
   </properties>
  </tile>
  <tile id="470">
   <properties>
    <property name="Type" value="Wood"/>
   </properties>
  </tile>
  <tile id="471">
   <properties>
    <property name="Type" value="Wood"/>
   </properties>
  </tile>
  <tile id="472">
   <properties>
    <property name="Type" value="Wood"/>
   </properties>
  </tile>
  <tile id="475">
   <properties>
    <property name="Water" value="T"/>
   </properties>
  </tile>
  <tile id="487">
   <properties>
    <property name="Type" value="Wood"/>
   </properties>
  </tile>
  <tile id="488">
   <properties>
    <property name="Type" value="Wood"/>
   </properties>
  </tile>
  <tile id="489">
   <properties>
    <property name="Type" value="Wood"/>
   </properties>
  </tile>
  <tile id="491">
   <properties>
    <property name="Type" value="Wood"/>
   </properties>
  </tile>
  <tile id="504">
   <properties>
    <property name="Type" value="Wood"/>
   </properties>
  </tile>
  <tile id="505">
   <properties>
    <property name="Type" value="Wood"/>
   </properties>
  </tile>
  <tile id="506">
   <properties>
    <property name="Type" value="Wood"/>
   </properties>
  </tile>
  <tile id="508">
   <properties>
    <property name="Type" value="Wood"/>
   </properties>
  </tile>
 </tileset>
 <tileset firstgid="6544" name="fest" tilewidth="16" tileheight="16" tilecount="1024" columns="32">
  <image source="Festivals" width="512" height="512"/>
  <tile id="227">
   <properties>
    <property name="Type" value="Dirt"/>
   </properties>
  </tile>
  <tile id="228">
   <properties>
    <property name="Type" value="Dirt"/>
   </properties>
  </tile>
  <tile id="229">
   <properties>
    <property name="Type" value="Dirt"/>
   </properties>
  </tile>
  <tile id="230">
   <properties>
    <property name="Type" value="Grass"/>
   </properties>
  </tile>
  <tile id="231">
   <properties>
    <property name="Type" value="Grass"/>
   </properties>
  </tile>
  <tile id="259">
   <properties>
    <property name="Type" value="Dirt"/>
   </properties>
  </tile>
  <tile id="260">
   <properties>
    <property name="Type" value="Grass"/>
   </properties>
  </tile>
  <tile id="261">
   <properties>
    <property name="Type" value="Dirt"/>
   </properties>
  </tile>
  <tile id="262">
   <properties>
    <property name="Type" value="Grass"/>
   </properties>
  </tile>
  <tile id="263">
   <properties>
    <property name="Type" value="Grass"/>
   </properties>
  </tile>
  <tile id="265">
   <animation>
    <frame tileid="265" duration="200"/>
    <frame tileid="265" duration="200"/>
    <frame tileid="265" duration="200"/>
    <frame tileid="265" duration="200"/>
    <frame tileid="201" duration="200"/>
   </animation>
  </tile>
  <tile id="288">
   <animation>
    <frame tileid="288" duration="1000"/>
    <frame tileid="352" duration="1000"/>
   </animation>
  </tile>
  <tile id="289">
   <animation>
    <frame tileid="289" duration="1000"/>
    <frame tileid="353" duration="1000"/>
   </animation>
  </tile>
  <tile id="291">
   <properties>
    <property name="Type" value="Dirt"/>
   </properties>
  </tile>
  <tile id="292">
   <properties>
    <property name="Type" value="Dirt"/>
   </properties>
  </tile>
  <tile id="293">
   <properties>
    <property name="Type" value="Dirt"/>
   </properties>
  </tile>
  <tile id="297">
   <animation>
    <frame tileid="297" duration="200"/>
    <frame tileid="297" duration="200"/>
    <frame tileid="297" duration="200"/>
    <frame tileid="297" duration="200"/>
    <frame tileid="233" duration="200"/>
   </animation>
  </tile>
  <tile id="320">
   <animation>
    <frame tileid="320" duration="1000"/>
    <frame tileid="384" duration="1000"/>
   </animation>
  </tile>
  <tile id="321">
   <animation>
    <frame tileid="321" duration="1000"/>
    <frame tileid="385" duration="1000"/>
   </animation>
  </tile>
 </tileset>
 <tileset firstgid="7568" name="v16_Shadows" tilewidth="16" tileheight="16" tilecount="475" columns="19">
  <image source="summer_Shadows" width="304" height="400"/>
 </tileset>
 <tileset firstgid="8043" name="zrsvfestivals" tilewidth="16" tileheight="16" tilecount="950" columns="19">
  <image source="zrsvfestivals.png" width="304" height="800"/>
  <tile id="120">
   <properties>
    <property name="Type" value="Wood"/>
   </properties>
  </tile>
  <tile id="139">
   <properties>
    <property name="Type" value="Wood"/>
   </properties>
  </tile>
 </tileset>
 <tileset firstgid="8993" name="z_rsvinterior" tilewidth="16" tileheight="16" tilecount="1900" columns="19">
  <image source="z_rsvinterior.png" width="304" height="1600"/>
 </tileset>
 <layer id="1" name="Back" width="37" height="25">
  <data encoding="csv">
736,2147484376,727,729,729,729,2684355278,752,721,719,719,719,719,719,719,719,719,719,719,719,719,719,719,719,719,719,719,719,719,719,719,719,719,719,719,719,719,
736,2147484393,729,729,2684355271,644,2684355278,721,721,719,719,719,719,719,719,719,719,719,719,719,719,719,719,719,719,719,719,719,719,719,651,719,719,719,719,719,719,
736,727,3221226183,729,2684355270,644,2147484384,738,721,719,719,719,719,719,719,719,719,719,719,719,719,719,719,719,719,719,719,719,719,719,719,719,719,719,719,719,719,
736,959,2147484376,729,2147484399,727,753,754,738,701,670,702,701,701,670,636,719,719,772,701,670,702,701,701,670,701,670,702,701,701,670,701,702,701,670,737,719,
736,727,2147484393,729,2684355304,727,644,753,6115,718,718,718,718,718,6151,738,701,702,737,755,718,718,718,718,718,718,718,718,718,718,718,718,718,718,718,754,702,
736,727,727,3221226183,711,751,727,678,644,671,673,672,673,674,753,718,718,718,718,735,671,672,673,672,673,673,672,673,672,673,672,673,6069,6070,6071,753,718,
735,644,727,1610613480,729,2684355304,727,644,671,690,662,662,639,689,672,6070,6069,6069,6070,673,690,639,662,662,662,662,662,662,6059,6059,6059,6059,6059,6036,6086,672,672,
644,644,727,1610613447,2684355271,727,727,644,688,2147484355,2147484354,662,645,662,662,6059,6059,6059,6059,6059,6059,6059,6059,6059,6059,6059,6059,6059,6059,6059,6059,6059,6059,6059,6059,662,662,
674,644,727,3221226183,2684355304,727,727,644,688,2147484338,2147484337,662,6059,6059,6059,6059,6059,8163,8163,8163,8163,8163,8163,8163,8163,8163,8163,8163,8163,8163,8163,6035,6059,6059,6059,662,662,
708,644,727,727,727,727,727,2147484322,690,662,662,662,6035,6059,6059,6059,6059,8163,8163,8163,8163,8163,8163,8163,8163,8163,8163,8163,8163,8163,8163,6056,6057,6035,6059,662,662,
644,727,727,768,727,727,644,2147484356,3758097091,662,662,662,6059,6059,6059,6059,6036,8163,8163,8163,8163,8163,8163,8163,8163,8163,8163,8163,8163,8163,8163,6130,6254,6056,6057,2147484286,662,
644,727,727,727,727,727,727,644,688,2147484287,662,662,6060,6059,6059,6035,6055,8163,8163,8163,8163,8163,8163,8163,8163,8163,8163,8163,8163,8163,8163,6078,6078,6079,6074,662,662,
691,727,727,727,727,727,727,671,690,662,662,658,659,660,6059,6185,6072,8163,8163,8163,8163,8163,8163,8163,8163,8163,8163,8163,8163,8163,8163,6271,6097,6096,6074,662,662,
2147484338,1108,1108,1108,1108,1108,1108,690,2147484454,662,658,856,676,2147484504,6057,6059,6072,8163,8163,8163,8163,8163,8163,8163,8163,8163,8163,8163,8163,8163,8163,6111,6112,6113,6074,662,662,
2147484309,1108,1108,1108,1108,1108,1108,661,662,789,675,676,731,732,6074,6035,6089,8163,8163,8163,8163,8163,8163,8163,8163,8163,8163,8163,8163,8163,8163,6130,6237,6090,6091,2147484287,662,
691,727,727,744,959,727,727,705,707,658,856,680,682,733,6074,6203,6055,6253,6111,6112,6112,8182,8182,8182,8182,8182,8182,6056,6056,6253,6128,6237,6091,6059,6036,662,706,
691,644,727,536871623,3758097095,727,727,644,688,675,733,714,716,676,6074,6055,6253,6073,6128,6237,6236,6073,6073,6129,6074,6203,6072,6073,6073,6073,6073,6074,6059,6059,6059,662,691,
708,644,727,2147484359,1073742535,727,727,671,690,675,676,731,840,693,6091,6089,6090,6090,6090,6091,6089,6090,6090,6090,6091,6059,6089,6090,6090,6090,6090,6091,6036,6035,6059,662,2147484336,
644,727,536871656,729,745,727,644,688,662,692,693,693,694,6059,6059,6060,6043,6042,6043,6059,6059,6059,6059,6059,6059,6059,6059,6059,6059,6059,6059,6059,6059,6043,6059,662,2147484336,
644,727,536871656,729,3758097095,727,644,705,2147484354,638,639,662,658,6059,6059,6043,6042,6043,6059,6060,6042,6042,6042,6043,6059,6059,6059,6042,6043,6059,6060,6059,6035,6059,6059,706,708,
727,727,727,536871623,729,2684355304,727,644,688,662,662,806,6059,6059,6043,6043,6042,6059,6043,6043,6043,6043,6043,6059,6042,6059,6059,6042,6060,6043,6059,6059,6059,6059,6059,691,644,
727,785,727,1610613480,729,2684355304,727,727,705,2147484354,662,639,6059,6059,6059,6059,6043,6042,6042,6043,6059,6043,6060,6043,6059,6042,6059,6059,6043,6059,6203,6037,6059,6060,6059,691,644,
727,727,727,536871656,729,2684355304,727,727,644,705,643,662,6059,6059,6042,6043,6059,6059,6059,6059,6059,6059,6059,6059,6059,6059,6059,662,6059,6059,6035,6059,6060,6059,6219,708,644,
727,727,727,2147484359,729,2684355304,727,727,727,644,644,661,662,789,662,662,662,662,645,662,662,662,638,806,662,662,662,662,662,789,662,788,662,2147484291,708,644,727,
727,751,536871656,729,1073742535,727,727,785,727,727,727,644,679,641,642,641,642,641,642,643,662,662,662,662,662,2147484310,2147484291,641,643,642,641,642,822,644,727,727,727
</data>
 </layer>
 <layer id="2" name="Back2" width="37" height="25">
  <properties>
   <property name="Draw" value="Back"/>
  </properties>
  <data encoding="csv">
0,0,0,0,0,0,0,0,0,0,0,0,0,0,0,0,0,0,0,0,0,0,0,0,0,0,0,0,0,0,0,0,0,0,0,0,0,
0,0,0,0,0,0,0,0,0,0,0,0,0,0,0,0,0,0,0,0,0,0,0,0,0,0,0,0,0,0,0,0,0,0,0,0,0,
0,0,0,0,0,0,0,0,0,0,0,0,0,0,0,0,0,0,0,0,0,0,0,0,0,0,0,0,0,0,0,0,0,0,0,0,0,
0,0,0,0,0,0,0,0,0,0,0,0,0,0,0,0,0,0,0,0,0,0,0,0,0,0,0,0,0,0,0,0,0,0,0,0,0,
0,0,0,0,0,0,0,0,0,0,0,0,0,0,0,0,0,0,0,0,0,0,0,0,0,0,0,0,0,0,0,0,0,0,0,0,0,
0,0,0,0,0,0,0,0,0,0,0,0,0,0,0,0,0,0,0,0,0,0,0,0,0,0,0,0,0,0,0,0,0,0,0,0,0,
0,0,0,0,0,0,0,0,0,0,0,0,0,0,0,0,0,0,0,0,0,0,0,0,0,0,0,0,0,0,0,0,0,0,0,0,0,
0,0,0,0,0,0,0,0,0,0,0,0,0,0,0,0,8143,8144,8144,8144,8144,8144,8144,8144,8144,8144,8144,8144,8144,8144,8144,8145,0,0,0,0,0,
0,0,0,0,0,0,0,0,0,0,0,0,0,0,0,0,8162,8163,8163,8163,8163,8163,8163,8163,8163,8163,8163,8163,8163,8163,8163,8164,0,0,0,0,0,
0,0,0,0,0,0,0,0,0,0,0,0,0,0,0,0,8162,8163,8163,8163,8163,8163,8163,8163,8163,8163,8163,8163,8163,8163,8163,8164,0,0,0,0,0,
0,0,0,0,0,0,0,0,0,0,0,0,0,0,0,0,8162,8163,8163,8163,8163,8163,8163,8163,8163,8163,8163,8163,8163,8163,8163,8164,0,0,0,0,0,
0,0,0,0,0,0,0,0,0,0,0,0,0,0,0,0,8162,8163,8163,8163,8163,8163,8163,8163,8163,8163,8163,8163,8163,8163,8163,8164,0,0,0,0,0,
0,0,0,0,0,0,0,0,0,0,0,0,0,0,0,0,8162,8163,8163,8163,8163,8163,8163,8163,8163,8163,8163,8163,8163,8163,8163,8164,0,0,0,0,0,
0,920,921,921,921,921,922,0,0,0,0,0,0,0,0,0,8162,8163,8163,8163,8163,8163,8163,8163,8163,8163,8163,8163,8163,8163,8163,8164,0,0,0,0,0,
0,921,921,921,921,921,2147484568,0,0,0,0,0,0,0,0,0,8162,8163,8163,8163,8163,8163,8163,8163,8163,8163,8163,8163,8163,8163,8163,8164,0,0,0,0,0,
0,0,0,0,0,0,0,0,0,0,0,0,0,0,0,0,8181,8182,8182,8182,8182,8182,8182,8182,8182,8182,8182,8182,8182,8182,8182,8183,0,0,0,0,0,
0,0,0,0,0,0,0,0,0,0,0,0,0,0,0,0,0,0,0,0,0,9090,9090,9090,9090,9090,9090,0,0,0,0,0,0,0,0,0,0,
0,0,0,0,0,0,0,0,0,0,0,0,0,0,8146,8147,8147,8147,8147,8147,8147,8147,8147,8147,8147,8147,8147,8147,8147,8147,8147,8147,8147,8148,0,0,0,
0,0,0,514,0,0,0,0,0,0,0,0,0,0,8165,8149,8150,8149,8150,8149,8150,8149,8150,8149,8150,8149,8150,8149,8150,8149,8150,8149,8150,8167,0,0,0,
0,0,0,0,0,0,0,0,0,0,0,0,0,0,8165,8168,8169,8168,8169,8168,8169,8168,8169,8168,8169,8168,8169,8168,8169,8168,8169,8168,8169,8167,0,0,0,
0,0,0,0,0,0,0,0,0,0,0,0,0,0,8165,8149,8150,8149,8150,8149,8150,8149,8150,8149,8150,8149,8150,8149,8150,8149,8150,8149,8150,8167,0,0,0,
0,0,0,0,0,0,0,0,0,0,0,0,0,0,8165,8168,8169,8168,8169,8168,8169,8168,8169,8168,8169,8168,8169,8168,8169,8168,8169,8168,8169,8167,0,0,0,
0,0,0,0,0,0,0,0,0,0,0,0,0,0,8184,8185,8185,8185,8185,8185,8185,8185,8185,8185,8185,8185,8185,8185,8185,8185,8185,8185,8185,8186,0,0,0,
0,0,0,0,0,0,0,0,0,0,0,0,0,0,0,0,0,0,0,0,0,0,0,0,0,0,0,0,0,0,0,0,0,0,0,0,0,
0,0,0,0,0,0,0,0,0,0,0,0,0,0,0,0,0,0,0,0,0,0,0,0,0,0,0,0,0,0,0,0,0,0,0,0,0
</data>
 </layer>
 <layer id="3" name="Back3" width="37" height="25">
  <properties>
   <property name="Draw" value="Back"/>
  </properties>
  <data encoding="csv">
0,0,0,0,0,0,0,0,0,0,0,0,0,0,0,0,0,0,0,0,0,0,0,0,0,0,0,0,0,0,0,0,0,0,0,0,0,
0,0,0,0,0,0,0,0,0,0,0,0,0,0,0,0,0,0,0,0,0,0,0,0,0,0,0,0,0,0,0,0,0,0,0,0,0,
0,0,0,0,0,0,0,0,0,0,0,0,0,0,0,0,0,0,0,0,0,0,0,0,0,0,0,0,0,0,0,0,0,0,0,0,0,
0,0,0,0,0,0,0,0,0,0,0,0,0,0,0,0,0,0,0,0,0,0,0,0,0,0,0,0,0,0,0,0,0,0,0,0,0,
0,0,0,0,0,0,0,0,0,0,0,0,0,0,0,0,0,0,0,0,0,0,0,0,0,0,0,0,0,0,0,0,0,0,0,0,0,
0,0,0,0,0,0,0,0,0,0,0,0,0,0,0,0,0,0,0,0,0,0,0,0,0,0,0,0,0,0,0,0,0,0,0,0,0,
0,0,0,0,0,0,0,0,0,0,0,0,0,0,0,0,0,0,0,0,0,0,0,0,0,0,0,0,0,0,0,0,0,0,0,0,0,
0,0,0,0,0,0,0,0,0,0,0,0,0,0,0,0,0,0,0,0,0,0,0,0,0,0,0,0,0,0,0,0,0,0,0,0,0,
0,0,0,0,0,0,0,0,0,0,0,0,0,0,0,0,0,0,0,0,0,0,0,0,0,0,0,0,0,0,0,0,0,0,0,0,0,
0,0,0,0,0,0,0,0,0,0,0,0,0,0,0,0,0,0,0,0,0,0,0,0,0,0,0,0,0,0,0,0,0,0,0,0,0,
0,0,0,0,0,0,0,0,0,0,0,0,0,0,0,0,0,0,0,0,0,0,0,0,0,0,0,0,0,0,0,0,0,0,0,0,0,
0,0,0,0,0,0,0,0,0,0,0,0,0,0,0,0,0,0,0,0,0,0,0,0,0,0,0,0,0,0,0,0,0,0,0,0,0,
0,0,0,0,0,0,0,0,0,0,0,0,0,0,0,0,0,0,0,0,0,0,0,0,0,0,0,0,0,0,0,0,0,0,0,0,0,
0,0,0,0,0,0,0,0,0,0,0,0,0,0,0,0,0,0,0,0,0,0,0,0,0,0,0,0,0,0,0,0,0,0,0,0,0,
0,0,0,0,0,0,0,0,0,0,0,0,0,0,0,0,0,0,0,0,0,0,0,0,0,0,0,0,0,0,0,0,0,0,0,0,0,
0,0,0,0,0,0,0,0,0,0,0,0,0,0,0,0,0,0,0,0,0,0,0,0,0,0,0,0,0,0,0,0,0,0,0,0,0,
0,0,0,0,0,0,0,0,0,0,0,0,0,0,0,0,0,0,0,0,0,0,0,0,0,0,0,0,0,0,0,0,0,0,0,0,0,
0,0,0,0,0,0,0,0,0,0,0,0,0,0,0,0,0,0,0,0,0,0,0,0,0,0,0,0,0,0,0,0,0,0,0,0,0,
0,0,0,0,0,0,0,0,0,0,0,0,0,0,0,0,0,0,0,0,0,0,0,0,0,0,0,0,0,0,0,0,0,0,0,0,0,
0,0,0,0,0,0,0,0,0,0,0,0,0,0,0,0,0,0,0,0,0,0,0,0,0,0,0,0,0,0,0,0,0,0,0,0,0,
0,0,0,0,0,0,0,0,0,0,0,0,0,0,0,0,0,0,0,0,0,0,0,0,0,0,0,0,0,0,0,0,0,0,0,0,0,
0,0,0,0,0,0,0,0,0,0,0,0,0,0,0,0,0,0,0,0,0,0,0,0,0,0,0,0,0,0,0,0,0,0,0,0,0,
0,0,0,0,0,0,0,0,0,0,0,0,0,0,0,0,0,0,0,0,0,0,0,0,0,0,0,0,0,0,0,0,0,0,0,0,0,
0,0,0,0,0,0,0,0,0,0,0,0,0,0,0,0,0,0,0,0,0,0,0,0,0,0,0,0,0,0,0,0,0,0,0,0,0,
0,0,0,0,0,0,0,0,0,0,0,0,0,0,0,0,0,0,0,0,0,0,0,0,0,0,0,0,0,0,0,0,0,0,0,0,0
</data>
 </layer>
 <layer id="4" name="Buildings" width="37" height="25">
  <data encoding="csv">
977,977,2147484477,0,1073742636,1073742619,977,787,977,977,686,687,777,686,687,977,977,977,977,977,686,687,807,686,687,807,686,687,807,686,687,977,977,977,977,977,977,
977,3221226284,0,0,829,478,478,769,770,686,703,704,686,703,686,687,687,686,686,687,686,687,686,703,704,686,703,704,686,687,651,686,687,686,687,977,0,
977,880,0,0,829,478,478,786,787,703,704,478,703,704,703,704,686,687,703,704,703,704,703,704,478,703,704,478,703,704,0,2147484418,2147484417,703,704,478,478,
977,880,0,0,812,795,0,771,769,770,0,0,478,478,478,478,703,704,478,0,0,0,478,478,478,478,478,478,769,770,0,2147484435,2147484434,0,771,769,770,
770,2147484477,696,0,696,829,0,0,6183,787,790,0,0,786,6184,478,769,770,0,0,0,0,0,0,478,769,770,790,786,787,0,0,0,0,0,786,787,
787,3221226267,3221226284,696,696,812,795,0,0,0,0,6157,0,0,0,2147484438,786,787,0,0,0,0,0,0,0,786,787,0,0,0,0,0,0,0,0,0,0,
0,0,2147484477,696,0,696,829,0,6808,6743,6743,6743,6743,6743,6808,0,0,0,0,0,0,0,0,0,0,0,0,0,0,0,0,0,0,0,0,0,0,
3810,3811,2147484477,696,0,696,829,0,6834,0,6335,6336,6337,0,6834,0,8170,8171,8171,8171,8171,8171,8171,8171,8171,8171,8171,8171,8171,8171,8171,8172,6743,6834,6808,6834,6743,
3827,3828,2147484477,696,0,696,829,0,0,0,0,0,0,0,0,0,8154,9420,6743,0,0,0,0,0,0,0,0,0,0,6743,9420,8154,0,0,0,0,0,
0,0,2147484477,696,696,1073742636,1073742619,0,0,0,0,0,0,0,0,0,8154,0,0,0,0,0,0,0,0,0,0,0,0,0,0,8154,0,0,0,0,0,
0,846,863,696,696,829,0,0,0,0,0,0,0,0,0,0,8154,0,0,0,0,0,0,0,0,0,0,0,0,0,0,8154,0,0,0,0,0,
0,880,696,0,696,812,795,0,0,0,0,0,0,0,0,0,8154,0,0,6898,6899,6900,6901,6902,6903,6904,6905,6906,6907,0,0,8154,0,0,0,0,0,
6808,880,696,696,696,696,829,6808,0,0,0,0,0,0,0,0,8154,0,0,6930,6931,6932,6933,6934,6935,6936,6937,6938,6939,0,0,8154,0,0,0,0,0,
0,0,0,0,0,0,0,0,0,0,0,0,0,0,0,0,8154,0,0,0,0,0,0,0,0,0,0,0,0,0,0,8154,0,0,0,0,0,
0,0,0,0,0,0,0,0,0,0,0,0,0,0,0,0,8154,0,0,0,0,0,0,0,0,0,0,0,0,0,0,8154,0,0,0,0,0,
0,1073742670,1073742687,696,696,696,829,0,0,0,0,0,0,0,0,0,8170,8171,8171,8171,8172,0,0,0,0,0,0,8170,8171,8171,8171,8172,0,0,0,0,0,
0,0,880,696,0,696,829,0,0,0,0,0,0,0,0,0,8200,8201,8201,8201,8201,0,0,0,0,0,0,8201,8201,8201,8201,8202,0,0,0,0,0,
0,0,880,696,696,3221226335,3221226318,0,0,0,0,0,0,0,6808,0,0,0,0,0,6840,0,0,0,0,0,0,6840,0,0,0,0,0,6808,0,0,0,
0,846,863,696,696,2147484528,0,0,0,0,0,0,0,0,0,0,0,0,0,0,0,0,0,0,0,0,0,0,0,0,0,0,0,0,0,0,0,
0,880,696,0,696,2147484528,0,0,0,0,0,786,787,0,0,0,0,0,0,0,0,0,0,0,0,0,0,0,0,0,0,0,0,0,0,0,0,
846,863,696,0,696,2147484511,2147484494,0,0,0,0,0,0,0,0,0,0,0,0,0,0,0,0,0,0,0,0,0,0,0,0,0,0,0,0,0,0,
880,696,696,0,0,696,812,795,0,0,0,0,0,0,0,0,0,0,0,0,0,0,0,0,0,0,0,0,0,0,0,0,0,0,0,0,0,
880,696,0,0,0,696,696,829,6834,0,0,0,0,0,6808,0,0,0,0,0,0,0,0,0,0,0,0,0,0,0,0,0,0,6808,0,6834,0,
863,696,0,0,0,696,696,812,795,0,0,0,0,0,0,0,0,0,0,0,0,0,0,0,0,0,0,0,0,0,0,0,0,0,0,0,846,
696,696,0,0,0,0,696,696,812,778,795,0,0,0,0,0,0,0,0,6834,0,0,0,0,0,0,0,0,6834,0,0,0,0,0,846,778,863
</data>
 </layer>
 <layer id="5" name="Buildings2" width="37" height="25">
  <properties>
   <property name="Draw" value="Buildings"/>
  </properties>
  <data encoding="csv">
0,0,0,0,0,0,0,0,0,0,0,0,0,0,0,0,0,0,0,0,0,0,0,0,0,0,0,0,0,0,0,0,0,0,0,0,0,
0,0,0,0,0,0,0,0,0,0,0,0,0,0,0,0,0,0,0,0,0,0,0,0,0,0,0,0,0,0,0,0,0,0,0,0,0,
0,0,0,0,0,0,0,0,0,0,0,0,0,0,0,0,0,0,0,0,0,0,0,0,0,0,0,0,0,0,0,0,0,0,0,0,0,
0,0,0,0,0,0,0,0,0,0,0,0,0,0,0,0,0,0,0,0,0,0,0,0,0,0,0,0,0,0,0,0,0,0,0,0,0,
0,0,0,0,0,0,0,0,0,0,0,0,0,0,0,0,0,0,0,0,0,0,0,0,0,0,0,0,0,0,0,0,0,0,0,0,0,
0,0,0,0,0,0,0,0,0,0,0,0,0,0,0,0,0,0,0,0,0,0,0,0,0,0,0,0,0,0,0,0,0,0,0,0,0,
0,0,0,0,0,0,0,0,0,0,0,0,0,0,0,0,0,0,0,0,0,0,0,0,0,0,0,0,0,0,0,0,0,0,0,0,0,
0,0,0,0,0,0,0,0,0,0,0,0,0,0,0,0,0,0,0,0,0,0,0,0,0,0,0,0,0,0,0,0,0,0,0,0,0,
0,0,0,0,0,0,0,0,0,0,0,0,0,0,0,0,0,0,0,0,0,0,0,0,0,0,0,0,0,0,0,0,0,0,0,0,0,
0,0,0,0,0,0,0,0,0,0,0,0,0,0,0,0,0,0,0,0,0,0,0,0,0,0,0,0,0,0,0,0,0,0,0,0,0,
0,0,0,0,0,0,0,0,0,0,0,0,0,0,0,0,0,0,0,0,0,0,0,0,0,0,0,0,0,0,0,0,0,0,0,0,0,
0,0,0,0,0,0,0,0,0,0,0,0,0,0,0,0,0,0,0,0,0,0,0,0,0,0,0,0,0,0,0,0,0,0,0,0,0,
0,0,0,0,0,0,0,0,0,0,0,0,0,0,0,0,0,0,0,0,0,0,0,0,0,0,0,0,0,0,0,0,0,0,0,0,0,
0,0,0,0,0,0,0,0,0,0,0,0,0,0,0,0,0,0,0,0,0,0,0,0,0,0,0,0,0,0,0,0,0,0,0,0,0,
0,2147484570,0,0,0,0,2147484568,0,0,0,0,0,0,0,0,0,0,0,0,0,0,0,0,0,0,0,0,0,0,0,0,0,0,0,0,0,0,
0,0,0,0,0,0,0,0,0,0,0,0,0,0,0,0,0,0,0,0,0,0,0,0,0,0,0,0,0,0,0,0,0,0,0,0,0,
0,0,0,0,0,0,0,0,0,0,0,0,0,0,0,0,6808,6300,6841,6838,6808,0,0,0,0,0,0,6808,6838,6841,6347,6808,0,0,0,0,0,
0,0,0,0,0,0,0,0,0,0,0,0,0,0,0,0,0,0,0,0,0,0,0,0,0,0,0,0,0,0,0,0,0,0,0,0,0,
0,0,0,0,0,0,0,0,0,0,0,0,0,0,0,0,0,0,0,0,0,0,0,0,0,0,0,0,0,0,0,0,0,0,0,0,0,
0,0,0,0,0,0,0,0,0,0,0,0,0,0,0,0,0,0,0,0,0,0,0,0,0,0,0,0,0,0,0,0,0,0,0,0,0,
0,0,0,0,0,0,0,0,0,0,0,0,0,0,0,0,0,0,0,0,0,0,0,0,0,0,0,0,0,0,0,0,0,0,0,0,0,
0,0,0,0,0,0,0,0,0,0,0,0,0,0,0,0,0,0,0,0,0,0,0,0,0,0,0,0,0,0,0,0,0,0,0,0,0,
0,0,0,0,0,0,0,0,0,0,0,0,0,0,0,0,0,0,0,0,0,0,0,0,0,0,0,0,0,0,0,0,0,0,0,0,0,
0,0,0,0,0,0,0,0,0,0,0,0,0,0,0,0,0,0,0,0,0,0,0,0,0,0,0,0,0,0,0,0,0,0,0,0,0,
0,0,0,0,0,0,0,0,0,0,0,0,0,0,0,0,0,0,0,0,0,0,0,0,0,0,0,0,0,0,0,0,0,0,0,0,0
</data>
 </layer>
 <layer id="6" name="Paths" width="37" height="25">
  <data encoding="csv">
0,0,0,0,0,0,0,0,0,0,0,0,0,0,0,0,0,0,0,0,0,0,0,0,0,0,0,0,0,0,0,0,0,0,0,0,0,
0,0,0,0,0,0,0,0,0,0,0,0,0,0,0,0,0,0,0,0,0,0,0,0,0,0,0,0,0,0,0,0,0,0,0,0,0,
0,0,0,0,0,0,0,0,0,0,0,0,0,0,0,0,0,0,0,0,0,0,0,0,0,0,0,0,0,0,0,0,0,0,0,0,0,
0,0,0,0,0,0,0,0,0,0,0,0,0,0,0,0,0,0,0,0,0,0,0,0,0,0,0,0,0,0,0,0,0,0,0,0,0,
0,0,0,0,0,0,0,0,0,0,0,0,0,0,0,0,0,0,0,0,0,0,0,0,0,0,0,0,0,0,0,0,0,0,0,0,0,
0,0,0,0,0,0,0,0,0,0,0,0,0,0,0,0,0,0,0,0,0,0,0,0,0,0,0,0,0,0,0,0,0,0,0,0,0,
0,0,0,0,0,0,0,0,0,0,0,0,0,0,0,0,0,0,0,0,0,0,0,0,0,0,0,0,0,0,0,0,0,0,0,0,0,
0,0,0,0,0,0,0,0,0,0,0,0,0,0,0,0,0,0,0,0,0,0,0,0,0,0,0,0,0,0,0,0,0,0,0,0,0,
0,0,0,0,0,0,0,0,0,0,0,0,0,0,0,0,0,0,0,0,0,0,0,0,0,0,0,0,0,0,0,0,0,0,0,0,0,
0,0,0,0,0,0,0,0,0,0,0,0,0,0,0,0,0,0,0,0,0,0,0,0,0,0,0,0,0,0,0,0,0,0,0,0,0,
0,0,0,0,0,0,0,0,0,0,0,0,0,0,0,0,0,0,0,0,0,0,0,0,0,0,0,0,0,0,0,0,0,0,0,0,0,
0,0,0,0,0,0,0,0,0,0,0,0,0,0,0,0,0,0,0,0,0,0,0,0,0,0,0,0,0,0,0,0,0,0,0,0,0,
0,0,0,0,0,0,0,0,0,0,0,0,0,0,0,0,0,0,0,0,0,0,0,0,0,0,0,0,0,0,0,0,0,0,0,0,0,
0,0,0,0,0,0,0,0,0,0,0,0,0,0,0,0,0,0,0,0,0,0,0,0,0,0,0,0,0,0,0,0,0,0,0,0,0,
0,0,0,0,0,0,0,0,0,0,0,0,0,0,0,0,0,0,0,0,0,0,0,0,0,0,0,0,0,0,0,0,0,0,0,0,0,
0,0,0,0,0,0,0,0,0,0,0,0,0,0,0,0,0,0,0,0,0,0,0,0,0,0,0,0,0,0,0,0,0,0,0,0,0,
0,0,0,0,0,0,0,0,0,0,0,0,0,0,0,0,0,0,0,0,0,0,0,0,0,0,0,0,0,0,0,0,0,0,0,0,0,
0,0,0,0,0,0,0,0,0,0,0,0,0,0,0,0,0,0,0,0,0,0,0,0,0,0,0,0,0,0,0,0,0,0,0,0,0,
0,0,0,0,0,0,0,0,0,0,0,0,0,0,0,0,0,0,0,0,0,0,0,0,0,0,0,0,0,0,0,0,0,0,0,0,0,
0,0,0,0,0,0,0,0,0,0,0,0,0,0,0,0,0,0,0,0,0,0,0,0,0,0,0,0,0,0,0,0,0,0,0,0,0,
0,0,0,0,0,0,0,0,0,0,0,0,0,0,0,0,0,0,0,0,0,0,0,0,0,0,0,0,0,0,0,0,0,0,0,0,0,
0,0,0,0,0,0,0,0,0,0,0,0,0,0,0,0,0,0,0,0,0,0,0,0,0,0,0,0,0,0,0,0,0,0,0,0,0,
0,0,0,0,0,0,0,0,0,0,0,0,0,0,0,0,0,0,0,0,0,0,0,0,0,0,0,0,0,0,0,0,0,0,0,0,0,
0,0,0,0,0,0,0,0,0,0,0,0,0,0,0,0,0,0,0,0,0,0,0,0,0,0,0,0,0,0,0,0,0,0,0,0,0,
0,0,0,0,0,0,0,0,0,0,0,0,0,0,0,0,0,0,0,0,0,0,0,0,0,0,0,0,0,0,0,0,0,0,0,0,0
</data>
 </layer>
 <layer id="7" name="Front" width="37" height="25">
  <data encoding="csv">
0,0,0,0,0,0,0,0,0,0,0,0,0,0,0,0,0,650,650,0,0,0,0,0,0,0,0,650,650,650,650,650,0,0,0,0,0,
0,0,0,0,0,0,0,0,0,0,0,0,0,0,0,0,0,650,0,0,0,0,0,0,0,0,0,650,650,0,0,650,0,0,0,0,0,
0,0,0,0,0,0,0,0,0,0,0,0,0,0,0,0,0,0,0,0,0,0,0,0,0,0,0,0,0,0,0,0,0,0,0,0,0,
0,0,0,0,0,0,0,0,0,0,0,0,0,0,0,0,0,0,0,0,0,0,0,0,0,0,0,0,0,0,0,0,0,0,0,0,0,
0,0,0,0,0,0,0,0,6744,0,0,0,0,0,6744,0,0,0,0,0,0,0,0,0,0,0,0,0,0,0,0,0,0,0,0,0,0,
0,0,0,0,0,0,0,0,6776,6711,6711,6711,6711,6711,6776,0,0,0,0,0,0,0,0,0,0,0,0,0,0,0,0,0,0,0,6744,0,0,
0,0,0,0,0,0,0,0,6802,0,0,0,0,0,6802,0,0,9382,0,0,0,0,0,0,0,0,0,0,0,0,9382,0,6711,6802,6776,6802,6711,
0,0,0,0,0,0,0,0,0,0,0,0,0,0,0,0,8135,9401,6711,0,0,0,0,0,0,0,0,0,0,6711,9401,8135,0,0,0,0,0,
0,0,0,0,0,0,0,0,0,0,0,0,0,0,0,0,0,0,0,0,0,0,0,0,0,0,0,0,0,0,0,0,0,0,0,0,0,
0,0,0,0,0,0,0,0,0,0,0,0,0,0,0,0,0,0,0,0,0,0,0,0,0,0,0,0,0,0,0,0,0,0,0,0,0,
6744,0,0,0,0,0,0,6744,0,0,0,0,0,0,0,0,0,0,0,6866,6867,6868,6869,6870,6871,6872,6873,6874,6875,0,0,0,0,0,0,0,0,
6776,0,0,0,0,0,0,6776,0,0,0,0,0,0,0,0,0,0,0,0,0,0,0,0,0,0,0,0,0,0,0,0,0,0,0,0,0,
0,0,0,0,0,0,0,0,0,0,0,0,0,0,0,0,0,0,0,0,0,0,0,0,0,0,0,0,0,0,0,0,0,0,0,0,0,
0,0,0,0,0,0,0,0,0,0,0,0,0,0,0,0,0,0,0,0,0,0,0,0,0,0,0,0,0,0,0,0,0,0,0,0,0,
0,0,0,0,0,0,0,0,0,0,0,0,0,0,0,0,6744,0,0,0,6744,0,0,0,0,0,0,6744,0,0,0,6744,0,0,0,0,0,
0,0,0,0,0,0,0,0,0,0,0,0,0,0,6744,0,6776,0,6809,0,6776,0,0,0,0,0,0,6776,0,6809,0,6776,0,6744,0,0,0,
0,0,0,0,0,0,0,0,0,0,0,0,0,0,6776,0,0,0,0,0,0,0,0,0,0,0,0,0,0,0,0,0,0,6776,0,0,0,
0,0,0,0,0,0,0,0,0,0,0,0,0,0,0,0,0,0,0,0,0,0,0,0,0,0,0,0,0,0,0,0,0,0,0,0,0,
0,0,0,0,0,0,0,0,0,0,0,3664,3665,0,0,0,0,0,0,0,0,0,0,0,0,0,0,0,0,0,0,0,0,0,0,0,0,
0,0,0,0,0,0,0,0,0,0,0,0,0,0,0,0,0,0,0,0,0,0,0,0,0,0,0,0,0,0,0,0,0,0,0,0,0,
0,0,0,0,0,0,0,0,0,0,0,0,0,0,6744,0,0,0,0,0,0,0,0,0,0,0,0,0,0,0,0,0,0,6744,0,0,0,
0,0,0,0,0,0,0,0,6802,0,0,0,0,0,6776,0,0,0,0,0,0,0,0,0,0,0,0,0,0,0,0,0,0,6776,0,6802,0,
0,0,0,0,0,0,0,0,0,0,0,0,0,0,0,0,0,0,0,0,0,0,0,0,0,0,0,0,0,0,0,0,0,0,0,0,0,
0,0,0,0,0,0,0,0,0,0,0,0,0,0,0,0,0,0,0,6802,0,0,0,0,0,0,0,0,6802,0,0,0,0,0,0,0,0,
0,0,0,0,0,0,0,0,0,0,0,0,0,0,0,0,0,0,0,0,0,0,0,0,0,0,0,0,0,0,0,0,0,0,0,0,0
</data>
 </layer>
 <layer id="26" name="AlwaysFront-1" width="37" height="25">
  <data encoding="csv">
653,651,653,669,0,0,0,0,0,0,0,0,0,0,0,0,0,0,0,0,0,0,0,0,0,0,0,0,0,0,0,0,0,0,0,0,0,
653,667,669,0,0,0,0,0,0,0,0,0,0,0,0,0,0,0,0,0,0,0,0,0,0,0,0,0,0,0,0,0,0,0,0,0,0,
652,0,0,0,0,0,0,0,0,0,0,0,0,0,0,0,0,0,0,0,0,0,0,0,0,0,0,0,0,0,0,0,0,0,0,0,0,
669,0,0,0,0,0,0,0,0,0,0,0,0,0,0,0,0,0,0,0,0,0,0,0,0,0,0,0,0,0,0,0,0,0,0,0,0,
0,0,0,0,0,0,0,0,0,0,0,0,0,0,0,0,0,0,0,0,0,0,0,0,0,0,0,0,0,0,0,0,0,0,0,0,0,
0,0,0,0,0,0,0,0,0,0,0,0,0,0,0,0,0,0,0,0,0,0,0,0,0,0,0,0,0,0,0,0,0,0,0,0,0,
0,0,0,0,0,0,0,0,0,0,0,0,0,0,0,0,0,0,0,0,0,0,0,0,0,0,0,0,0,0,0,0,0,0,0,0,0,
0,0,0,0,0,0,0,0,0,0,0,0,0,0,0,0,0,0,0,0,0,0,0,0,0,0,0,0,0,0,0,0,0,0,0,0,0,
0,0,0,0,0,0,0,0,0,0,0,0,0,0,0,0,0,0,0,0,0,0,0,0,0,0,0,0,0,0,0,0,0,0,0,0,0,
0,0,0,0,0,0,0,0,0,0,0,0,0,0,0,0,0,0,0,0,0,0,0,0,0,0,0,0,0,0,0,0,0,0,0,0,0,
0,0,0,0,0,0,0,0,0,0,0,0,0,0,0,0,0,0,0,0,0,0,0,0,0,0,0,0,0,0,0,0,0,0,0,0,0,
0,0,0,0,0,0,0,0,0,0,0,0,0,0,0,0,0,0,0,0,0,0,0,0,0,0,0,0,0,0,0,0,0,0,0,0,0,
0,0,0,0,0,0,0,0,0,0,0,0,0,0,0,0,0,0,0,0,0,0,0,0,0,0,0,0,0,0,0,0,0,0,0,0,0,
0,0,0,0,0,0,0,0,0,0,0,0,0,0,0,0,0,0,0,0,0,0,0,0,0,0,0,0,0,0,0,0,0,0,0,0,0,
0,0,0,0,0,0,0,0,0,0,0,0,0,0,0,0,0,0,0,0,0,0,0,0,0,0,0,0,0,0,0,0,0,0,0,0,0,
0,0,0,0,0,0,0,0,0,0,0,0,0,0,0,0,0,0,0,0,0,0,0,0,0,0,0,0,0,0,0,0,0,0,0,0,0,
0,0,0,0,0,0,0,0,0,0,0,0,0,0,0,0,0,0,0,0,0,0,0,0,0,0,0,0,0,0,0,0,0,0,0,0,0,
0,0,0,0,0,0,0,0,0,0,0,0,0,0,0,0,0,0,0,0,0,0,0,0,0,0,0,0,0,0,0,0,0,0,0,0,0,
0,0,0,0,0,0,0,0,0,0,0,0,0,0,0,0,0,0,0,0,0,0,0,0,0,0,0,0,0,0,0,0,0,0,0,0,0,
0,0,0,0,0,0,0,0,0,0,0,0,0,0,0,0,0,0,0,0,0,0,0,0,0,0,0,0,0,0,0,0,0,0,0,0,0,
0,0,0,0,0,0,0,0,0,0,0,0,0,0,0,0,0,0,0,0,0,0,0,0,0,0,0,0,0,0,0,0,0,0,0,0,0,
0,0,0,0,0,0,0,0,0,0,0,0,0,0,0,0,0,0,0,0,0,0,0,0,0,0,0,0,0,0,0,0,0,0,0,0,0,
0,0,0,0,0,0,0,0,0,0,0,0,0,0,0,0,0,0,0,0,0,0,0,0,0,0,0,0,0,0,0,0,0,0,0,0,0,
0,0,0,0,0,0,0,0,0,0,0,0,0,0,0,0,0,0,0,0,0,0,0,0,0,0,0,0,0,0,0,0,0,0,0,0,0,
0,0,0,0,0,0,0,0,0,0,0,0,0,0,0,0,0,0,0,0,0,0,0,0,0,0,0,0,0,0,0,0,0,0,0,0,0
</data>
 </layer>
 <layer id="8" name="AlwaysFront" width="37" height="25">
  <data encoding="csv">
0,0,0,0,0,666,668,653,653,653,651,653,650,651,650,653,652,649,650,651,653,650,651,650,653,651,653,652,649,653,653,2147484301,653,650,650,651,653,
0,0,0,0,0,0,0,666,653,653,653,651,650,653,650,651,653,666,650,653,651,650,653,650,651,650,653,653,666,652,0,649,2147484301,653,651,650,651,
0,0,0,0,0,0,0,0,666,2147484316,667,2147484315,2147484298,2147484298,2147484301,653,650,653,667,667,668,684,685,2147484298,2147484301,650,650,650,653,669,0,666,684,685,653,651,653,
0,0,0,0,0,0,0,0,0,0,0,0,2147484317,650,653,650,667,685,669,0,0,0,2147484317,2147484315,2147484298,2147484301,2147484301,2147484298,669,0,0,0,0,0,2147484317,2147484301,653,
0,0,0,0,0,0,0,0,0,0,0,0,0,2147484317,685,669,0,0,0,0,0,0,0,0,2147484317,2147484333,2147484333,669,0,0,0,0,0,0,0,2147484317,2147484314,
0,0,0,0,0,0,0,0,0,0,0,0,0,0,0,0,0,0,0,0,0,0,0,0,0,0,0,0,0,0,0,0,0,0,0,0,0,
0,0,0,0,0,0,0,0,0,0,0,0,0,0,0,0,0,0,0,0,0,0,0,0,0,0,0,0,0,0,0,0,0,0,0,0,0,
0,0,0,0,0,0,0,0,0,0,0,0,0,0,0,0,0,0,0,0,0,0,0,0,0,0,0,0,0,0,0,0,0,0,0,0,0,
0,0,0,0,0,0,0,0,0,0,0,0,0,0,0,0,0,0,0,0,0,0,0,0,0,0,0,0,0,0,0,0,0,0,0,0,0,
0,0,0,0,0,0,0,0,0,0,0,0,0,0,0,0,0,0,0,0,0,0,0,0,0,0,0,0,0,0,0,0,0,0,0,0,0,
0,0,0,0,0,0,0,0,0,0,0,0,0,0,0,0,0,0,0,0,0,0,0,0,0,0,0,0,0,0,0,0,0,0,0,0,0,
0,0,0,0,0,0,0,0,0,0,0,0,0,0,0,0,0,0,0,0,0,0,0,0,0,0,0,0,0,0,0,0,0,0,0,0,0,
0,0,0,0,0,0,0,0,0,0,0,0,0,0,0,0,0,0,0,0,0,0,0,0,0,0,0,0,0,0,0,0,0,0,0,0,0,
0,0,0,0,0,0,0,0,0,0,0,0,0,0,0,0,0,0,0,0,0,0,0,0,0,0,0,0,0,0,0,0,0,0,0,0,0,
0,0,0,0,0,0,0,0,0,0,0,0,0,0,0,0,0,0,0,0,0,0,0,0,0,0,0,0,0,0,0,0,0,0,0,0,0,
0,0,0,0,0,0,0,0,0,0,0,0,0,0,0,0,0,0,0,0,0,0,0,0,0,0,0,0,0,0,0,0,0,0,0,0,0,
0,0,0,0,0,0,0,0,0,0,0,0,0,0,0,0,0,0,0,0,0,0,0,0,0,0,0,0,0,0,0,0,0,0,0,0,0,
0,0,0,0,0,0,0,0,0,0,0,0,0,0,0,0,0,0,0,0,0,0,0,0,0,0,0,0,0,0,0,0,0,0,0,0,0,
0,0,0,0,0,0,0,0,0,0,0,0,0,0,0,0,0,0,0,0,0,0,0,0,0,0,0,0,0,0,0,0,0,0,0,0,0,
0,0,0,0,0,0,0,0,0,0,0,0,0,0,0,0,0,0,0,0,0,0,0,0,0,0,0,0,0,0,0,0,0,0,0,0,0,
0,0,0,0,0,0,0,0,0,0,0,0,0,0,0,0,0,0,0,0,0,0,0,0,0,0,0,0,0,0,0,0,0,0,0,0,0,
0,0,0,0,0,0,0,0,0,0,0,0,0,0,0,0,0,0,0,0,0,0,0,0,0,0,0,0,0,0,0,0,0,0,0,0,0,
0,0,0,0,0,0,0,0,0,0,0,0,0,0,0,0,0,0,0,0,0,0,0,0,0,0,0,0,0,0,0,0,0,0,0,0,0,
0,0,0,0,0,0,0,0,0,0,0,0,0,0,0,0,0,0,0,0,0,0,0,0,0,0,0,0,0,0,0,0,0,0,0,0,0,
0,0,0,0,0,0,0,0,0,0,0,0,0,0,0,0,0,0,0,0,0,0,0,0,0,0,0,0,0,0,0,0,0,0,0,0,0
</data>
 </layer>
 <layer id="9" name="AlwaysFront2" width="37" height="25">
  <properties>
   <property name="Draw" value="AlwaysFront"/>
  </properties>
  <data encoding="csv">
0,0,0,0,0,0,0,0,0,0,0,0,0,0,0,0,0,0,0,0,0,0,0,0,0,0,0,0,0,0,0,0,0,0,0,0,0,
0,0,0,0,0,0,0,0,0,0,0,0,0,0,0,0,0,0,0,0,0,0,0,0,0,0,0,0,0,0,0,0,0,0,0,0,0,
0,0,0,0,0,0,0,0,0,0,0,0,0,0,0,0,0,0,1073742493,0,0,0,3758097053,0,0,0,0,0,0,0,0,0,0,0,0,0,0,
0,0,0,0,0,0,0,0,0,0,0,0,0,0,0,0,0,0,0,0,0,0,0,0,0,0,0,0,0,0,0,0,0,0,0,0,0,
0,0,0,0,0,0,0,0,0,0,0,0,0,0,0,0,0,0,0,0,0,0,0,0,0,0,0,0,0,0,0,0,0,0,0,0,0,
0,0,0,0,0,0,0,0,0,0,0,0,0,0,0,0,0,0,0,0,0,0,0,0,0,0,0,0,0,0,0,0,0,0,0,0,0,
0,0,0,0,0,0,0,0,0,0,0,0,0,0,0,0,0,0,0,0,0,0,0,0,0,0,0,0,0,0,0,0,0,0,0,0,0,
0,0,0,0,0,0,0,0,0,0,0,0,0,0,0,0,0,0,0,0,0,0,0,0,0,0,0,0,0,0,0,0,0,0,0,0,0,
0,0,0,0,0,0,0,0,0,0,0,0,0,0,0,0,0,0,0,0,0,0,0,0,0,0,0,0,0,0,0,0,0,0,0,0,0,
0,0,0,0,0,0,0,0,0,0,0,0,0,0,0,0,0,0,0,0,0,0,0,0,0,0,0,0,0,0,0,0,0,0,0,0,0,
0,0,0,0,0,0,0,0,0,0,0,0,0,0,0,0,0,0,0,0,0,0,0,0,0,0,0,0,0,0,0,0,0,0,0,0,0,
0,0,0,0,0,0,0,0,0,0,0,0,0,0,0,0,0,0,0,0,0,0,0,0,0,0,0,0,0,0,0,0,0,0,0,0,0,
0,0,0,0,0,0,0,0,0,0,0,0,0,0,0,0,0,0,0,0,0,0,0,0,0,0,0,0,0,0,0,0,0,0,0,0,0,
0,0,0,0,0,0,0,0,0,0,0,0,0,0,0,0,0,0,0,0,0,0,0,0,0,0,0,0,0,0,0,0,0,0,0,0,0,
0,0,0,0,0,0,0,0,0,0,0,0,0,0,0,0,0,0,0,0,0,0,0,0,0,0,0,0,0,0,0,0,0,0,0,0,0,
0,0,0,0,0,0,0,0,0,0,0,0,0,0,0,0,0,0,0,0,0,0,0,0,0,0,0,0,0,0,0,0,0,0,0,0,0,
0,0,0,0,0,0,0,0,0,0,0,0,0,0,0,0,0,0,0,0,0,0,0,0,0,0,0,0,0,0,0,0,0,0,0,0,0,
0,0,0,0,0,0,0,0,0,0,0,0,0,0,0,0,0,0,0,0,0,0,0,0,0,0,0,0,0,0,0,0,0,0,0,0,0,
0,0,0,0,0,0,0,0,0,0,0,0,0,0,0,0,0,0,0,0,0,0,0,0,0,0,0,0,0,0,0,0,0,0,0,0,0,
0,0,0,0,0,0,0,0,0,0,0,0,0,0,0,0,0,0,0,0,0,0,0,0,0,0,0,0,0,0,0,0,0,0,0,0,0,
0,0,0,0,0,0,0,0,0,0,0,0,0,0,0,0,0,0,0,0,0,0,0,0,0,0,0,0,0,0,0,0,0,0,0,0,0,
0,0,0,0,0,0,0,0,0,0,0,0,0,0,0,0,0,0,0,0,0,0,0,0,0,0,0,0,0,0,0,0,0,0,0,0,0,
0,0,0,0,0,0,0,0,0,0,0,0,0,0,0,0,0,0,0,0,0,0,0,0,0,0,0,0,0,0,0,0,0,0,0,0,0,
0,0,0,0,0,0,0,0,0,0,0,0,0,0,0,0,0,0,0,0,0,0,0,0,0,0,0,0,0,0,0,0,0,0,0,0,0,
0,0,0,0,0,0,0,0,0,0,0,0,0,0,0,0,0,0,0,0,0,0,0,0,0,0,0,0,0,0,0,0,0,0,0,0,0
</data>
 </layer>
 <layer id="19" name="1" width="37" height="25" opacity="0.49">
  <data encoding="csv">
0,0,0,0,0,0,0,0,0,0,0,0,0,0,0,0,0,0,0,0,0,0,0,0,0,0,0,0,0,0,0,0,0,0,0,0,0,
0,0,0,0,0,0,0,0,0,0,0,0,0,0,0,0,0,0,0,0,0,0,0,0,0,0,0,0,0,0,0,0,0,0,0,0,0,
0,0,0,0,0,0,0,0,0,0,0,0,0,0,0,0,0,0,0,0,0,0,0,0,0,0,0,0,0,0,0,0,0,0,0,0,0,
0,0,0,0,0,0,0,0,0,0,0,0,0,0,0,0,0,0,0,0,0,0,0,0,0,0,0,0,0,0,0,0,0,0,0,0,0,
0,0,0,0,0,0,0,0,0,0,0,0,0,0,0,0,0,0,0,0,0,0,0,0,0,0,0,0,0,0,0,0,0,0,0,0,0,
0,0,0,0,0,0,0,0,0,0,0,0,0,0,0,0,0,0,0,0,0,0,0,0,0,0,0,0,0,0,0,0,0,0,0,0,0,
0,0,0,0,0,0,0,0,0,0,0,0,0,0,0,0,0,0,0,0,0,0,0,0,0,0,0,0,0,0,0,0,0,0,0,0,0,
0,0,0,0,0,0,0,0,0,0,0,0,0,0,0,0,0,0,0,0,0,0,0,0,0,0,0,0,0,0,0,0,0,0,0,0,0,
0,0,0,0,0,0,0,0,0,0,0,0,0,0,0,0,0,0,0,0,0,0,0,0,0,0,0,0,0,0,0,0,0,0,0,0,0,
0,0,0,0,0,0,0,0,0,0,0,0,0,0,0,0,0,0,0,0,0,0,0,0,0,0,0,0,0,0,0,0,0,0,0,0,0,
0,0,0,0,0,0,0,0,0,0,0,0,0,0,0,0,0,0,0,0,0,0,0,0,0,0,0,0,0,0,0,0,0,0,0,0,0,
0,0,0,0,0,0,0,0,0,0,0,0,0,0,0,0,0,0,0,0,0,0,0,0,0,0,0,0,0,0,0,0,0,0,0,0,0,
0,0,0,0,0,0,0,0,0,0,0,0,0,0,0,0,0,0,0,0,0,0,0,0,0,0,0,0,0,0,0,0,0,0,0,0,0,
0,0,0,0,0,0,0,0,0,0,0,0,0,0,0,0,0,0,0,0,0,0,0,0,0,0,0,0,0,0,0,0,0,0,0,0,0,
0,0,0,0,0,0,0,0,0,0,0,0,0,0,0,0,0,0,0,0,0,0,0,0,0,0,0,0,0,0,0,0,0,0,0,0,0,
0,0,0,0,0,0,0,0,0,0,0,0,0,0,0,0,0,0,0,0,0,0,0,0,0,0,0,0,0,0,0,0,0,0,0,0,0,
0,0,0,0,0,0,0,0,0,0,0,0,0,0,0,0,0,0,0,0,0,0,0,0,0,0,0,0,0,0,0,0,0,0,0,0,0,
0,0,0,0,0,0,0,0,0,0,0,0,0,0,0,0,0,0,0,0,0,0,0,0,0,0,0,0,0,0,0,0,0,0,0,0,0,
0,0,0,0,0,0,0,0,0,0,0,0,0,0,0,0,0,0,0,0,0,0,0,0,0,0,0,0,0,0,0,0,0,0,0,0,0,
0,0,0,0,0,0,0,0,0,0,0,0,0,0,0,0,0,0,0,0,0,0,0,0,0,0,0,0,0,0,0,0,0,0,0,0,0,
0,0,0,0,0,0,0,0,0,0,0,0,0,0,0,0,0,0,0,0,0,0,0,0,0,0,0,0,0,0,0,0,0,0,0,0,0,
0,0,0,0,0,0,0,0,0,0,0,0,0,0,0,0,0,0,0,0,0,0,0,0,0,0,0,0,0,0,0,0,0,0,0,0,0,
0,0,0,0,0,0,0,0,0,0,0,0,0,0,0,0,0,0,0,0,0,0,0,0,0,0,0,0,0,0,0,0,0,0,0,0,0,
0,0,0,0,0,0,0,0,0,0,0,0,0,0,0,0,0,0,0,0,0,0,0,0,0,0,0,0,0,0,0,0,0,0,0,0,0,
0,0,0,0,0,0,0,0,0,0,0,0,0,0,0,0,0,0,0,0,0,0,0,0,0,0,0,0,0,0,0,0,0,0,0,0,0
</data>
 </layer>
 <objectgroup id="10" name="Back">
  <object id="173" name="TileData" x="16" y="0" width="16" height="16">
   <properties>
    <property name="NoPath" value="T"/>
   </properties>
  </object>
  <object id="174" name="TileData" x="32" y="0" width="16" height="16">
   <properties>
    <property name="NoPath" value="T"/>
   </properties>
  </object>
  <object id="175" name="TileData" x="48" y="0" width="16" height="16">
   <properties>
    <property name="NoPath" value="T"/>
   </properties>
  </object>
  <object id="176" name="TileData" x="64" y="0" width="16" height="16">
   <properties>
    <property name="NoPath" value="T"/>
   </properties>
  </object>
  <object id="177" name="TileData" x="96" y="0" width="16" height="16">
   <properties>
    <property name="NoPath" value="T"/>
   </properties>
  </object>
  <object id="178" name="TileData" x="80" y="0" width="16" height="16">
   <properties>
    <property name="NoPath" value="T"/>
   </properties>
  </object>
  <object id="179" name="TileData" x="0" y="0" width="16" height="16">
   <properties>
    <property name="NoPath" value="T"/>
   </properties>
  </object>
 </objectgroup>
 <objectgroup id="13" name="Buildings"/>
 <objectgroup id="15" name="Paths"/>
 <objectgroup id="16" name="Front"/>
 <objectgroup id="17" name="AlwaysFront"/>
 <objectgroup id="18" name="AlwaysFront2"/>
</map>
