<?xml version="1.0" encoding="UTF-8"?>
<map version="1.10" tiledversion="1.10.2" orientation="orthogonal" renderorder="right-down" compressionlevel="0" width="104" height="50" tilewidth="16" tileheight="16" infinite="0" nextlayerid="34" nextobjectid="566">
 <properties>
  <property name="DayTiles" value="Front 44 31 369 Front 90 35 369"/>
  <property name="Fall_Objects" value="372 .9 382 .6"/>
  <property name="Light" value="44 31 4 90 35 4 44 32 6 90 36 6"/>
  <property name="NightTiles" value="Front 44 31 368 Front 90 35 368"/>
  <property name="Outdoors" value="T"/>
  <property name="Spring_Objects" value="372 .9"/>
  <property name="Summer_Objects" value="372 .9 394 .5"/>
  <property name="Warp" value="38 -1 Town 54 108 39 -1 Town 54 108 40 -1 Town 54 108 67 -1 Town 94 109"/>
  <property name="Winter_Objects" value="392 .8"/>
  <property name="forceLoadPathLayerLights" value="T"/>
 </properties>
 <tileset firstgid="1" name="v16_Shadows" tilewidth="16" tileheight="16" tilecount="475" columns="19">
  <image source="winter_Shadows.png" width="304" height="400"/>
 </tileset>
 <tileset firstgid="476" name="z_aimon_bextras" tilewidth="16" tileheight="16" tilecount="144" columns="12">
  <image source="z_aimon_bextras.png" width="207" height="192"/>
 </tileset>
 <tileset firstgid="620" name="untitled tile sheet" tilewidth="16" tileheight="16" tilecount="527" columns="17">
  <image source="winter_beach.png" width="272" height="496"/>
  <tile id="7">
   <properties>
    <property name="Water" value="T"/>
   </properties>
  </tile>
  <tile id="8">
   <properties>
    <property name="Water" value="T"/>
   </properties>
  </tile>
  <tile id="18">
   <properties>
    <property name="Diggable" value="T"/>
    <property name="Type" value="Dirt"/>
   </properties>
  </tile>
  <tile id="19">
   <properties>
    <property name="Diggable" value="T"/>
    <property name="Type" value="Dirt"/>
   </properties>
  </tile>
  <tile id="20">
   <properties>
    <property name="Diggable" value="T"/>
    <property name="Type" value="Dirt"/>
   </properties>
  </tile>
  <tile id="21">
   <properties>
    <property name="Type" value="Dirt"/>
   </properties>
  </tile>
  <tile id="22">
   <properties>
    <property name="Diggable" value="T"/>
    <property name="Type" value="Dirt"/>
   </properties>
  </tile>
  <tile id="23">
   <properties>
    <property name="Type" value="Dirt"/>
   </properties>
  </tile>
  <tile id="24">
   <properties>
    <property name="Type" value="Dirt"/>
   </properties>
  </tile>
  <tile id="25">
   <properties>
    <property name="Diggable" value="T"/>
    <property name="Type" value="Dirt"/>
   </properties>
  </tile>
  <tile id="26">
   <properties>
    <property name="Diggable" value="T"/>
    <property name="Type" value="Dirt"/>
   </properties>
  </tile>
  <tile id="41">
   <properties>
    <property name="Diggable" value="T"/>
    <property name="Type" value="Dirt"/>
   </properties>
  </tile>
  <tile id="42">
   <properties>
    <property name="Diggable" value="T"/>
    <property name="Spawnable" value="T"/>
    <property name="Type" value="Dirt"/>
   </properties>
  </tile>
  <tile id="43">
   <properties>
    <property name="Diggable" value="T"/>
   </properties>
  </tile>
  <tile id="51">
   <properties>
    <property name="Type" value="Dirt"/>
   </properties>
  </tile>
  <tile id="52">
   <properties>
    <property name="Type" value="Dirt"/>
   </properties>
  </tile>
  <tile id="53">
   <properties>
    <property name="Type" value="Dirt"/>
   </properties>
  </tile>
  <tile id="54">
   <properties>
    <property name="Type" value="Dirt"/>
   </properties>
  </tile>
  <tile id="56">
   <properties>
    <property name="Type" value="Stone"/>
   </properties>
  </tile>
  <tile id="58">
   <properties>
    <property name="Type" value="Dirt"/>
   </properties>
  </tile>
  <tile id="59">
   <properties>
    <property name="Diggable" value="T"/>
    <property name="Type" value="Dirt"/>
   </properties>
  </tile>
  <tile id="60">
   <properties>
    <property name="Type" value="Stone"/>
   </properties>
  </tile>
  <tile id="61">
   <properties>
    <property name="Type" value="Stone"/>
   </properties>
  </tile>
  <tile id="62">
   <properties>
    <property name="Type" value="Stone"/>
   </properties>
  </tile>
  <tile id="63">
   <properties>
    <property name="Type" value="Stone"/>
   </properties>
  </tile>
  <tile id="68">
   <properties>
    <property name="Type" value="Dirt"/>
   </properties>
  </tile>
  <tile id="69">
   <properties>
    <property name="Diggable" value="T"/>
    <property name="Type" value="Dirt"/>
   </properties>
  </tile>
  <tile id="70">
   <properties>
    <property name="Diggable" value="T"/>
    <property name="Type" value="Dirt"/>
   </properties>
  </tile>
  <tile id="71">
   <properties>
    <property name="Type" value="Dirt"/>
   </properties>
  </tile>
  <tile id="75">
   <properties>
    <property name="Water" value="T"/>
   </properties>
  </tile>
  <tile id="77">
   <properties>
    <property name="Type" value="Stone"/>
   </properties>
  </tile>
  <tile id="78">
   <properties>
    <property name="Type" value="Stone"/>
   </properties>
  </tile>
  <tile id="79">
   <properties>
    <property name="Type" value="Stone"/>
   </properties>
  </tile>
  <tile id="80">
   <properties>
    <property name="Type" value="Stone"/>
   </properties>
   <animation>
    <frame tileid="80" duration="600"/>
    <frame tileid="337" duration="600"/>
    <frame tileid="338" duration="600"/>
    <frame tileid="337" duration="600"/>
   </animation>
  </tile>
  <tile id="81">
   <properties>
    <property name="Type" value="Grass"/>
   </properties>
  </tile>
  <tile id="82">
   <properties>
    <property name="Type" value="Grass"/>
   </properties>
  </tile>
  <tile id="85">
   <properties>
    <property name="Type" value="Dirt"/>
   </properties>
  </tile>
  <tile id="86">
   <properties>
    <property name="Diggable" value="T"/>
    <property name="Type" value="Dirt"/>
   </properties>
  </tile>
  <tile id="87">
   <properties>
    <property name="Diggable" value="T"/>
    <property name="Type" value="Dirt"/>
   </properties>
  </tile>
  <tile id="88">
   <properties>
    <property name="Type" value="Dirt"/>
   </properties>
  </tile>
  <tile id="89">
   <properties>
    <property name="Water" value="T"/>
   </properties>
  </tile>
  <tile id="90">
   <properties>
    <property name="Water" value="T"/>
   </properties>
  </tile>
  <tile id="91">
   <properties>
    <property name="Water" value="T"/>
   </properties>
  </tile>
  <tile id="92">
   <properties>
    <property name="Water" value="T"/>
   </properties>
  </tile>
  <tile id="93">
   <properties>
    <property name="Water" value="T"/>
   </properties>
  </tile>
  <tile id="94">
   <properties>
    <property name="Type" value="Stone"/>
   </properties>
  </tile>
  <tile id="95">
   <properties>
    <property name="Type" value="Stone"/>
   </properties>
  </tile>
  <tile id="96">
   <properties>
    <property name="Type" value="Stone"/>
   </properties>
  </tile>
  <tile id="97">
   <properties>
    <property name="Type" value="Stone"/>
   </properties>
  </tile>
  <tile id="100">
   <properties>
    <property name="Type" value="Grass"/>
   </properties>
  </tile>
  <tile id="101">
   <properties>
    <property name="Type" value="Grass"/>
   </properties>
  </tile>
  <tile id="107">
   <properties>
    <property name="Type" value="Dirt"/>
    <property name="Water" value="T"/>
   </properties>
  </tile>
  <tile id="108">
   <properties>
    <property name="Water" value="T"/>
   </properties>
  </tile>
  <tile id="109">
   <properties>
    <property name="Water" value="T"/>
   </properties>
  </tile>
  <tile id="110">
   <properties>
    <property name="Water" value="T"/>
   </properties>
  </tile>
  <tile id="111">
   <properties>
    <property name="Type" value="Stone"/>
   </properties>
  </tile>
  <tile id="112">
   <properties>
    <property name="Type" value="Stone"/>
   </properties>
  </tile>
  <tile id="113">
   <properties>
    <property name="Type" value="Stone"/>
   </properties>
  </tile>
  <tile id="114">
   <properties>
    <property name="Type" value="Stone"/>
   </properties>
  </tile>
  <tile id="117">
   <properties>
    <property name="Type" value="Grass"/>
   </properties>
  </tile>
  <tile id="118">
   <properties>
    <property name="Type" value="Grass"/>
   </properties>
  </tile>
  <tile id="124">
   <properties>
    <property name="Water" value="T"/>
   </properties>
  </tile>
  <tile id="125">
   <properties>
    <property name="Water" value="T"/>
   </properties>
  </tile>
  <tile id="126">
   <properties>
    <property name="Water" value="T"/>
   </properties>
  </tile>
  <tile id="127">
   <properties>
    <property name="Water" value="T"/>
   </properties>
  </tile>
  <tile id="128">
   <properties>
    <property name="Passable" value="T"/>
    <property name="Type" value="Dirt"/>
   </properties>
  </tile>
  <tile id="129">
   <properties>
    <property name="Water" value="T"/>
   </properties>
  </tile>
  <tile id="130">
   <properties>
    <property name="Water" value="T"/>
   </properties>
  </tile>
  <tile id="131">
   <properties>
    <property name="Passable" value="F"/>
    <property name="Water" value="T"/>
   </properties>
  </tile>
  <tile id="141">
   <properties>
    <property name="Passable" value="T"/>
    <property name="Type" value="Dirt"/>
   </properties>
   <animation>
    <frame tileid="141" duration="250"/>
    <frame tileid="142" duration="250"/>
    <frame tileid="143" duration="250"/>
    <frame tileid="144" duration="250"/>
    <frame tileid="144" duration="250"/>
    <frame tileid="145" duration="250"/>
    <frame tileid="146" duration="250"/>
    <frame tileid="147" duration="250"/>
    <frame tileid="141" duration="250"/>
    <frame tileid="141" duration="250"/>
    <frame tileid="141" duration="250"/>
   </animation>
  </tile>
  <tile id="142">
   <properties>
    <property name="Passable" value="T"/>
    <property name="Type" value="Dirt"/>
   </properties>
  </tile>
  <tile id="143">
   <properties>
    <property name="Passable" value="T"/>
    <property name="Type" value="Dirt"/>
   </properties>
  </tile>
  <tile id="144">
   <properties>
    <property name="Passable" value="T"/>
    <property name="Type" value="Dirt"/>
   </properties>
  </tile>
  <tile id="145">
   <properties>
    <property name="Passable" value="T"/>
    <property name="Type" value="Dirt"/>
   </properties>
  </tile>
  <tile id="146">
   <properties>
    <property name="Passable" value="T"/>
    <property name="Type" value="Dirt"/>
   </properties>
  </tile>
  <tile id="147">
   <properties>
    <property name="Passable" value="T"/>
    <property name="Type" value="Dirt"/>
   </properties>
  </tile>
  <tile id="148">
   <properties>
    <property name="Water" value="T"/>
   </properties>
  </tile>
  <tile id="158">
   <properties>
    <property name="Passable" value="T"/>
    <property name="Type" value="Dirt"/>
   </properties>
   <animation>
    <frame tileid="158" duration="250"/>
    <frame tileid="159" duration="250"/>
    <frame tileid="160" duration="250"/>
    <frame tileid="161" duration="250"/>
    <frame tileid="161" duration="250"/>
    <frame tileid="162" duration="250"/>
    <frame tileid="163" duration="250"/>
    <frame tileid="164" duration="250"/>
    <frame tileid="158" duration="250"/>
    <frame tileid="158" duration="250"/>
    <frame tileid="158" duration="250"/>
   </animation>
  </tile>
  <tile id="159">
   <properties>
    <property name="Passable" value="T"/>
    <property name="Type" value="Dirt"/>
   </properties>
  </tile>
  <tile id="160">
   <properties>
    <property name="Passable" value="T"/>
    <property name="Type" value="Dirt"/>
   </properties>
  </tile>
  <tile id="161">
   <properties>
    <property name="Passable" value="T"/>
    <property name="Type" value="Dirt"/>
   </properties>
  </tile>
  <tile id="162">
   <properties>
    <property name="Passable" value="T"/>
    <property name="Type" value="Dirt"/>
   </properties>
  </tile>
  <tile id="163">
   <properties>
    <property name="Passable" value="T"/>
    <property name="Type" value="Dirt"/>
   </properties>
  </tile>
  <tile id="164">
   <properties>
    <property name="Passable" value="T"/>
    <property name="Type" value="Dirt"/>
   </properties>
  </tile>
  <tile id="165">
   <properties>
    <property name="Passable" value="F"/>
    <property name="Water" value="T"/>
   </properties>
  </tile>
  <tile id="169">
   <properties>
    <property name="Type" value="Stone"/>
   </properties>
  </tile>
  <tile id="175">
   <properties>
    <property name="Passable" value="T"/>
    <property name="Type" value="Dirt"/>
   </properties>
   <animation>
    <frame tileid="175" duration="250"/>
    <frame tileid="176" duration="250"/>
    <frame tileid="177" duration="250"/>
    <frame tileid="178" duration="250"/>
    <frame tileid="178" duration="250"/>
    <frame tileid="179" duration="250"/>
    <frame tileid="180" duration="250"/>
    <frame tileid="181" duration="250"/>
    <frame tileid="175" duration="250"/>
    <frame tileid="175" duration="250"/>
    <frame tileid="175" duration="250"/>
   </animation>
  </tile>
  <tile id="176">
   <properties>
    <property name="Passable" value="T"/>
    <property name="Type" value="Dirt"/>
   </properties>
  </tile>
  <tile id="177">
   <properties>
    <property name="Passable" value="T"/>
    <property name="Type" value="Dirt"/>
   </properties>
  </tile>
  <tile id="178">
   <properties>
    <property name="Passable" value="T"/>
    <property name="Type" value="Dirt"/>
   </properties>
  </tile>
  <tile id="179">
   <properties>
    <property name="Passable" value="T"/>
    <property name="Type" value="Dirt"/>
   </properties>
  </tile>
  <tile id="180">
   <properties>
    <property name="Passable" value="T"/>
    <property name="Type" value="Dirt"/>
   </properties>
  </tile>
  <tile id="181">
   <properties>
    <property name="Passable" value="T"/>
    <property name="Type" value="Dirt"/>
   </properties>
  </tile>
  <tile id="185">
   <properties>
    <property name="Water" value="T"/>
   </properties>
  </tile>
  <tile id="186">
   <properties>
    <property name="Type" value="Stone"/>
   </properties>
  </tile>
  <tile id="192">
   <properties>
    <property name="Passable" value="T"/>
    <property name="Type" value="Dirt"/>
   </properties>
   <animation>
    <frame tileid="192" duration="250"/>
    <frame tileid="193" duration="250"/>
    <frame tileid="194" duration="250"/>
    <frame tileid="195" duration="250"/>
    <frame tileid="195" duration="250"/>
    <frame tileid="196" duration="250"/>
    <frame tileid="197" duration="250"/>
    <frame tileid="198" duration="250"/>
    <frame tileid="192" duration="250"/>
    <frame tileid="192" duration="250"/>
    <frame tileid="192" duration="250"/>
   </animation>
  </tile>
  <tile id="193">
   <properties>
    <property name="Passable" value="T"/>
    <property name="Type" value="Dirt"/>
   </properties>
  </tile>
  <tile id="194">
   <properties>
    <property name="Passable" value="T"/>
    <property name="Type" value="Dirt"/>
   </properties>
  </tile>
  <tile id="195">
   <properties>
    <property name="Passable" value="T"/>
    <property name="Type" value="Dirt"/>
   </properties>
  </tile>
  <tile id="196">
   <properties>
    <property name="Passable" value="T"/>
    <property name="Type" value="Dirt"/>
   </properties>
  </tile>
  <tile id="197">
   <properties>
    <property name="Passable" value="T"/>
    <property name="Type" value="Dirt"/>
   </properties>
  </tile>
  <tile id="198">
   <properties>
    <property name="Passable" value="T"/>
    <property name="Type" value="Dirt"/>
   </properties>
  </tile>
  <tile id="202">
   <properties>
    <property name="Diggable" value="T"/>
   </properties>
  </tile>
  <tile id="203">
   <properties>
    <property name="Water" value="T"/>
   </properties>
  </tile>
  <tile id="209">
   <properties>
    <property name="Passable" value="T"/>
    <property name="Type" value="Dirt"/>
   </properties>
   <animation>
    <frame tileid="209" duration="250"/>
    <frame tileid="210" duration="250"/>
    <frame tileid="211" duration="250"/>
    <frame tileid="212" duration="250"/>
    <frame tileid="212" duration="250"/>
    <frame tileid="213" duration="250"/>
    <frame tileid="214" duration="250"/>
    <frame tileid="215" duration="250"/>
    <frame tileid="209" duration="250"/>
    <frame tileid="209" duration="250"/>
    <frame tileid="209" duration="250"/>
   </animation>
  </tile>
  <tile id="210">
   <properties>
    <property name="Passable" value="T"/>
    <property name="Type" value="Dirt"/>
   </properties>
  </tile>
  <tile id="211">
   <properties>
    <property name="Passable" value="T"/>
    <property name="Type" value="Dirt"/>
   </properties>
  </tile>
  <tile id="212">
   <properties>
    <property name="Passable" value="T"/>
    <property name="Type" value="Dirt"/>
   </properties>
  </tile>
  <tile id="213">
   <properties>
    <property name="Passable" value="T"/>
    <property name="Type" value="Dirt"/>
   </properties>
  </tile>
  <tile id="214">
   <properties>
    <property name="Passable" value="T"/>
    <property name="Type" value="Dirt"/>
   </properties>
  </tile>
  <tile id="215">
   <properties>
    <property name="Passable" value="T"/>
    <property name="Type" value="Dirt"/>
   </properties>
  </tile>
  <tile id="216">
   <animation>
    <frame tileid="216" duration="1000"/>
    <frame tileid="267" duration="1000"/>
   </animation>
  </tile>
  <tile id="217">
   <animation>
    <frame tileid="217" duration="1000"/>
    <frame tileid="268" duration="1000"/>
   </animation>
  </tile>
  <tile id="218">
   <animation>
    <frame tileid="218" duration="1000"/>
    <frame tileid="269" duration="1000"/>
   </animation>
  </tile>
  <tile id="219">
   <properties>
    <property name="Type" value="Stone"/>
   </properties>
  </tile>
  <tile id="220">
   <properties>
    <property name="Type" value="Stone"/>
   </properties>
  </tile>
  <tile id="226">
   <properties>
    <property name="Passable" value="T"/>
    <property name="Type" value="Dirt"/>
   </properties>
   <animation>
    <frame tileid="226" duration="250"/>
    <frame tileid="227" duration="250"/>
    <frame tileid="228" duration="250"/>
    <frame tileid="229" duration="250"/>
    <frame tileid="229" duration="250"/>
    <frame tileid="230" duration="250"/>
    <frame tileid="231" duration="250"/>
    <frame tileid="232" duration="250"/>
    <frame tileid="226" duration="250"/>
    <frame tileid="226" duration="250"/>
    <frame tileid="226" duration="250"/>
   </animation>
  </tile>
  <tile id="227">
   <properties>
    <property name="Passable" value="T"/>
    <property name="Type" value="Dirt"/>
   </properties>
  </tile>
  <tile id="228">
   <properties>
    <property name="Passable" value="T"/>
    <property name="Type" value="Dirt"/>
   </properties>
  </tile>
  <tile id="229">
   <properties>
    <property name="Passable" value="T"/>
    <property name="Type" value="Dirt"/>
   </properties>
  </tile>
  <tile id="230">
   <properties>
    <property name="Passable" value="T"/>
    <property name="Type" value="Dirt"/>
   </properties>
  </tile>
  <tile id="231">
   <properties>
    <property name="Passable" value="T"/>
    <property name="Type" value="Dirt"/>
   </properties>
  </tile>
  <tile id="232">
   <properties>
    <property name="Passable" value="T"/>
    <property name="Type" value="Dirt"/>
   </properties>
  </tile>
  <tile id="233">
   <properties>
    <property name="Water" value="T"/>
   </properties>
  </tile>
  <tile id="234">
   <properties>
    <property name="Water" value="T"/>
   </properties>
  </tile>
  <tile id="235">
   <properties>
    <property name="Water" value="T"/>
   </properties>
  </tile>
  <tile id="236">
   <properties>
    <property name="Type" value="Stone"/>
   </properties>
  </tile>
  <tile id="237">
   <properties>
    <property name="Type" value="Stone"/>
   </properties>
  </tile>
  <tile id="243">
   <properties>
    <property name="Passable" value="T"/>
    <property name="Type" value="Dirt"/>
   </properties>
   <animation>
    <frame tileid="243" duration="250"/>
    <frame tileid="244" duration="250"/>
    <frame tileid="245" duration="250"/>
    <frame tileid="246" duration="250"/>
    <frame tileid="246" duration="250"/>
    <frame tileid="247" duration="250"/>
    <frame tileid="248" duration="250"/>
    <frame tileid="249" duration="250"/>
    <frame tileid="243" duration="250"/>
    <frame tileid="243" duration="250"/>
    <frame tileid="243" duration="250"/>
   </animation>
  </tile>
  <tile id="244">
   <properties>
    <property name="Passable" value="T"/>
    <property name="Type" value="Dirt"/>
   </properties>
  </tile>
  <tile id="245">
   <properties>
    <property name="Passable" value="T"/>
    <property name="Type" value="Dirt"/>
   </properties>
  </tile>
  <tile id="246">
   <properties>
    <property name="Passable" value="T"/>
    <property name="Type" value="Dirt"/>
   </properties>
  </tile>
  <tile id="247">
   <properties>
    <property name="Passable" value="T"/>
    <property name="Type" value="Dirt"/>
   </properties>
  </tile>
  <tile id="248">
   <properties>
    <property name="Passable" value="T"/>
    <property name="Type" value="Dirt"/>
   </properties>
  </tile>
  <tile id="249">
   <properties>
    <property name="Passable" value="T"/>
    <property name="Type" value="Dirt"/>
   </properties>
  </tile>
  <tile id="250">
   <properties>
    <property name="Water" value="T"/>
   </properties>
  </tile>
  <tile id="251">
   <properties>
    <property name="Water" value="T"/>
   </properties>
  </tile>
  <tile id="252">
   <properties>
    <property name="Water" value="T"/>
   </properties>
  </tile>
  <tile id="253">
   <properties>
    <property name="Type" value="Stone"/>
   </properties>
  </tile>
  <tile id="254">
   <properties>
    <property name="Type" value="Stone"/>
   </properties>
  </tile>
  <tile id="260">
   <properties>
    <property name="Passable" value="T"/>
    <property name="Type" value="Dirt"/>
   </properties>
   <animation>
    <frame tileid="260" duration="250"/>
    <frame tileid="261" duration="250"/>
    <frame tileid="262" duration="250"/>
    <frame tileid="263" duration="250"/>
    <frame tileid="263" duration="250"/>
    <frame tileid="264" duration="250"/>
    <frame tileid="265" duration="250"/>
    <frame tileid="266" duration="250"/>
    <frame tileid="260" duration="250"/>
    <frame tileid="260" duration="250"/>
    <frame tileid="260" duration="250"/>
   </animation>
  </tile>
  <tile id="261">
   <properties>
    <property name="Passable" value="T"/>
    <property name="Type" value="Dirt"/>
   </properties>
  </tile>
  <tile id="262">
   <properties>
    <property name="Passable" value="T"/>
    <property name="Type" value="Dirt"/>
   </properties>
  </tile>
  <tile id="263">
   <properties>
    <property name="Passable" value="T"/>
    <property name="Type" value="Dirt"/>
   </properties>
  </tile>
  <tile id="264">
   <properties>
    <property name="Passable" value="T"/>
    <property name="Type" value="Dirt"/>
   </properties>
  </tile>
  <tile id="265">
   <properties>
    <property name="Passable" value="T"/>
    <property name="Type" value="Dirt"/>
   </properties>
  </tile>
  <tile id="266">
   <properties>
    <property name="Passable" value="T"/>
    <property name="Type" value="Dirt"/>
   </properties>
  </tile>
  <tile id="270">
   <properties>
    <property name="Type" value="Stone"/>
   </properties>
  </tile>
  <tile id="271">
   <properties>
    <property name="Type" value="Stone"/>
   </properties>
  </tile>
  <tile id="277">
   <properties>
    <property name="Type" value="Wood"/>
   </properties>
  </tile>
  <tile id="278">
   <properties>
    <property name="Type" value="Wood"/>
   </properties>
  </tile>
  <tile id="279">
   <properties>
    <property name="Type" value="Wood"/>
   </properties>
  </tile>
  <tile id="280">
   <properties>
    <property name="Type" value="Dirt"/>
   </properties>
  </tile>
  <tile id="287">
   <properties>
    <property name="Type" value="Stone"/>
   </properties>
  </tile>
  <tile id="297">
   <properties>
    <property name="Type" value="Wood"/>
   </properties>
  </tile>
  <tile id="298">
   <properties>
    <property name="Type" value="Wood"/>
   </properties>
  </tile>
  <tile id="299">
   <properties>
    <property name="Type" value="Wood"/>
   </properties>
  </tile>
  <tile id="300">
   <properties>
    <property name="Type" value="Wood"/>
   </properties>
  </tile>
  <tile id="301">
   <properties>
    <property name="Type" value="Wood"/>
   </properties>
  </tile>
  <tile id="302">
   <properties>
    <property name="Type" value="Wood"/>
   </properties>
  </tile>
  <tile id="334">
   <properties>
    <property name="Water" value="T"/>
   </properties>
  </tile>
  <tile id="335">
   <properties>
    <property name="Water" value="T"/>
   </properties>
  </tile>
  <tile id="336">
   <properties>
    <property name="Water" value="T"/>
   </properties>
  </tile>
  <tile id="337">
   <properties>
    <property name="Type" value="Stone"/>
   </properties>
  </tile>
  <tile id="338">
   <properties>
    <property name="Type" value="Stone"/>
   </properties>
  </tile>
  <tile id="339">
   <properties>
    <property name="Passable" value="F"/>
    <property name="Water" value="T"/>
   </properties>
  </tile>
  <tile id="373">
   <properties>
    <property name="Water" value="T"/>
   </properties>
  </tile>
  <tile id="419">
   <properties>
    <property name="Type" value="Wood"/>
   </properties>
  </tile>
  <tile id="420">
   <properties>
    <property name="Type" value="Wood"/>
   </properties>
  </tile>
  <tile id="421">
   <properties>
    <property name="Type" value="Wood"/>
   </properties>
  </tile>
  <tile id="423">
   <properties>
    <property name="Water" value="T"/>
   </properties>
  </tile>
  <tile id="424">
   <properties>
    <property name="Water" value="T"/>
   </properties>
  </tile>
  <tile id="435">
   <properties>
    <property name="Type" value="Wood"/>
   </properties>
  </tile>
  <tile id="440">
   <properties>
    <property name="Water" value="T"/>
   </properties>
  </tile>
  <tile id="441">
   <properties>
    <property name="Water" value="T"/>
   </properties>
  </tile>
  <tile id="453">
   <properties>
    <property name="Type" value="Wood"/>
   </properties>
  </tile>
  <tile id="454">
   <properties>
    <property name="Type" value="Wood"/>
   </properties>
  </tile>
  <tile id="455">
   <properties>
    <property name="Type" value="Wood"/>
   </properties>
  </tile>
  <tile id="458">
   <properties>
    <property name="Water" value="T"/>
   </properties>
  </tile>
  <tile id="470">
   <properties>
    <property name="Type" value="Wood"/>
   </properties>
  </tile>
  <tile id="471">
   <properties>
    <property name="Type" value="Wood"/>
   </properties>
  </tile>
  <tile id="472">
   <properties>
    <property name="Type" value="Wood"/>
   </properties>
  </tile>
  <tile id="475">
   <properties>
    <property name="Water" value="T"/>
   </properties>
  </tile>
  <tile id="487">
   <properties>
    <property name="Type" value="Wood"/>
   </properties>
  </tile>
  <tile id="488">
   <properties>
    <property name="Type" value="Wood"/>
   </properties>
  </tile>
  <tile id="489">
   <properties>
    <property name="Type" value="Wood"/>
   </properties>
  </tile>
  <tile id="491">
   <properties>
    <property name="Type" value="Wood"/>
   </properties>
  </tile>
  <tile id="504">
   <properties>
    <property name="Type" value="Wood"/>
   </properties>
  </tile>
  <tile id="505">
   <properties>
    <property name="Type" value="Wood"/>
   </properties>
  </tile>
  <tile id="506">
   <properties>
    <property name="Type" value="Wood"/>
   </properties>
  </tile>
  <tile id="508">
   <properties>
    <property name="Type" value="Wood"/>
   </properties>
  </tile>
 </tileset>
 <tileset firstgid="1147" name="zspring_town" tilewidth="16" tileheight="16" tilecount="2304" columns="32">
  <image source="spring_town.png" width="512" height="1152"/>
 </tileset>
 <tileset firstgid="3451" source="untitled tile sheet.tsx"/>
 <tileset firstgid="3978" name="z_spring_outdoorsTileSheet" tilewidth="16" tileheight="16" tilecount="1975" columns="25">
  <image source="spring_outdoorsTileSheet.png" width="400" height="1264"/>
 </tileset>
 <tileset firstgid="5953" name="night market" tilewidth="16" tileheight="16" tilecount="1368" columns="72">
  <image source="night_market_tilesheet_objects" width="1152" height="312"/>
  <tile id="260">
   <animation>
    <frame tileid="260" duration="1000"/>
    <frame tileid="250" duration="1000"/>
   </animation>
  </tile>
  <tile id="261">
   <animation>
    <frame tileid="261" duration="1000"/>
    <frame tileid="251" duration="1000"/>
   </animation>
  </tile>
  <tile id="293">
   <animation>
    <frame tileid="293" duration="100"/>
    <frame tileid="1162" duration="100"/>
    <frame tileid="1163" duration="100"/>
    <frame tileid="1164" duration="100"/>
    <frame tileid="1165" duration="100"/>
    <frame tileid="1166" duration="100"/>
    <frame tileid="1167" duration="100"/>
    <frame tileid="1168" duration="100"/>
   </animation>
  </tile>
  <tile id="327">
   <animation>
    <frame tileid="327" duration="100"/>
    <frame tileid="327" duration="100"/>
    <frame tileid="327" duration="100"/>
    <frame tileid="327" duration="100"/>
    <frame tileid="327" duration="100"/>
    <frame tileid="327" duration="100"/>
    <frame tileid="327" duration="100"/>
    <frame tileid="45" duration="100"/>
    <frame tileid="46" duration="100"/>
    <frame tileid="45" duration="100"/>
    <frame tileid="327" duration="100"/>
    <frame tileid="327" duration="100"/>
    <frame tileid="327" duration="100"/>
    <frame tileid="327" duration="100"/>
    <frame tileid="327" duration="100"/>
    <frame tileid="327" duration="100"/>
    <frame tileid="327" duration="100"/>
    <frame tileid="327" duration="100"/>
    <frame tileid="327" duration="100"/>
    <frame tileid="47" duration="100"/>
    <frame tileid="48" duration="100"/>
    <frame tileid="49" duration="100"/>
    <frame tileid="50" duration="100"/>
    <frame tileid="51" duration="100"/>
    <frame tileid="52" duration="100"/>
    <frame tileid="53" duration="100"/>
    <frame tileid="54" duration="100"/>
    <frame tileid="55" duration="100"/>
    <frame tileid="56" duration="100"/>
    <frame tileid="55" duration="100"/>
    <frame tileid="54" duration="100"/>
    <frame tileid="53" duration="100"/>
    <frame tileid="52" duration="100"/>
    <frame tileid="51" duration="100"/>
    <frame tileid="50" duration="100"/>
    <frame tileid="49" duration="100"/>
    <frame tileid="48" duration="100"/>
    <frame tileid="47" duration="100"/>
    <frame tileid="327" duration="100"/>
    <frame tileid="327" duration="100"/>
    <frame tileid="327" duration="100"/>
    <frame tileid="327" duration="100"/>
    <frame tileid="327" duration="100"/>
    <frame tileid="327" duration="100"/>
    <frame tileid="327" duration="100"/>
    <frame tileid="327" duration="100"/>
   </animation>
  </tile>
  <tile id="332">
   <animation>
    <frame tileid="332" duration="1000"/>
    <frame tileid="322" duration="1000"/>
   </animation>
  </tile>
  <tile id="333">
   <animation>
    <frame tileid="333" duration="1000"/>
    <frame tileid="323" duration="1000"/>
   </animation>
  </tile>
  <tile id="404">
   <animation>
    <frame tileid="404" duration="1000"/>
    <frame tileid="394" duration="1000"/>
   </animation>
  </tile>
  <tile id="405">
   <animation>
    <frame tileid="405" duration="1000"/>
    <frame tileid="395" duration="1000"/>
   </animation>
  </tile>
  <tile id="523">
   <animation>
    <frame tileid="523" duration="200"/>
    <frame tileid="523" duration="200"/>
    <frame tileid="523" duration="200"/>
    <frame tileid="523" duration="200"/>
    <frame tileid="523" duration="200"/>
    <frame tileid="523" duration="200"/>
    <frame tileid="523" duration="200"/>
    <frame tileid="523" duration="200"/>
    <frame tileid="1298" duration="200"/>
    <frame tileid="1298" duration="200"/>
    <frame tileid="523" duration="200"/>
    <frame tileid="523" duration="200"/>
    <frame tileid="1300" duration="200"/>
    <frame tileid="523" duration="200"/>
    <frame tileid="523" duration="200"/>
    <frame tileid="523" duration="200"/>
    <frame tileid="523" duration="200"/>
    <frame tileid="523" duration="200"/>
    <frame tileid="523" duration="200"/>
    <frame tileid="1224" duration="200"/>
    <frame tileid="1226" duration="200"/>
    <frame tileid="1228" duration="200"/>
    <frame tileid="1224" duration="200"/>
    <frame tileid="1226" duration="200"/>
    <frame tileid="1228" duration="200"/>
   </animation>
  </tile>
  <tile id="524">
   <animation>
    <frame tileid="524" duration="200"/>
    <frame tileid="524" duration="200"/>
    <frame tileid="524" duration="200"/>
    <frame tileid="524" duration="200"/>
    <frame tileid="524" duration="200"/>
    <frame tileid="524" duration="200"/>
    <frame tileid="524" duration="200"/>
    <frame tileid="524" duration="200"/>
    <frame tileid="1299" duration="200"/>
    <frame tileid="1299" duration="200"/>
    <frame tileid="524" duration="200"/>
    <frame tileid="524" duration="200"/>
    <frame tileid="1301" duration="200"/>
    <frame tileid="524" duration="200"/>
    <frame tileid="524" duration="200"/>
    <frame tileid="524" duration="200"/>
    <frame tileid="524" duration="200"/>
    <frame tileid="524" duration="200"/>
    <frame tileid="524" duration="200"/>
    <frame tileid="1225" duration="200"/>
    <frame tileid="1227" duration="200"/>
    <frame tileid="1229" duration="200"/>
    <frame tileid="1225" duration="200"/>
    <frame tileid="1227" duration="200"/>
    <frame tileid="1229" duration="200"/>
   </animation>
  </tile>
  <tile id="562">
   <properties>
    <property name="Type" value="Wood"/>
   </properties>
  </tile>
  <tile id="580">
   <animation>
    <frame tileid="580" duration="500"/>
    <frame tileid="580" duration="500"/>
    <frame tileid="580" duration="500"/>
    <frame tileid="580" duration="500"/>
    <frame tileid="580" duration="500"/>
    <frame tileid="580" duration="500"/>
    <frame tileid="580" duration="500"/>
    <frame tileid="580" duration="500"/>
    <frame tileid="580" duration="500"/>
    <frame tileid="580" duration="500"/>
    <frame tileid="1231" duration="500"/>
    <frame tileid="1232" duration="500"/>
    <frame tileid="1232" duration="500"/>
    <frame tileid="1231" duration="500"/>
   </animation>
  </tile>
  <tile id="634">
   <properties>
    <property name="Type" value="Wood"/>
   </properties>
  </tile>
  <tile id="652">
   <animation>
    <frame tileid="652" duration="500"/>
    <frame tileid="652" duration="500"/>
    <frame tileid="652" duration="500"/>
    <frame tileid="652" duration="500"/>
    <frame tileid="652" duration="500"/>
    <frame tileid="652" duration="500"/>
    <frame tileid="652" duration="500"/>
    <frame tileid="652" duration="500"/>
    <frame tileid="652" duration="500"/>
    <frame tileid="652" duration="500"/>
    <frame tileid="1303" duration="500"/>
    <frame tileid="1304" duration="500"/>
    <frame tileid="1304" duration="500"/>
    <frame tileid="1303" duration="500"/>
   </animation>
  </tile>
  <tile id="695">
   <animation>
    <frame tileid="695" duration="800"/>
    <frame tileid="695" duration="800"/>
    <frame tileid="695" duration="800"/>
    <frame tileid="695" duration="800"/>
    <frame tileid="695" duration="800"/>
    <frame tileid="695" duration="800"/>
    <frame tileid="695" duration="800"/>
    <frame tileid="695" duration="800"/>
    <frame tileid="695" duration="800"/>
    <frame tileid="1366" duration="800"/>
   </animation>
  </tile>
  <tile id="696">
   <animation>
    <frame tileid="696" duration="800"/>
    <frame tileid="696" duration="800"/>
    <frame tileid="696" duration="800"/>
    <frame tileid="696" duration="800"/>
    <frame tileid="696" duration="800"/>
    <frame tileid="696" duration="800"/>
    <frame tileid="696" duration="800"/>
    <frame tileid="696" duration="800"/>
    <frame tileid="696" duration="800"/>
    <frame tileid="1367" duration="800"/>
   </animation>
  </tile>
  <tile id="706">
   <properties>
    <property name="Type" value="Wood"/>
   </properties>
  </tile>
  <tile id="725">
   <properties>
    <property name="Type" value="Wood"/>
   </properties>
  </tile>
  <tile id="778">
   <properties>
    <property name="Type" value="Wood"/>
   </properties>
  </tile>
  <tile id="797">
   <properties>
    <property name="Type" value="Wood"/>
   </properties>
  </tile>
  <tile id="798">
   <properties>
    <property name="Type" value="Wood"/>
   </properties>
  </tile>
  <tile id="799">
   <properties>
    <property name="Type" value="Wood"/>
   </properties>
  </tile>
  <tile id="806">
   <animation>
    <frame tileid="806" duration="100"/>
    <frame tileid="1307" duration="100"/>
    <frame tileid="1307" duration="100"/>
    <frame tileid="1307" duration="100"/>
    <frame tileid="1307" duration="100"/>
    <frame tileid="1307" duration="100"/>
    <frame tileid="1307" duration="100"/>
    <frame tileid="1307" duration="100"/>
    <frame tileid="1307" duration="100"/>
    <frame tileid="1307" duration="100"/>
    <frame tileid="1307" duration="100"/>
    <frame tileid="1307" duration="100"/>
    <frame tileid="1307" duration="100"/>
    <frame tileid="1307" duration="100"/>
    <frame tileid="1307" duration="100"/>
    <frame tileid="1307" duration="100"/>
    <frame tileid="1307" duration="100"/>
    <frame tileid="1308" duration="100"/>
    <frame tileid="1309" duration="100"/>
    <frame tileid="1309" duration="100"/>
    <frame tileid="1308" duration="100"/>
    <frame tileid="1307" duration="100"/>
    <frame tileid="1307" duration="100"/>
    <frame tileid="1307" duration="100"/>
    <frame tileid="1307" duration="100"/>
    <frame tileid="1307" duration="100"/>
    <frame tileid="1307" duration="100"/>
    <frame tileid="1307" duration="100"/>
    <frame tileid="1307" duration="100"/>
    <frame tileid="1307" duration="100"/>
    <frame tileid="1307" duration="100"/>
    <frame tileid="1307" duration="100"/>
    <frame tileid="1307" duration="100"/>
    <frame tileid="1307" duration="100"/>
    <frame tileid="1307" duration="100"/>
    <frame tileid="1307" duration="100"/>
    <frame tileid="1307" duration="100"/>
    <frame tileid="1308" duration="100"/>
    <frame tileid="1309" duration="100"/>
    <frame tileid="1308" duration="100"/>
    <frame tileid="1307" duration="100"/>
    <frame tileid="1307" duration="100"/>
    <frame tileid="1307" duration="100"/>
    <frame tileid="1307" duration="100"/>
    <frame tileid="1308" duration="100"/>
    <frame tileid="1309" duration="100"/>
    <frame tileid="1308" duration="100"/>
    <frame tileid="1307" duration="100"/>
    <frame tileid="1307" duration="100"/>
    <frame tileid="1307" duration="100"/>
    <frame tileid="1307" duration="100"/>
    <frame tileid="1307" duration="100"/>
    <frame tileid="1307" duration="100"/>
    <frame tileid="1307" duration="100"/>
    <frame tileid="1307" duration="100"/>
    <frame tileid="1307" duration="100"/>
    <frame tileid="1307" duration="100"/>
    <frame tileid="1307" duration="100"/>
    <frame tileid="1307" duration="100"/>
    <frame tileid="1307" duration="100"/>
   </animation>
  </tile>
  <tile id="850">
   <properties>
    <property name="Type" value="Wood"/>
   </properties>
  </tile>
  <tile id="853">
   <animation>
    <frame tileid="853" duration="1000"/>
    <frame tileid="856" duration="1000"/>
   </animation>
  </tile>
  <tile id="854">
   <animation>
    <frame tileid="854" duration="1000"/>
    <frame tileid="857" duration="1000"/>
   </animation>
  </tile>
  <tile id="855">
   <animation>
    <frame tileid="855" duration="1000"/>
    <frame tileid="858" duration="1000"/>
   </animation>
  </tile>
  <tile id="878">
   <animation>
    <frame tileid="878" duration="250"/>
    <frame tileid="878" duration="250"/>
    <frame tileid="878" duration="250"/>
    <frame tileid="878" duration="250"/>
    <frame tileid="878" duration="250"/>
    <frame tileid="878" duration="250"/>
    <frame tileid="878" duration="250"/>
    <frame tileid="878" duration="250"/>
    <frame tileid="878" duration="250"/>
    <frame tileid="878" duration="250"/>
    <frame tileid="878" duration="250"/>
    <frame tileid="878" duration="250"/>
    <frame tileid="878" duration="250"/>
    <frame tileid="878" duration="250"/>
    <frame tileid="878" duration="250"/>
    <frame tileid="878" duration="250"/>
    <frame tileid="878" duration="250"/>
    <frame tileid="878" duration="250"/>
    <frame tileid="1310" duration="250"/>
    <frame tileid="878" duration="250"/>
    <frame tileid="1311" duration="250"/>
    <frame tileid="878" duration="250"/>
    <frame tileid="1310" duration="250"/>
    <frame tileid="878" duration="250"/>
    <frame tileid="1311" duration="250"/>
   </animation>
  </tile>
  <tile id="925">
   <animation>
    <frame tileid="925" duration="1000"/>
    <frame tileid="928" duration="1000"/>
   </animation>
  </tile>
  <tile id="926">
   <animation>
    <frame tileid="926" duration="1000"/>
    <frame tileid="929" duration="1000"/>
   </animation>
  </tile>
  <tile id="927">
   <animation>
    <frame tileid="927" duration="1000"/>
    <frame tileid="930" duration="1000"/>
   </animation>
  </tile>
  <tile id="1146">
   <animation>
    <frame tileid="1146" duration="800"/>
    <frame tileid="1146" duration="800"/>
    <frame tileid="1146" duration="800"/>
    <frame tileid="1146" duration="800"/>
    <frame tileid="1146" duration="800"/>
    <frame tileid="1146" duration="800"/>
    <frame tileid="1146" duration="800"/>
    <frame tileid="1146" duration="800"/>
    <frame tileid="1147" duration="800"/>
   </animation>
  </tile>
  <tile id="1212">
   <animation>
    <frame tileid="1212" duration="100"/>
    <frame tileid="1212" duration="100"/>
    <frame tileid="1212" duration="100"/>
    <frame tileid="1211" duration="100"/>
    <frame tileid="1210" duration="100"/>
    <frame tileid="1210" duration="100"/>
    <frame tileid="1210" duration="100"/>
    <frame tileid="1211" duration="100"/>
   </animation>
  </tile>
  <tile id="1213">
   <animation>
    <frame tileid="1213" duration="500"/>
    <frame tileid="1213" duration="500"/>
    <frame tileid="1213" duration="500"/>
    <frame tileid="1213" duration="500"/>
    <frame tileid="1213" duration="500"/>
    <frame tileid="1213" duration="500"/>
    <frame tileid="1213" duration="500"/>
    <frame tileid="1213" duration="500"/>
    <frame tileid="1213" duration="500"/>
    <frame tileid="1213" duration="500"/>
    <frame tileid="1213" duration="500"/>
    <frame tileid="1213" duration="500"/>
    <frame tileid="1213" duration="500"/>
    <frame tileid="1214" duration="500"/>
    <frame tileid="1213" duration="500"/>
    <frame tileid="1215" duration="500"/>
    <frame tileid="1213" duration="500"/>
    <frame tileid="1213" duration="500"/>
   </animation>
  </tile>
  <tile id="1218">
   <animation>
    <frame tileid="1218" duration="800"/>
    <frame tileid="1218" duration="800"/>
    <frame tileid="1218" duration="800"/>
    <frame tileid="1218" duration="800"/>
    <frame tileid="1218" duration="800"/>
    <frame tileid="1218" duration="800"/>
    <frame tileid="1218" duration="800"/>
    <frame tileid="1218" duration="800"/>
    <frame tileid="1219" duration="800"/>
   </animation>
  </tile>
  <tile id="1284">
   <animation>
    <frame tileid="1284" duration="100"/>
    <frame tileid="1284" duration="100"/>
    <frame tileid="1284" duration="100"/>
    <frame tileid="1283" duration="100"/>
    <frame tileid="1282" duration="100"/>
    <frame tileid="1282" duration="100"/>
    <frame tileid="1282" duration="100"/>
    <frame tileid="1283" duration="100"/>
   </animation>
  </tile>
 </tileset>
 <tileset firstgid="7321" name="Paths" tilewidth="16" tileheight="16" tilecount="64" columns="4">
  <image source="paths" width="64" height="256"/>
  <tile id="0">
   <properties>
    <property name="PathType" value="NE"/>
   </properties>
  </tile>
  <tile id="1">
   <properties>
    <property name="PathType" value="SE"/>
   </properties>
  </tile>
  <tile id="2">
   <properties>
    <property name="PathType" value="WS"/>
   </properties>
  </tile>
  <tile id="3">
   <properties>
    <property name="PathType" value="WN"/>
   </properties>
  </tile>
  <tile id="4">
   <properties>
    <property name="PathType" value="Crossroad"/>
   </properties>
  </tile>
  <tile id="7">
   <properties>
    <property name="PathType" value="End"/>
   </properties>
  </tile>
 </tileset>
 <tileset firstgid="7385" name="z_Festivals" tilewidth="16" tileheight="16" tilecount="1024" columns="32">
  <image source="Festivals.png" width="512" height="512"/>
  <tile id="298">
   <animation>
    <frame tileid="298" duration="1000"/>
    <frame tileid="299" duration="1000"/>
   </animation>
  </tile>
 </tileset>
 <tileset firstgid="8409" name="z_aimon_bextras2" tilewidth="16" tileheight="16" tilecount="156" columns="13">
  <image source="z_aimon_bextras2.png" width="208" height="192"/>
 </tileset>
 <layer id="1" name="Back" width="104" height="50">
  <data encoding="csv">
719,719,719,719,719,719,3221226191,3221226191,3221226191,719,719,719,650,650,650,650,650,650,650,650,650,650,650,650,719,719,719,719,719,651,651,651,651,651,719,772,737,736,688,691,752,721,719,719,719,719,719,719,719,719,719,719,651,651,651,720,736,2147484376,727,729,729,729,2684355278,752,721,719,719,719,719,719,719,719,719,719,719,719,719,719,719,719,719,719,719,719,719,719,719,719,719,719,719,719,719,719,719,719,719,719,719,719,719,719,719,719,
719,719,719,719,719,719,719,719,719,719,719,719,650,650,650,650,650,650,650,650,650,650,719,719,719,719,719,719,719,719,719,719,719,719,772,737,755,735,688,691,752,721,719,719,719,719,719,719,719,719,719,719,719,719,719,720,736,2147484393,729,729,2684355271,644,2684355278,721,721,719,719,719,719,719,719,719,719,719,719,719,719,719,719,719,719,719,719,719,719,719,651,719,719,719,719,719,719,719,719,719,719,719,719,719,719,719,719,719,
701,702,701,702,701,702,670,701,636,719,719,719,719,719,650,650,650,650,650,650,650,650,719,772,701,702,701,670,701,670,701,702,701,702,737,755,735,671,690,691,752,738,2147484420,719,719,651,719,719,719,719,719,719,719,719,719,720,736,727,3221226183,729,2684355270,644,2147484384,738,721,719,719,719,719,719,719,719,719,719,719,719,719,719,719,719,719,719,719,719,719,719,719,719,719,719,719,719,719,719,719,719,719,719,772,701,702,701,670,702,
718,718,718,718,718,718,718,754,738,701,701,702,636,719,719,719,719,719,719,719,719,719,772,737,755,718,718,718,718,718,718,718,718,718,718,735,671,690,639,691,753,754,738,670,701,701,701,2147484420,650,650,650,650,651,651,651,720,736,959,2147484376,729,2147484399,727,753,754,738,701,670,702,701,701,670,636,719,719,772,701,670,702,701,701,670,701,670,702,701,701,670,701,702,701,670,737,719,772,701,702,701,670,737,2147484402,718,718,718,754,
673,673,673,673,673,673,674,753,718,718,718,754,738,701,670,701,702,670,670,702,670,636,720,755,735,671,672,673,672,673,672,673,672,673,672,673,690,662,662,689,674,753,718,718,718,718,718,738,719,719,719,719,719,719,719,720,736,727,2147484393,729,2684355304,727,644,753,718,718,718,718,718,718,754,738,701,702,737,755,718,718,718,718,718,718,718,718,718,718,718,718,718,718,718,754,702,737,2147484402,718,718,718,718,2147484401,2147484322,672,674,753,
662,662,662,662,662,662,689,673,674,644,678,753,718,718,718,718,718,718,718,718,754,738,737,736,671,690,662,639,662,662,662,662,662,662,662,662,662,662,662,662,689,673,672,672,672,672,674,718,701,702,701,702,670,702,670,737,736,727,727,3221226183,711,751,727,678,644,671,673,672,673,674,753,718,718,718,718,735,671,672,673,672,673,673,672,673,672,673,672,673,672,673,674,753,718,718,2147484401,2147484322,2147484321,2147484320,672,672,2147484337,662,689,672,
641,707,662,662,662,662,662,662,689,672,673,672,673,672,673,672,673,672,673,674,753,718,718,735,688,788,662,662,662,662,662,662,663,662,662,662,662,662,662,662,662,788,658,659,659,659,659,718,718,718,718,718,718,718,718,718,735,644,727,1610613480,729,2684355304,727,644,671,690,662,662,639,689,672,673,672,672,673,673,690,639,662,662,662,662,662,662,664,662,2147484293,662,662,639,689,672,672,672,672,2147484337,662,2147484310,662,662,662,662,662,662,
644,705,641,642,662,2147484293,706,707,662,662,662,662,662,662,662,662,662,638,662,689,672,673,672,673,690,662,662,662,662,662,662,662,662,662,662,662,662,662,645,789,658,659,856,676,676,676,676,672,673,672,673,672,673,672,3221226151,3221226150,644,644,727,1610613447,2684355271,727,727,644,688,2147484355,2147484354,662,645,662,662,662,662,662,662,662,2147484287,662,662,662,2147484355,2147484354,662,662,662,665,662,662,662,662,662,662,662,662,662,662,662,639,662,662,2147484293,662,663,662,
727,644,644,678,679,707,689,690,662,662,662,662,662,662,662,662,646,662,662,662,662,662,662,662,662,662,662,645,662,662,662,662,638,662,662,662,662,662,662,662,675,676,676,676,676,676,676,662,662,662,857,659,660,639,3221226134,3221226113,674,644,727,3221226183,2684355304,727,727,644,688,2147484338,2147484337,662,662,662,662,662,2147484293,662,662,662,662,662,662,662,2147484338,2147484337,662,662,662,662,662,638,662,662,662,662,662,788,662,662,2147484355,2147484354,662,662,2147484310,2147484291,641,642,
727,727,727,727,644,705,641,707,2147484311,662,645,662,662,662,662,662,662,662,663,662,2147484310,662,662,662,662,662,662,662,662,662,662,662,662,662,662,662,662,662,662,662,692,839,732,676,676,676,676,662,662,662,676,676,677,662,662,1610613443,708,644,727,727,727,727,727,2147484322,690,662,662,662,638,662,662,662,662,662,662,662,638,662,663,662,662,662,662,662,662,806,658,659,659,660,662,662,662,662,662,662,2147484338,2147484337,706,643,2147484327,2147484326,644,644,
727,727,727,727,727,644,644,705,707,662,662,662,662,662,662,924,925,662,662,662,662,639,662,662,662,662,662,662,640,662,662,662,662,662,662,662,662,662,662,2147484355,2147484354,2147484342,839,676,676,676,676,676,840,693,839,662,677,662,662,691,644,727,727,768,727,727,644,2147484356,3758097091,662,662,662,662,662,662,662,639,662,789,658,659,659,660,788,662,662,662,806,658,659,856,680,682,857,660,2147484286,662,662,662,645,662,706,708,644,644,727,727,751,
727,751,727,727,727,727,727,644,688,662,647,648,662,662,662,941,942,662,662,662,2147484293,662,662,662,663,662,662,662,662,662,662,662,662,662,662,662,662,662,662,2147484338,2147484337,806,675,676,840,693,693,693,694,788,692,693,694,662,662,691,644,727,727,727,727,727,727,644,688,2147484287,662,662,663,662,662,638,658,659,659,856,680,682,677,806,662,662,638,658,856,680,681,891,890,682,857,660,662,662,662,2147484310,2147484291,708,644,727,727,727,727,727,
727,727,727,727,727,727,727,644,705,707,664,665,662,662,662,662,662,662,645,662,662,662,662,662,662,662,662,662,662,662,662,662,662,662,662,662,663,662,662,662,662,662,692,693,694,662,662,662,662,789,639,662,662,662,662,689,3221226151,727,727,727,727,727,727,671,690,662,662,658,659,660,662,788,675,731,680,681,891,699,857,659,660,662,639,675,732,697,907,874,700,699,676,677,662,662,706,2147484327,2147484326,644,727,727,727,727,727,727,
727,727,2147484416,727,727,2147484399,727,644,2147484326,705,707,646,662,662,2147484355,2147484354,662,662,662,662,662,662,662,662,662,638,662,662,662,662,662,662,645,662,662,662,662,662,662,662,638,662,662,662,662,662,639,662,662,806,662,662,662,662,645,662,706,1108,1108,1108,1108,1108,1108,690,2147484454,662,658,856,676,2147484504,660,662,675,732,697,717,734,890,682,676,677,639,662,692,839,714,716,714,715,716,840,694,662,706,708,644,727,727,727,727,727,727,727,727,
711,727,727,727,727,727,727,727,727,644,688,662,662,662,2147484338,2147484337,662,662,638,662,662,647,648,662,662,662,662,662,662,662,662,662,662,662,662,662,662,662,662,662,662,662,662,662,662,662,662,662,663,662,662,662,662,662,662,662,691,956,956,956,956,956,956,661,662,789,675,676,731,732,677,638,692,839,697,683,698,734,890,682,857,660,662,789,692,839,676,733,840,693,694,2147484287,662,691,644,644,727,727,727,727,727,727,744,823,
729,711,744,744,727,727,727,727,727,644,705,707,662,662,645,2147484291,643,662,662,662,662,664,665,662,662,662,662,662,662,662,662,662,662,662,638,662,662,662,662,662,662,662,662,662,662,662,662,662,789,638,662,662,662,662,662,662,691,727,727,744,959,727,727,705,707,658,856,680,682,733,677,806,658,856,714,715,715,874,907,716,840,694,658,659,659,856,731,840,694,662,662,662,706,708,644,727,727,727,727,727,727,823,729,729,
729,729,729,729,711,744,727,727,727,727,644,705,641,642,2147484327,2147484326,644,661,662,662,662,662,662,662,662,662,662,662,662,662,662,662,640,662,662,662,662,639,662,662,662,662,662,662,662,662,662,662,662,2147484454,662,662,662,662,662,662,691,644,727,536871623,3758097095,727,727,644,688,675,733,714,716,676,677,658,856,676,731,840,839,714,716,732,677,806,675,680,681,2147484329,682,857,660,662,662,662,691,644,727,727,727,727,727,751,823,729,729,729,
713,712,729,729,729,729,745,727,727,727,727,1073,1074,1075,727,727,727,644,661,662,662,662,662,662,662,662,662,706,707,662,663,662,662,662,662,662,646,662,662,662,662,662,662,662,662,662,662,662,662,2147484437,662,662,662,645,662,706,708,644,727,2147484359,1073742535,727,727,671,690,675,676,731,840,693,694,675,731,840,693,694,692,839,731,733,857,659,856,697,683,907,716,733,677,638,662,662,2147484336,644,727,785,727,727,727,1610613480,729,729,749,729,
695,695,747,729,729,729,711,785,727,727,751,1107,1108,1109,727,727,727,727,644,679,788,662,662,662,662,662,662,689,690,662,662,662,662,662,662,662,662,662,662,662,662,662,662,662,662,2147484293,662,662,662,2147484436,638,662,662,646,662,691,644,727,536871656,729,745,727,644,688,662,692,693,693,694,658,659,856,676,857,659,659,660,692,839,680,681,681,681,891,717,699,732,840,694,2147484355,2147484354,662,2147484336,644,727,727,727,727,727,823,729,729,729,729,
695,695,713,729,729,729,729,711,744,710,744,1107,1108,1091,710,768,727,727,727,644,679,641,642,662,2147484310,2147484310,662,2147484310,2147484290,641,641,707,662,662,662,662,662,662,662,662,662,638,662,662,662,662,662,706,641,641,707,662,2147484355,2147484354,662,691,644,727,536871656,729,3758097095,727,644,705,2147484354,638,639,662,658,856,731,680,681,681,682,731,857,660,675,714,874,698,683,734,907,716,676,677,638,2147484338,2147484337,706,708,644,727,727,727,744,823,729,729,729,712,1610613449,
695,695,695,713,1610613483,729,729,729,729,749,729,1107,1108,1109,729,711,727,727,727,727,727,644,644,679,2147484291,2147484290,2147484289,2147484327,2147484326,644,644,705,643,2147484291,643,662,662,662,662,662,662,662,662,662,662,662,640,691,644,644,688,645,2147484338,2147484337,706,708,727,727,727,536871623,729,2684355304,727,644,688,662,662,806,675,732,733,697,700,717,699,733,676,677,675,680,891,700,717,907,716,840,693,694,662,662,662,691,644,727,727,768,823,729,729,729,729,2147484395,695,695,
695,695,695,695,695,713,712,746,729,729,729,1107,1108,1109,729,729,745,727,751,727,727,727,727,727,1073,1074,1074,1075,644,644,644,644,644,644,644,661,662,662,662,662,662,662,662,662,662,662,662,691,644,644,688,662,662,662,691,644,727,785,727,1610613480,729,2684355304,727,727,705,2147484354,662,639,692,839,731,714,715,715,716,676,731,677,675,714,715,715,715,716,731,677,806,640,662,662,662,691,644,727,727,1610613480,729,729,729,729,729,1610613449,695,695,
695,695,695,695,695,695,695,1095,713,729,729,1107,1108,1109,729,729,711,727,727,727,727,727,727,768,1107,1090,1109,1109,727,727,727,727,727,644,644,678,679,642,2147484289,707,662,662,662,662,706,707,662,689,672,673,2147484337,662,663,2147484291,708,644,727,727,727,536871656,729,2684355304,727,727,644,705,643,662,662,692,839,676,733,2147484487,693,2147484488,732,677,692,693,839,733,732,676,840,694,638,662,663,662,706,708,644,727,727,727,1610613559,729,729,729,2147484395,695,695,695,
695,1095,695,695,695,695,695,695,695,730,729,1107,1108,1109,1039,1040,1041,1040,1039,1040,1041,1040,1039,1041,1108,1091,1108,1108,727,727,727,727,727,727,727,727,644,644,644,705,642,642,643,662,689,690,662,662,662,2147484310,662,642,822,644,644,727,727,727,727,2147484359,729,2684355304,727,727,727,644,644,661,662,789,692,693,693,694,645,692,693,694,638,806,692,693,693,693,694,789,662,788,662,2147484291,708,644,727,727,2147484433,727,1610613480,729,729,729,1610613449,695,695,695,
695,695,750,695,695,695,695,695,750,713,729,1107,1108,1109,1108,1108,1108,1108,1108,1108,1108,1108,1108,1108,1107,1108,1090,1090,711,710,710,710,710,727,727,727,727,727,644,644,644,644,678,679,641,642,642,641,643,642,2147484327,2147484326,644,644,727,727,727,751,536871656,729,1073742535,727,727,785,727,727,727,644,679,641,642,641,642,641,642,643,662,662,662,662,662,2147484310,2147484291,641,643,642,641,642,822,644,727,727,727,751,727,727,1610613480,729,729,1610613449,695,695,695,695,
695,695,695,805,695,695,805,695,695,695,730,1091,1108,1109,729,729,729,729,729,729,729,729,729,729,1107,1108,1108,1109,729,729,729,729,729,727,727,751,727,727,727,727,727,727,644,644,644,644,644,644,644,644,644,727,727,727,727,768,727,727,536871656,729,3758097095,727,727,727,768,727,727,727,727,727,727,644,644,644,644,644,661,2147484291,2147484289,643,2147484291,2147484327,2147484326,644,727,727,1073,1074,1075,727,727,768,727,727,727,727,823,729,2147484395,695,695,695,695,695,
695,695,695,750,853,854,855,695,695,750,713,1125,1125,1125,729,1610613483,1610613466,1610613466,1610613483,1610613466,1610613466,1610613483,1610613466,729,1107,1108,1091,1108,729,712,729,1108,1108,749,711,710,727,727,727,727,727,727,727,727,644,644,644,644,727,727,727,727,785,727,727,727,727,727,2147484359,729,2147484397,711,727,727,727,727,727,727,727,727,727,727,727,727,727,727,644,644,644,644,644,644,727,727,727,727,1108,1108,1092,727,727,727,727,727,744,823,729,729,2147484378,695,695,695,695,695,
695,695,2147484453,2684355269,870,871,872,750,695,695,695,1107,1108,1109,2147484361,695,695,695,1078,695,695,695,805,713,1108,1108,1108,1109,2147484361,695,1108,1108,1108,1108,729,729,711,744,710,727,727,768,727,727,727,727,727,727,727,727,727,727,727,727,785,727,2147484392,2147484359,729,729,729,729,711,727,727,727,727,710,710,727,727,727,727,727,727,727,727,727,727,727,727,727,727,727,727,727,1108,1090,1108,727,727,727,727,823,729,729,729,729,2147484395,695,695,695,695,695,
695,695,750,709,709,709,709,2147484453,695,695,695,1107,1108,1109,695,695,695,695,695,695,695,695,695,695,1092,1108,1108,1092,713,1108,1108,1108,1108,1108,1108,729,729,729,729,711,744,744,710,727,727,727,727,727,727,727,727,727,727,727,727,2147484359,729,729,729,729,729,729,729,711,710,744,2147484359,729,729,711,710,710,727,727,727,727,727,727,727,727,727,727,727,727,727,727,1092,1109,1108,2147484471,744,744,823,729,729,729,749,729,1610613449,695,695,695,695,695,
1078,695,695,750,805,750,750,695,695,695,695,1107,1108,1109,695,750,2147484726,750,695,695,750,695,695,695,1108,1090,1092,1090,1108,1108,1108,1108,1108,1108,1108,1108,746,712,746,746,729,729,729,711,710,744,710,727,727,727,727,727,744,744,2147484359,749,729,729,729,746,1610613449,3758097097,729,729,729,729,729,729,729,729,729,729,711,727,727,785,727,727,727,727,727,727,727,751,710,2147484359,1090,1107,1092,729,729,729,729,729,729,729,2147484394,1610613449,695,750,695,750,1095,695,
695,695,695,695,695,695,695,695,695,750,695,1107,1108,1109,695,695,695,695,695,750,695,750,695,695,1107,1109,1108,1108,1108,1108,1108,1108,1108,1108,1108,1108,695,695,750,695,713,712,729,729,729,729,729,711,744,710,710,2147484359,729,729,729,729,746,746,1610613449,695,695,695,747,729,729,729,729,729,729,729,729,729,729,711,710,727,727,768,727,727,727,727,727,2147484359,729,729,1108,1092,1108,729,749,729,729,729,729,1610613449,695,695,695,695,2147484692,2147484691,695,695,
695,695,695,695,695,695,1095,695,695,695,695,1107,1108,1091,695,695,695,695,695,695,695,1095,695,695,1092,1108,1090,1090,1108,1108,1108,1108,1108,1108,1108,1108,1041,1041,1041,1041,695,695,713,746,746,746,746,729,729,729,729,729,729,729,729,1610613449,695,695,695,1095,695,695,3758097097,746,746,729,2147484377,2147484377,729,729,729,729,749,729,729,711,727,727,727,727,2147484433,710,2147484359,729,729,729,1091,1107,1107,729,2147484377,2147484377,2147484394,2147484394,1610613449,695,695,695,1095,695,2147484709,2147484708,750,695,
695,695,750,695,695,695,695,695,695,695,695,1107,1108,1109,695,695,695,695,695,695,695,695,695,695,1107,1091,1108,1090,1108,1108,1108,1108,1108,1108,1108,1108,1108,1108,1108,1108,695,695,750,695,695,695,805,713,729,729,729,729,729,746,2147484361,750,695,695,6515,695,695,750,695,695,695,3758097097,2147484394,1610613449,3758097097,746,746,729,729,729,2147484397,729,711,1610613464,710,710,2147484359,729,729,729,729,746,1108,1108,1090,2147484394,2147484394,1610613449,695,695,695,695,695,750,695,1078,695,1095,695,695,
695,695,695,695,695,695,750,695,695,695,695,1107,1108,1109,695,1078,695,695,695,695,695,695,750,750,1107,1090,1108,1109,1108,1108,1108,1108,1108,1108,1108,1108,1108,1108,1108,1108,695,695,695,695,695,695,695,750,713,746,729,746,2147484361,695,695,695,695,695,6587,695,695,695,695,695,695,695,695,695,695,695,695,3758097097,746,746,746,729,729,729,729,729,729,729,729,729,1610613449,695,1108,1109,1108,695,750,695,695,695,1095,695,695,695,695,695,750,695,695,695,
695,1095,695,695,695,695,695,695,1078,695,695,1107,1108,1109,695,695,695,695,750,6620,1078,695,695,695,1107,1108,1090,1092,1108,1132,1133,1134,1135,1108,1108,1108,1108,1108,1108,1108,1040,1041,1039,7171,1041,695,695,6648,6649,695,695,695,1078,695,695,695,695,1095,6659,1078,695,695,695,695,695,695,695,695,695,695,695,695,695,695,695,3758097097,746,746,729,729,729,729,746,1610613449,695,695,1090,1108,1092,1078,695,695,695,695,695,695,695,695,695,695,695,750,695,695,
695,695,695,695,805,6678,695,695,695,695,695,1107,1108,1109,6687,6688,6689,6690,6691,6692,6693,6694,6695,6696,1108,1108,1108,1108,1108,1108,1108,1108,1108,1108,1091,1108,1090,1107,1108,1109,1091,1107,1108,1109,6717,6718,6719,6720,6721,695,695,695,695,695,695,695,695,695,6731,695,695,695,695,805,695,695,695,695,750,695,695,695,695,1095,695,695,695,695,3758097097,746,746,1610613449,695,805,695,695,1107,1107,1108,695,695,695,695,695,695,750,695,695,750,695,695,695,695,695,
695,695,695,695,695,6750,6751,6752,6753,6754,6755,1108,1107,1108,695,695,1095,695,695,695,695,695,695,695,1124,1111,1125,1125,1124,1125,1125,1128,1125,1111,1125,1125,1111,1124,1125,1126,1125,1124,1125,1125,1126,695,695,695,695,1095,695,695,695,695,695,695,750,695,6803,695,695,695,695,695,695,695,695,695,695,695,695,695,695,695,695,695,695,695,750,1043,1044,750,695,695,695,695,1107,1108,1109,695,695,750,695,695,695,695,695,695,695,695,695,695,695,695,
695,750,695,695,695,695,695,695,695,750,1039,1040,6829,6830,6831,695,695,695,750,750,695,695,1095,695,993,709,709,993,709,709,993,709,709,993,709,709,993,709,709,993,709,709,709,6860,993,695,1078,695,695,695,695,695,695,695,695,695,695,695,6875,695,695,695,695,695,695,695,695,695,695,1095,1078,695,695,695,695,695,750,695,1078,1060,1061,1078,695,695,695,695,1090,1091,1109,695,695,695,695,695,695,695,695,695,695,695,695,695,695,695,
695,695,695,695,1078,695,1095,695,695,695,1108,1091,6901,6902,6903,695,695,1078,695,695,695,695,695,750,695,695,695,695,695,750,695,695,695,695,750,695,695,695,695,1095,695,695,695,6932,695,695,695,695,1095,695,695,695,750,750,695,695,695,695,6947,695,695,695,695,695,695,695,1078,695,695,695,695,695,695,695,695,695,695,695,750,695,1095,695,1039,1040,1041,1040,1041,1039,1041,1041,1041,695,695,695,805,695,695,695,1078,1095,695,695,695,695,
695,695,695,695,695,695,695,695,1078,695,1124,1125,6973,6974,6975,695,695,1095,695,695,695,695,695,695,695,695,695,695,695,695,695,695,695,695,695,695,695,695,1095,1078,695,695,695,7004,1078,695,695,695,695,695,695,695,695,695,695,7016,7017,7018,7019,695,695,695,750,695,695,695,695,1095,695,695,695,695,695,695,695,695,695,695,695,695,695,695,1108,1109,1108,1108,1090,1092,1108,1092,1108,695,695,695,695,695,695,695,695,695,695,695,695,750,
695,695,695,695,695,695,695,695,695,695,993,709,709,709,993,695,695,695,695,695,695,695,695,695,695,1095,1078,695,695,695,695,695,695,1078,695,695,695,695,695,695,695,695,1095,7076,2147484692,2147484691,1095,695,695,695,695,695,695,695,695,7088,695,1078,695,695,695,695,695,695,695,695,695,1095,695,695,695,695,2147484453,695,695,695,1095,695,695,695,750,695,1125,1125,1128,1125,1125,1124,1125,1125,1111,695,695,695,695,695,695,695,695,695,695,750,695,695,
695,695,695,695,695,695,695,695,695,695,695,695,695,695,695,695,1095,1078,695,695,695,695,695,695,695,695,695,695,695,695,695,695,695,695,695,695,695,695,695,750,695,695,750,7148,7149,7150,7151,7152,7153,7154,7155,7156,7157,7158,7159,7160,695,695,1095,695,695,695,695,695,695,695,695,695,695,695,695,695,695,695,695,750,695,695,695,695,695,695,993,709,709,709,993,709,709,709,709,695,695,695,695,750,695,750,695,695,695,695,695,695,
695,695,2147484453,695,695,695,750,695,695,695,695,695,695,750,695,695,695,695,695,695,695,750,695,695,695,695,695,695,695,695,750,695,695,695,695,2147484453,695,695,695,695,695,695,1095,695,750,695,695,695,750,695,695,695,695,695,695,2147484453,695,695,695,695,695,695,695,695,695,695,695,695,695,1095,695,695,695,695,695,695,695,695,695,695,695,695,695,695,1078,695,695,695,750,695,1078,695,695,695,695,695,695,695,695,695,695,695,695,695,
695,695,695,695,695,695,695,695,750,1095,695,695,695,695,695,695,695,695,695,695,695,695,695,695,695,1095,695,695,695,695,695,695,695,695,695,695,695,695,695,695,695,695,695,695,695,1078,695,695,695,695,695,695,695,695,695,695,695,695,695,695,695,695,695,695,695,695,695,750,695,695,695,695,695,695,695,695,695,695,695,695,695,750,695,695,695,695,695,695,695,695,695,695,695,695,695,750,695,695,695,805,695,750,695,695,
695,695,695,695,695,695,695,1095,1043,1044,750,695,695,695,695,695,695,695,695,695,695,695,695,695,695,695,695,695,695,695,695,695,1095,695,695,695,695,695,695,1078,695,1095,695,695,695,1095,695,695,695,695,695,695,695,695,695,695,695,695,695,695,695,695,695,695,695,695,695,695,695,750,695,695,695,695,695,695,1078,1095,695,695,695,695,695,695,1095,695,695,695,695,695,750,695,695,695,695,695,695,695,695,695,695,695,695,695,
695,695,695,1095,1078,695,695,750,1060,1061,1095,695,695,695,695,695,695,695,695,695,695,695,695,695,695,695,695,695,695,695,695,695,695,695,695,695,695,695,695,695,695,750,695,695,695,695,695,695,695,695,695,695,695,695,695,695,695,695,695,695,695,750,695,695,695,695,695,695,695,695,695,695,695,695,695,695,695,695,695,695,695,695,695,695,695,1078,695,805,695,695,695,695,695,695,1095,695,695,695,750,1078,695,695,695,695,
695,695,695,695,695,695,695,695,750,1095,695,695,695,695,695,695,695,695,695,695,695,695,695,695,695,695,695,695,695,695,695,695,695,695,695,695,695,695,695,695,695,1095,695,695,695,695,695,695,695,695,695,695,695,695,695,695,695,695,695,695,695,695,695,695,695,695,695,695,695,695,695,695,695,695,695,695,695,695,695,695,750,695,695,695,695,695,695,695,750,1078,695,695,695,695,695,695,695,695,695,695,695,695,695,695,
695,695,695,695,695,695,695,695,695,695,1078,695,695,695,695,695,695,695,695,695,695,695,695,695,695,695,695,695,695,695,695,695,695,695,695,695,695,695,695,1095,695,695,695,695,695,695,695,695,695,695,695,695,695,695,695,695,695,695,695,695,695,695,695,695,695,695,695,695,695,695,695,695,695,695,750,695,695,695,1095,695,695,695,695,695,695,695,750,1095,1043,1044,750,1095,750,695,695,695,695,695,1095,695,695,695,695,695,
695,695,695,695,695,695,695,695,695,695,695,695,695,695,695,695,695,695,695,695,695,695,695,695,695,695,695,695,695,695,695,695,695,695,695,695,695,695,695,695,695,695,695,695,695,695,695,695,695,695,695,695,695,695,695,695,695,695,695,695,695,695,695,695,695,695,695,695,695,695,695,695,695,695,695,695,695,695,695,695,695,695,695,695,695,695,695,1078,1060,1061,1078,695,695,695,695,695,750,695,695,695,695,695,695,695,
695,695,695,695,695,695,695,695,695,695,695,695,695,695,695,695,695,695,695,695,695,695,695,695,695,695,695,695,695,695,695,695,695,695,695,695,695,695,695,695,695,695,695,695,695,695,695,695,695,695,695,695,695,695,695,695,695,695,695,695,695,695,695,695,695,695,695,695,695,695,695,695,695,695,695,695,695,695,695,695,695,695,695,695,695,695,695,750,695,750,695,695,695,695,695,695,695,695,695,695,695,695,695,695
</data>
 </layer>
 <layer id="2" name="Back2" width="104" height="50">
  <properties>
   <property name="Draw" value="Back"/>
  </properties>
  <data encoding="csv">
0,0,0,0,0,0,0,0,0,0,0,0,0,0,0,0,0,0,0,0,0,0,0,0,0,0,0,0,0,0,0,0,0,0,0,0,0,0,0,0,0,0,0,0,0,0,0,0,0,0,0,0,0,0,0,0,0,0,0,0,0,0,0,0,0,0,0,0,0,0,0,0,0,0,0,0,0,0,0,0,0,0,0,0,0,0,0,0,0,0,0,0,0,0,0,0,0,0,0,0,0,0,0,0,
0,0,0,0,0,0,0,0,0,0,0,0,0,0,0,0,0,0,0,0,0,0,0,0,0,0,0,0,0,0,0,0,0,0,0,0,0,0,0,0,0,0,0,0,0,0,0,0,0,0,0,0,0,0,0,0,0,0,0,0,0,0,0,0,0,0,0,0,0,0,0,0,0,0,0,0,0,0,0,0,0,0,0,0,0,0,0,0,0,0,0,0,0,0,0,0,0,0,0,0,0,0,0,0,
0,0,0,0,0,0,0,0,0,0,0,0,0,0,0,0,0,0,0,0,0,0,0,0,0,0,0,0,0,0,0,0,0,0,0,0,0,0,0,0,0,0,0,0,0,0,0,0,0,0,0,0,0,0,0,0,0,0,0,0,0,0,0,0,0,0,0,0,0,0,0,0,0,0,0,0,0,0,0,0,0,0,0,0,0,0,0,0,0,0,0,0,0,0,0,0,0,0,0,0,0,0,0,0,
0,0,0,0,0,0,0,0,0,0,0,0,0,0,0,0,0,0,0,0,0,0,0,0,0,0,0,0,0,0,0,0,0,0,0,0,0,0,0,0,0,0,0,0,0,0,0,0,0,0,0,0,0,0,0,0,0,0,0,0,0,0,0,0,0,0,0,0,0,0,0,0,0,0,0,0,0,0,0,0,0,0,0,0,0,0,0,0,0,0,0,0,0,0,0,0,0,0,0,0,0,0,0,0,
0,0,0,0,0,0,0,0,0,0,0,0,0,0,0,0,0,0,0,0,0,0,0,0,0,0,0,0,0,0,0,0,0,0,0,0,0,0,0,0,0,0,0,0,0,0,0,703,0,0,0,0,0,0,0,0,0,0,0,0,0,0,0,0,0,0,0,0,0,0,0,0,0,0,0,0,0,0,0,0,0,0,0,0,0,0,0,0,0,0,0,0,0,0,0,0,0,0,0,0,0,0,0,0,
0,0,0,0,0,0,0,0,0,0,0,0,0,0,0,0,0,0,0,0,0,0,0,0,0,0,0,0,0,0,0,0,0,0,0,0,0,0,0,0,0,0,0,0,0,0,0,0,0,0,0,0,0,0,0,0,0,0,0,0,0,0,0,0,0,0,0,0,0,0,0,0,0,0,0,0,0,0,0,0,0,0,0,0,0,0,0,0,0,0,0,0,0,0,0,0,0,0,0,0,0,0,0,0,
0,0,0,0,0,0,0,0,0,0,0,0,0,0,0,0,0,0,0,0,0,0,0,0,0,0,0,0,0,0,0,0,0,0,0,0,0,0,0,0,0,0,0,0,0,0,0,0,0,0,0,0,0,0,0,0,0,0,0,0,0,0,0,0,0,0,0,0,0,0,0,0,0,0,0,0,0,0,0,0,0,0,0,0,0,0,0,0,0,0,0,0,0,0,0,0,0,0,0,0,0,0,0,0,
0,0,0,0,0,0,0,0,0,0,0,0,0,0,0,0,0,0,0,0,0,0,0,0,0,0,0,0,0,0,0,0,0,0,0,0,0,0,0,0,0,0,0,0,0,0,0,0,0,0,0,0,0,0,0,0,0,0,0,0,0,0,0,0,0,0,0,0,0,0,0,0,0,0,0,0,0,0,0,0,0,0,0,0,0,0,0,0,0,0,0,0,0,0,0,0,0,0,0,0,0,0,0,0,
0,0,0,0,0,0,0,0,0,0,0,0,0,0,0,0,0,0,0,0,0,0,0,0,0,0,0,0,0,0,0,0,0,0,0,0,0,0,0,0,0,0,0,0,0,140,141,0,0,0,0,0,0,0,0,0,0,0,0,0,0,0,0,0,0,0,0,0,0,0,0,0,0,0,0,0,0,0,0,0,0,0,0,0,0,0,0,0,0,0,0,0,0,0,0,0,0,0,0,0,0,0,0,0,
0,0,0,0,0,0,0,0,0,0,0,0,0,0,0,0,0,0,0,0,0,0,0,0,0,0,0,0,0,0,0,0,0,0,0,0,0,0,0,0,0,0,0,0,0,159,160,0,0,0,0,0,0,0,0,0,0,0,0,0,0,0,0,0,0,0,0,0,0,0,0,0,0,0,0,0,0,0,0,0,0,0,0,0,0,0,0,0,0,0,0,0,0,0,0,0,0,0,0,0,0,0,0,0,
0,0,0,0,0,0,0,0,0,0,0,0,0,0,0,0,0,0,0,0,0,0,0,0,0,0,0,0,0,0,0,0,0,0,0,0,0,0,0,0,0,0,0,0,0,178,179,180,181,182,183,0,0,0,0,0,0,0,0,0,0,0,0,0,0,0,0,0,0,0,0,0,0,0,0,0,0,0,0,0,0,0,0,0,0,0,0,0,0,0,0,0,0,0,0,0,0,0,0,0,0,0,0,0,
0,0,0,0,0,0,0,0,0,0,0,0,0,0,0,0,0,0,0,0,0,0,0,0,0,0,0,0,0,0,0,0,0,0,0,0,0,0,0,0,0,0,0,0,0,197,198,199,200,201,202,0,0,0,0,0,0,0,0,0,0,0,0,0,0,0,0,0,0,0,0,0,0,0,0,0,0,0,0,0,0,0,0,0,0,0,0,0,0,0,0,0,0,0,0,0,0,0,0,0,0,0,0,0,
0,0,0,0,0,0,0,0,0,0,0,0,0,0,0,0,0,0,0,0,0,0,0,0,0,0,0,0,0,0,0,0,0,0,0,0,0,0,0,0,0,0,0,0,0,0,0,0,0,0,0,0,0,0,0,0,0,0,0,0,0,0,0,0,0,0,0,0,0,0,0,0,0,0,0,0,0,0,0,0,0,0,0,0,0,0,0,0,0,0,0,0,0,0,0,0,0,0,0,0,0,0,0,0,
0,0,0,0,0,0,0,0,0,0,0,0,0,0,0,0,0,0,0,0,0,0,0,0,0,0,0,0,0,0,0,0,0,0,0,0,0,0,0,0,0,0,0,0,0,0,0,0,0,0,0,0,0,0,0,0,0,920,921,921,921,921,922,0,0,0,0,0,0,0,0,0,0,0,0,0,0,0,0,0,0,0,0,0,0,0,0,0,0,0,0,0,0,0,0,0,0,0,0,0,0,0,0,0,
0,0,0,0,0,0,0,0,0,0,0,0,0,0,0,0,0,0,0,0,0,0,0,0,0,0,0,0,0,0,0,0,0,0,0,0,0,0,0,0,0,0,0,0,0,0,0,0,0,0,0,0,0,0,0,0,0,0,0,0,0,0,0,0,0,0,0,0,0,0,0,0,0,0,0,0,0,0,0,0,0,0,0,0,0,0,0,0,0,0,0,0,0,0,0,0,0,0,0,0,0,0,0,0,
0,0,0,0,0,0,0,0,0,0,0,0,0,0,0,0,0,0,0,0,0,0,0,0,0,0,0,0,0,0,0,0,0,0,0,0,0,0,0,0,0,0,0,0,0,0,0,0,0,0,0,0,0,0,0,0,0,0,0,0,0,0,0,0,0,0,0,0,0,0,0,0,0,0,0,0,0,0,0,0,0,0,0,0,0,0,0,0,0,0,0,0,0,0,0,0,0,0,0,0,0,0,0,0,
0,0,0,0,0,0,0,0,0,0,0,0,0,0,0,0,0,0,0,0,0,0,0,0,0,0,0,0,0,0,0,0,0,0,0,0,0,0,0,0,0,0,0,0,0,0,0,0,0,0,0,0,0,0,0,0,0,0,0,0,0,0,0,0,0,0,0,0,0,0,0,0,0,0,0,0,0,0,0,0,0,0,0,0,0,0,0,0,0,0,0,0,0,0,0,0,0,0,0,0,0,0,0,0,
0,0,0,0,514,0,0,0,0,0,0,0,0,0,0,0,0,0,0,0,0,0,0,0,0,0,0,0,0,0,0,0,0,0,0,0,0,0,0,0,0,0,0,0,0,0,0,0,0,0,0,0,0,0,0,0,0,0,0,0,0,0,0,0,0,0,0,0,0,0,0,0,0,0,0,0,0,0,0,0,0,0,0,0,0,0,0,0,0,0,0,0,0,0,0,0,0,0,0,0,0,0,0,0,
0,0,0,0,0,0,0,0,0,0,0,0,0,0,0,0,0,0,0,0,0,0,0,0,0,0,0,0,0,0,0,0,0,0,0,0,0,0,0,0,0,0,0,0,0,0,0,0,0,0,0,0,0,0,0,0,0,0,0,514,0,0,0,0,0,0,0,0,0,0,0,0,0,0,0,0,0,0,0,0,0,0,0,0,0,0,0,0,0,0,0,0,0,0,0,0,0,0,0,0,0,0,0,0,
0,0,0,0,0,0,0,0,0,0,0,0,0,0,0,0,0,0,0,0,0,0,0,0,0,0,0,0,0,0,0,0,0,0,0,0,0,0,0,0,0,0,0,0,0,0,0,0,0,0,0,0,0,0,0,0,0,0,0,0,0,0,0,0,0,0,0,0,0,0,0,0,0,0,0,0,0,0,0,0,0,0,0,0,0,0,0,0,0,0,0,0,0,0,0,0,0,0,0,0,0,514,0,0,
0,0,0,0,0,0,2147484162,0,0,0,0,0,0,0,0,0,0,0,0,0,0,0,0,0,0,0,0,0,0,0,0,0,0,0,0,0,0,0,0,0,0,0,0,0,0,0,0,0,0,0,0,0,0,0,0,0,0,0,0,0,0,0,0,0,0,0,0,0,0,0,0,0,0,0,0,0,0,0,0,0,0,0,0,0,0,0,0,0,0,0,0,0,0,0,0,0,0,0,0,0,0,0,0,0,
0,0,0,0,0,0,0,0,0,0,0,0,0,0,0,0,0,0,0,0,0,0,0,0,0,0,0,0,0,0,0,0,0,0,0,0,0,0,0,0,0,0,0,0,0,0,0,0,0,0,0,0,0,0,0,0,0,0,0,0,0,0,0,0,0,0,0,0,0,0,0,0,0,0,0,0,0,0,0,0,0,0,0,0,0,0,0,0,0,0,0,0,0,0,0,0,0,2147484162,0,0,0,0,0,0,
0,0,0,0,0,0,0,0,0,0,0,0,0,0,0,0,0,0,0,0,0,0,0,0,0,0,0,0,0,0,0,0,0,0,0,0,0,0,0,0,0,0,0,0,0,0,0,0,0,0,0,0,0,0,0,0,0,0,0,0,0,0,0,0,0,0,0,0,0,0,0,0,0,0,0,0,0,0,0,0,0,0,0,0,0,0,0,0,0,0,0,0,0,0,0,0,0,0,0,0,0,0,0,0,
0,0,0,0,0,0,0,0,0,0,0,0,0,0,0,0,0,0,0,0,0,0,0,0,0,0,0,0,0,0,0,0,0,0,0,0,0,0,0,0,0,0,0,0,0,0,0,0,0,0,0,0,0,0,0,0,0,0,0,0,0,0,0,0,0,0,0,0,0,0,0,0,0,0,0,0,0,0,0,0,0,0,0,0,0,0,0,0,0,0,0,0,0,0,0,0,0,0,0,0,0,0,0,0,
0,0,0,0,0,0,0,0,0,0,0,0,0,0,0,0,0,0,0,0,0,0,0,0,0,0,0,0,0,0,0,0,0,0,0,0,0,0,0,0,0,0,0,0,0,0,0,0,0,0,0,0,0,0,0,0,0,0,0,0,0,0,0,0,0,0,0,0,0,0,0,0,0,0,0,0,0,0,0,0,0,0,0,0,0,0,0,0,0,0,0,0,0,0,0,0,0,0,0,0,0,0,0,0,
0,0,0,0,0,0,0,0,0,0,0,0,0,0,0,0,0,0,0,2147484162,0,0,0,0,0,0,0,0,0,514,0,0,0,0,0,0,0,0,0,0,0,0,0,0,0,0,0,0,0,0,0,0,0,0,0,0,0,0,0,0,0,0,0,0,0,0,0,0,0,0,0,0,0,0,0,0,0,0,0,0,0,0,0,0,0,0,0,0,0,0,0,0,0,0,0,0,0,0,0,0,0,0,0,0,
0,0,2684355037,3221225948,3221225949,0,1073742301,3221225948,536871389,0,0,0,0,0,0,0,0,0,0,0,0,0,0,0,0,0,0,0,0,0,0,0,0,0,0,0,0,0,0,0,0,0,0,0,0,0,0,0,0,0,0,0,0,0,0,0,0,0,0,0,0,0,0,0,0,0,0,0,0,0,0,0,0,0,0,0,0,0,0,0,0,0,0,0,0,0,0,0,0,0,0,0,0,0,0,0,0,514,0,0,0,0,0,0,
0,0,3758096884,488,488,2684355061,488,488,1610613236,0,0,0,0,0,0,0,0,0,0,0,0,0,0,0,0,0,0,0,0,0,0,0,0,0,0,0,0,0,0,0,0,0,0,0,0,0,0,0,0,0,0,0,0,0,0,0,0,0,0,0,0,0,0,0,0,0,0,0,0,0,0,0,0,0,0,0,0,0,0,0,0,0,0,0,0,0,0,0,0,0,0,0,0,0,0,0,0,0,0,0,0,0,0,0,
0,0,488,488,488,488,488,488,2147484125,0,0,0,0,0,0,0,0,0,0,0,0,0,0,0,0,0,0,0,0,0,0,0,0,0,0,0,0,0,0,0,0,0,0,0,0,0,0,0,0,0,0,0,0,0,0,0,0,0,2147484162,0,0,0,0,0,0,0,0,0,0,0,0,0,0,0,0,0,0,0,0,0,0,0,0,0,0,0,0,0,0,0,0,0,0,0,0,0,0,0,0,0,0,0,0,2684355037,
536871389,0,477,476,488,488,488,2147484125,0,0,0,0,0,0,0,0,0,0,0,0,0,0,0,0,0,0,0,0,0,0,0,0,0,0,0,0,0,0,0,0,0,0,0,0,0,0,0,0,0,0,0,0,0,0,0,0,0,0,0,0,0,0,0,0,0,0,0,0,514,0,0,0,0,0,0,0,0,0,0,0,0,0,0,0,0,0,0,0,0,0,0,0,2147484162,0,0,0,0,0,0,0,0,0,0,2684355036,
1610613212,0,0,0,477,476,2147484125,0,0,0,0,0,0,0,0,0,0,0,0,0,0,0,0,0,0,0,0,0,0,0,0,0,0,0,0,0,0,0,0,0,0,0,2147484162,0,0,0,0,0,0,0,0,0,0,0,0,0,0,0,0,0,0,0,0,0,2147484162,0,0,0,0,0,0,0,0,0,0,0,0,0,0,0,0,0,0,0,0,0,0,0,0,0,0,0,0,0,0,0,0,0,0,0,0,0,0,2684355060,
488,536871389,0,0,0,0,0,0,0,0,0,0,0,0,0,0,0,0,0,0,0,0,0,0,0,0,0,157,158,0,0,0,0,0,0,0,0,0,0,0,0,0,0,0,0,0,0,0,0,0,0,0,0,0,0,0,0,0,0,0,0,0,0,0,0,0,0,0,0,0,0,0,0,0,0,0,0,0,0,0,0,0,0,0,0,0,0,0,0,0,0,0,0,0,0,0,0,0,0,0,0,0,0,2684355060,
488,488,3221225948,3221225972,3221225972,536871389,0,0,0,0,0,0,0,0,0,0,0,0,0,0,0,0,0,0,0,0,0,0,177,0,0,0,0,0,0,0,0,0,0,0,0,0,0,0,0,0,0,0,0,0,514,0,0,0,0,0,0,0,0,0,0,0,0,0,0,0,0,0,0,0,0,2147484162,0,0,0,0,0,0,0,0,0,0,0,0,0,0,0,0,0,0,0,0,0,0,0,0,0,0,0,0,0,0,2684355037,488,
488,488,488,488,488,488,3221225948,3221225972,536871389,0,0,0,0,0,0,0,0,0,0,0,0,0,0,0,0,0,0,0,196,0,0,0,0,0,0,0,0,0,0,0,0,0,0,0,0,0,0,0,0,0,0,0,0,0,0,0,0,0,0,0,0,0,0,0,0,0,0,0,0,0,0,0,0,0,0,0,0,0,0,0,0,514,0,0,0,0,0,0,0,0,0,0,0,0,0,0,0,0,0,0,0,0,2684355036,488,
488,488,488,488,488,488,488,488,488,3221225972,3221225948,0,0,0,3221225948,536871389,0,0,0,0,0,0,0,0,0,0,0,214,215,216,217,218,219,220,221,222,0,0,0,0,0,0,0,0,0,0,0,0,0,0,0,0,0,0,0,0,0,0,0,0,0,0,0,0,0,0,0,0,0,0,0,0,0,0,0,0,0,0,0,0,0,0,0,0,0,0,0,0,0,0,0,0,0,0,0,0,0,0,0,0,0,0,2684355060,488,
488,488,488,488,488,0,488,488,488,488,488,0,0,0,0,0,0,0,0,0,0,0,0,0,0,0,0,0,0,0,0,0,0,0,0,0,0,0,0,0,0,0,0,0,0,0,0,0,0,0,0,0,0,0,0,0,0,0,0,0,0,0,0,0,0,0,0,0,0,0,0,0,0,0,0,0,0,0,0,0,0,0,0,0,0,0,0,0,0,0,0,0,0,0,0,0,0,0,0,0,0,2684355037,488,488,
488,488,488,488,488,0,0,0,0,0,0,0,0,0,488,488,488,488,488,488,536871389,0,0,0,0,0,0,0,0,0,0,0,0,0,0,0,0,0,0,0,0,0,0,0,0,0,0,0,0,0,0,0,0,0,0,0,0,0,0,0,0,0,0,0,0,0,0,0,0,0,0,0,0,0,0,0,0,0,0,0,0,0,0,0,0,0,0,0,0,0,0,0,0,0,0,0,0,0,0,0,2684355037,488,488,488,
488,488,488,488,488,488,488,488,488,488,0,0,0,0,0,488,488,488,488,488,1610613212,0,0,0,0,0,0,0,0,0,0,0,0,0,0,0,0,0,0,0,0,0,0,0,0,0,0,0,0,0,0,0,0,0,0,0,0,0,0,0,0,0,2684355037,3221225948,536871389,0,0,0,0,0,0,0,0,0,0,0,0,0,0,0,0,0,0,0,0,0,0,0,0,0,0,0,0,0,0,0,0,0,0,0,2684355060,488,488,488,
488,488,488,488,488,488,488,488,488,488,0,0,0,0,0,488,488,488,488,488,488,3221225972,536871389,0,0,0,0,0,0,0,0,0,0,0,0,0,0,0,0,0,0,0,0,0,0,0,0,0,0,0,0,0,0,0,0,0,0,0,0,2684355037,3221225948,3221225948,488,488,488,536871389,0,0,0,0,0,0,0,0,0,0,0,0,0,0,0,0,0,0,0,0,0,0,0,0,0,0,0,0,0,0,0,0,0,2684355037,488,488,488,488,
488,488,488,488,488,488,488,488,488,488,0,0,0,0,0,488,488,488,488,488,488,488,488,536871389,0,0,0,0,0,0,0,0,0,0,0,0,0,0,0,0,0,0,2684355037,0,3221225948,3221225948,3221225948,3221225948,536871389,0,0,0,0,0,0,0,0,0,0,3758096860,488,488,488,488,488,488,3221225972,3221225948,536871389,0,0,0,0,0,0,0,0,0,0,0,0,0,0,0,0,0,0,0,0,0,0,0,0,0,0,0,0,2684355037,3221225972,488,488,488,488,488,
488,488,488,488,488,488,488,488,488,488,488,488,488,488,488,488,488,488,488,488,488,488,488,1610613212,0,0,0,0,0,0,0,0,0,0,0,0,0,0,0,0,0,0,0,0,488,488,488,488,488,3221225948,3221225948,536871389,0,0,0,0,0,2684355037,1073742324,2147484136,488,488,488,488,488,488,488,488,488,536871389,0,0,0,0,0,0,0,0,0,0,0,0,0,0,0,0,0,0,0,0,0,0,0,0,0,0,0,488,488,488,488,488,488,488,
488,488,488,488,488,488,488,488,488,488,488,488,488,488,488,488,488,488,488,488,488,488,488,488,3221225972,536871389,0,0,0,0,0,0,0,0,0,2684355037,3221225948,3221225948,488,488,488,488,488,0,0,0,0,0,0,0,0,0,0,0,0,0,3221225948,488,488,488,488,488,488,488,488,488,488,488,488,488,3221225972,3221225948,3221225972,536871389,0,0,0,0,0,0,0,0,0,0,0,0,0,0,0,0,0,0,0,0,0,2684355037,3221225972,488,488,488,488,488,488,488,
488,488,488,488,488,488,488,488,488,488,488,488,488,488,488,488,488,488,488,488,488,488,488,488,488,488,3221225972,536871389,0,0,0,0,0,2684355037,3221225948,488,488,488,488,488,488,488,488,488,488,488,488,488,488,488,488,488,488,488,488,488,488,488,488,488,488,488,488,488,488,488,488,488,488,488,488,488,488,488,3221225948,3221225972,536871389,0,0,0,0,0,0,0,0,0,0,0,0,0,0,0,0,0,0,2684355060,488,488,488,488,488,488,488,488,
488,488,488,488,488,488,488,488,488,488,488,488,488,488,488,488,488,488,488,488,488,488,488,488,488,488,488,488,3221225972,3221225948,3221225972,3221225948,3221225972,488,488,488,488,488,488,488,488,488,488,488,488,488,488,488,488,488,488,488,488,488,488,488,488,488,488,488,488,488,488,488,488,488,488,488,488,488,488,488,488,488,488,488,488,3221225972,3221225948,3221225948,536871389,0,0,0,0,0,0,0,0,0,0,0,0,2684355037,3221225972,488,488,488,488,488,488,488,488,488,
488,488,488,488,488,488,488,488,488,488,488,488,488,488,488,488,488,488,488,488,488,488,488,488,488,488,488,488,488,488,488,488,488,488,488,488,488,488,488,488,488,488,488,488,488,488,488,488,488,488,488,488,488,488,488,488,488,488,488,488,488,488,488,488,488,488,488,488,488,488,488,488,488,488,488,488,488,488,488,488,488,3221225972,536871389,0,0,0,0,0,2684355037,3221225972,3221225972,3221225948,3221225972,488,488,488,488,488,488,488,488,488,488,488,
488,488,488,488,488,488,488,488,488,488,488,488,488,488,488,488,488,488,488,488,488,488,488,488,488,488,488,488,488,488,488,488,488,488,488,488,488,488,488,488,488,488,488,488,488,488,488,488,488,488,488,488,488,488,488,488,488,488,488,488,488,488,488,488,488,488,488,488,488,488,488,488,488,488,488,488,488,488,488,488,488,488,488,3221225972,3221225948,3221225948,3221225972,3221225972,488,488,488,488,488,488,488,488,488,488,488,488,488,488,488,488,
488,488,488,488,488,488,488,488,488,488,488,488,488,488,488,488,488,488,488,488,488,488,488,488,488,488,488,488,488,488,488,488,488,488,488,488,488,488,488,488,488,488,488,488,488,488,488,488,488,488,488,488,488,488,488,488,488,488,488,488,488,488,488,488,488,488,488,488,488,488,488,488,488,488,488,488,488,488,488,488,488,488,488,488,488,488,488,488,488,488,488,488,488,488,488,488,488,488,488,488,488,488,488,488,
488,488,488,488,488,488,488,488,488,488,488,488,488,488,488,488,488,488,488,488,488,488,488,488,488,488,488,488,488,488,488,488,488,488,488,488,488,488,488,488,488,488,488,488,488,488,488,488,488,488,488,488,488,488,488,488,488,488,488,488,488,488,488,488,488,488,488,488,488,488,488,488,488,488,488,488,488,488,488,488,488,488,488,488,488,488,488,488,488,488,488,488,488,488,488,488,488,488,488,488,488,488,488,488,
488,488,488,488,488,488,488,488,488,488,488,488,488,488,488,488,488,488,488,488,488,488,488,488,488,488,488,488,488,488,488,488,488,488,488,488,488,488,488,488,488,488,488,488,488,488,488,488,488,488,488,488,488,488,488,488,488,488,488,488,488,488,488,488,488,488,488,488,488,488,488,488,488,488,488,488,488,488,488,488,488,488,488,488,488,488,488,488,488,488,488,488,488,488,488,488,488,488,488,488,488,488,488,488,
488,488,488,488,488,488,488,488,488,488,488,488,488,488,488,488,488,488,488,488,488,488,488,488,488,488,488,488,488,488,488,488,488,488,488,488,488,488,488,488,488,488,488,488,488,488,488,488,488,488,488,488,488,488,488,488,488,488,488,488,488,488,488,488,488,488,488,488,488,488,488,488,488,488,488,488,488,488,488,488,488,488,488,488,488,488,488,488,488,488,488,488,488,488,488,488,488,488,488,488,488,488,488,488
</data>
 </layer>
 <layer id="3" name="Back3" width="104" height="50">
  <properties>
   <property name="Draw" value="Back"/>
  </properties>
  <data encoding="csv">
0,0,0,0,0,0,0,0,0,0,0,0,0,0,0,0,0,0,0,0,0,0,0,0,0,0,0,0,0,0,0,0,0,0,0,0,0,0,0,0,0,0,0,0,0,0,0,0,0,0,0,0,0,0,0,0,0,0,0,0,0,0,0,0,0,0,0,0,0,0,0,0,0,0,0,0,0,0,0,0,0,0,0,0,0,0,0,0,0,0,0,0,0,0,0,0,0,0,0,0,0,0,0,0,
0,0,0,0,0,0,0,0,0,0,0,0,0,0,0,0,0,0,0,0,0,0,0,0,0,0,0,0,0,0,0,0,0,0,0,0,0,0,0,0,0,0,0,0,0,0,0,0,0,0,0,0,0,0,0,0,0,0,0,0,0,0,0,0,0,0,0,0,0,0,0,0,0,0,0,0,0,0,0,0,0,0,0,0,0,0,0,0,0,0,0,0,0,0,0,0,0,0,0,0,0,0,0,0,
0,0,0,0,0,0,0,0,0,0,0,0,0,0,0,0,0,0,0,0,0,0,0,0,0,0,0,0,0,0,0,0,0,0,0,0,0,0,0,0,0,0,0,0,0,0,0,0,0,0,0,0,0,0,0,0,0,0,0,0,0,0,0,0,0,0,0,0,0,0,0,0,0,0,0,0,0,0,0,0,0,0,0,0,0,0,0,0,0,0,0,0,0,0,0,0,0,0,0,0,0,0,0,0,
0,0,0,0,0,0,0,0,0,0,0,0,0,0,0,0,0,0,0,0,0,0,0,0,0,0,0,0,0,0,0,0,0,0,0,0,0,0,0,0,0,0,0,0,0,0,0,0,0,0,0,0,0,0,0,0,0,0,0,0,0,0,0,0,0,0,0,0,0,0,0,0,0,0,0,0,0,0,0,0,0,0,0,0,0,0,0,0,0,0,0,0,0,0,0,0,0,0,0,0,0,0,0,0,
0,0,0,0,0,0,0,0,0,0,0,0,0,0,0,0,0,0,0,0,0,0,0,0,0,0,0,0,0,0,0,0,0,0,0,0,0,0,0,0,0,0,0,0,0,771,0,703,704,0,0,0,0,0,0,0,0,0,0,0,0,0,0,0,0,0,0,0,0,0,0,0,0,0,0,0,0,0,0,0,0,0,0,0,0,0,0,0,0,0,0,0,0,0,0,0,0,0,0,0,0,0,0,0,
0,0,0,0,0,0,0,0,0,0,0,0,0,0,0,0,0,0,0,0,0,0,0,0,0,0,0,0,0,0,0,0,0,0,0,0,0,0,0,0,0,0,0,0,0,0,0,0,0,0,0,0,0,0,0,0,0,0,0,0,0,0,0,0,0,0,0,0,0,0,0,0,0,0,0,0,0,0,0,0,0,0,0,0,0,0,0,0,0,0,0,0,0,0,0,0,0,0,0,0,0,0,0,0,
0,0,0,0,0,0,0,0,0,0,0,0,0,0,0,0,0,0,0,0,0,0,0,0,0,0,0,0,0,0,0,0,0,0,0,0,0,0,0,0,0,0,0,0,0,0,0,0,0,0,0,0,0,0,0,0,0,0,0,0,0,0,0,0,0,0,0,0,0,0,0,0,0,0,0,0,0,0,0,0,0,0,0,0,0,0,0,0,0,0,0,0,0,0,0,0,0,0,0,0,0,0,0,0,
0,0,0,0,0,0,0,0,0,0,0,0,0,0,0,0,0,0,0,0,0,0,0,0,0,0,0,0,0,0,0,0,0,0,0,0,0,0,0,0,0,0,0,0,0,0,0,0,0,0,0,0,0,0,0,0,0,0,0,0,0,0,0,0,0,0,0,0,0,0,0,0,0,0,0,0,0,0,0,0,0,0,0,0,0,0,0,0,0,0,0,0,0,0,0,0,0,0,0,0,0,0,0,0,
0,0,0,0,0,0,0,0,0,0,0,0,0,0,0,0,0,0,0,0,0,0,0,0,0,0,0,0,0,0,0,0,0,0,0,0,0,0,0,0,0,0,0,0,0,0,0,0,0,0,0,0,0,0,0,0,0,0,0,0,0,0,0,0,0,0,0,0,0,0,0,0,0,0,0,0,0,0,0,0,0,0,0,0,0,0,0,0,0,0,0,0,0,0,0,0,0,0,0,0,0,0,0,0,
0,0,0,0,0,0,0,0,0,0,0,0,0,0,0,0,0,0,0,0,0,0,0,0,0,0,0,0,0,0,0,0,0,0,0,0,0,0,0,0,0,0,0,0,0,0,0,0,0,0,0,0,0,0,0,0,0,0,0,0,0,0,0,0,0,0,0,0,0,0,0,0,0,0,0,0,0,0,0,0,0,0,0,0,0,0,0,0,0,0,0,0,0,0,0,0,0,0,0,0,0,0,0,0,
0,0,0,0,0,0,0,0,0,0,0,0,0,0,0,0,0,0,0,0,0,0,0,0,0,0,0,0,0,0,0,0,0,0,0,0,0,0,0,0,0,0,0,0,0,0,0,0,0,0,0,0,0,0,0,0,0,0,0,0,0,0,0,0,0,0,0,0,0,0,0,0,0,0,0,0,0,0,0,0,0,0,0,0,0,0,0,0,0,0,0,0,0,0,0,0,0,0,0,0,0,0,0,0,
0,0,0,0,0,0,0,0,0,0,0,0,0,0,0,0,0,0,0,0,0,0,0,0,0,0,0,0,0,0,0,0,0,0,0,0,0,0,0,0,0,0,0,0,0,0,0,0,0,0,0,0,0,0,0,0,0,0,0,0,0,0,0,0,0,0,0,0,0,0,0,0,0,0,0,0,0,0,0,0,0,0,0,0,0,0,0,0,0,0,0,0,0,0,0,0,0,0,0,0,0,0,0,0,
0,0,0,0,0,0,0,0,0,0,0,0,0,0,0,0,0,0,0,0,0,0,0,0,0,0,0,0,0,0,0,0,0,0,0,0,0,0,0,0,0,0,0,0,0,0,0,0,0,0,0,0,0,0,0,0,0,0,0,0,0,0,0,0,0,0,0,0,0,0,0,0,0,0,0,0,0,0,0,0,0,0,0,0,0,0,0,0,0,0,0,0,0,0,0,0,0,0,0,0,0,0,0,0,
0,0,0,0,0,0,0,0,0,0,0,0,0,0,0,0,0,0,0,0,0,0,0,0,0,0,0,0,0,0,0,0,0,0,0,0,0,0,0,0,0,0,0,0,0,0,0,0,0,0,0,0,0,0,0,0,0,0,0,0,0,0,0,0,0,0,0,0,0,0,0,0,0,0,0,0,0,0,0,0,0,0,0,0,0,0,0,0,0,0,0,0,0,0,0,0,0,0,0,0,0,0,0,0,
0,0,0,0,0,0,0,0,0,0,0,0,0,0,0,0,0,0,0,0,0,0,0,0,0,0,0,0,0,0,0,0,0,0,0,0,0,0,0,0,0,0,0,0,0,0,0,0,0,0,0,0,0,0,0,0,0,0,0,0,0,0,0,0,0,0,0,0,0,0,0,0,0,0,0,0,0,0,0,0,0,0,0,0,0,0,0,0,0,0,0,0,0,0,0,0,0,0,0,0,0,0,0,0,
0,0,0,0,0,0,0,0,0,0,0,0,0,0,0,0,0,0,0,0,0,0,0,0,0,0,0,0,0,0,0,0,0,0,0,0,0,0,0,0,0,0,0,0,0,0,0,0,0,0,0,0,0,0,0,0,0,0,0,0,0,0,0,0,0,0,0,0,0,0,0,0,0,0,0,0,0,0,0,0,0,0,0,0,0,0,0,0,0,0,0,0,0,0,0,0,0,0,0,0,0,0,0,0,
0,0,0,0,0,0,0,0,0,0,0,0,0,0,0,0,0,0,0,0,0,0,0,0,0,0,0,0,0,0,0,0,0,0,0,0,0,0,0,0,0,0,0,0,0,0,0,0,0,0,0,0,0,0,0,0,0,0,0,0,0,0,0,0,0,0,0,0,0,0,0,0,0,0,0,0,0,0,0,0,0,0,0,0,0,0,0,0,0,0,0,0,0,0,0,0,0,0,0,0,0,0,0,0,
0,0,0,0,0,0,0,0,0,0,0,0,0,0,0,0,0,0,0,0,0,0,0,0,0,0,0,0,0,0,0,0,0,0,0,0,0,0,0,0,0,0,0,0,0,0,0,0,0,0,0,0,0,0,0,0,0,0,0,0,0,0,0,0,0,0,0,0,0,0,0,0,0,0,0,0,0,0,0,0,0,0,0,0,0,0,0,0,0,0,0,0,0,0,0,0,0,0,0,0,0,0,0,0,
0,0,0,0,0,0,0,0,0,0,0,0,0,0,0,0,0,0,0,0,0,0,0,0,0,0,0,0,0,0,0,0,0,0,0,0,0,0,0,0,0,0,0,0,0,0,0,0,0,0,0,0,0,0,0,0,0,0,0,0,0,0,0,0,0,0,0,0,0,0,0,0,0,0,0,0,0,0,0,0,0,0,0,0,0,0,0,0,0,0,0,0,0,0,0,0,0,0,0,0,0,0,0,0,
0,0,0,0,0,0,0,0,0,0,0,0,0,0,0,0,0,0,0,0,0,0,0,0,0,0,0,0,0,0,0,0,0,0,0,0,0,0,0,0,0,0,0,0,0,0,0,0,0,0,0,0,0,0,0,0,0,0,0,0,0,0,0,0,0,0,0,0,0,0,0,0,0,0,0,0,0,0,0,0,0,0,0,0,0,0,0,0,0,0,0,0,0,0,0,0,0,0,0,0,0,0,0,0,
0,0,0,0,0,0,0,0,0,0,0,0,0,0,0,0,0,0,0,0,0,0,0,0,0,0,0,0,0,0,0,0,0,0,0,0,0,0,0,0,0,0,0,0,0,0,0,0,0,0,0,0,0,0,0,0,0,0,0,0,0,0,0,0,0,0,0,0,0,0,0,0,0,0,0,0,0,0,0,0,0,0,0,0,0,0,0,0,0,0,0,0,0,0,0,0,0,0,0,0,0,0,0,0,
0,0,0,0,0,0,0,0,0,0,0,0,0,0,0,0,0,0,0,0,0,0,0,0,0,0,0,0,0,0,0,0,0,0,0,0,0,0,0,0,0,0,0,0,0,0,0,0,0,0,0,0,0,0,0,0,0,0,0,0,0,0,0,0,0,0,0,0,0,0,0,0,0,0,0,0,0,0,0,0,0,0,0,0,0,0,0,0,0,0,0,0,0,0,0,0,0,0,0,0,0,0,0,0,
0,0,0,0,0,0,0,0,0,0,0,0,0,0,0,0,0,0,0,0,0,0,0,0,0,0,0,0,0,0,0,0,0,0,0,0,0,0,0,0,0,0,0,0,0,0,0,0,0,0,0,0,0,0,0,0,0,0,0,0,0,0,0,0,0,0,0,0,0,0,0,0,0,0,0,0,0,0,0,0,0,0,0,0,0,0,0,0,0,0,0,0,0,0,0,0,0,0,0,0,0,0,0,0,
0,0,0,0,0,0,0,0,0,0,0,0,0,0,0,0,0,0,0,0,0,0,0,0,0,0,0,0,0,0,0,0,0,0,0,0,0,0,0,0,0,0,0,0,0,0,0,0,0,0,0,0,0,0,0,0,0,0,0,0,0,0,0,0,0,0,0,0,0,0,0,0,0,0,0,0,0,0,0,0,0,0,0,0,0,0,0,0,0,0,0,0,0,0,0,0,0,0,0,0,0,0,0,0,
0,0,0,0,0,0,0,0,0,0,0,0,0,0,0,0,0,0,0,0,0,0,0,0,0,0,0,0,0,0,0,0,0,0,0,0,0,0,0,0,0,0,0,0,0,0,0,0,0,0,0,0,0,0,0,0,0,0,0,0,0,0,0,0,0,0,0,0,0,0,0,0,0,0,0,0,0,0,0,0,0,0,0,0,0,0,0,0,0,0,0,0,0,0,0,0,0,0,0,0,0,0,0,0,
0,0,0,0,0,0,0,0,0,0,0,0,0,0,0,0,0,0,0,0,0,0,0,0,0,0,0,0,0,0,0,0,0,0,0,0,0,0,0,0,0,0,0,0,0,0,0,0,0,0,0,0,0,0,0,0,0,0,0,0,0,0,0,0,0,0,0,0,0,0,0,0,0,0,0,0,0,0,0,0,0,0,0,0,0,0,0,0,0,0,0,0,0,0,0,0,0,0,0,0,0,0,0,0,
0,0,0,0,0,0,0,0,0,0,0,0,0,0,0,0,0,0,0,0,0,0,0,0,0,0,0,0,0,0,0,0,0,0,0,0,0,0,0,0,0,0,0,0,0,0,0,0,0,0,0,0,0,0,0,0,0,0,0,0,0,0,0,0,0,0,0,0,0,0,0,0,0,0,0,0,0,0,0,0,0,0,0,0,0,0,0,0,0,0,0,0,0,0,0,0,0,0,0,0,0,0,0,0,
0,0,0,0,0,0,0,0,0,0,0,0,0,0,0,0,0,0,0,0,0,0,0,0,0,0,0,0,0,0,0,0,0,0,0,0,0,0,0,0,0,0,0,0,0,0,0,0,0,0,0,0,0,0,0,0,0,0,0,0,0,0,0,0,0,0,0,0,0,0,0,0,0,0,0,0,0,0,0,0,0,0,0,0,0,0,0,0,0,0,0,0,0,0,0,0,0,0,0,0,0,0,0,0,
0,0,0,0,0,0,0,0,0,0,0,0,0,0,0,0,0,0,0,0,0,0,0,0,0,0,0,0,0,0,0,0,0,0,0,0,0,0,0,0,0,0,0,0,0,0,0,0,0,0,0,0,0,0,0,0,0,0,0,0,0,0,0,0,0,0,0,0,0,0,0,0,0,0,0,0,0,0,0,0,0,0,0,0,0,0,0,0,0,0,0,0,0,0,0,0,0,0,0,0,0,0,0,0,
0,0,0,0,0,0,0,0,0,0,0,0,0,0,0,0,0,0,0,0,0,0,0,0,0,0,0,0,0,0,0,0,0,0,0,0,0,0,0,0,0,0,0,0,0,0,0,0,0,0,0,0,0,0,0,0,0,0,0,0,0,0,0,0,0,0,0,0,0,0,0,0,0,0,0,0,0,0,0,0,0,0,0,0,0,0,0,0,0,0,0,0,0,0,0,0,0,0,0,0,0,0,0,0,
0,0,0,0,0,0,0,0,0,0,0,0,0,0,0,0,0,0,0,0,0,0,0,0,0,0,0,0,0,0,0,0,0,0,0,0,0,0,0,0,0,0,0,0,0,0,0,0,0,0,0,0,0,0,0,0,0,0,0,0,0,0,0,0,0,0,0,0,0,0,0,0,0,0,0,0,0,0,0,0,0,0,0,0,0,0,0,0,0,0,0,0,0,0,0,0,0,0,0,0,0,0,0,0,
0,0,0,0,0,0,0,0,0,0,0,0,0,0,0,0,0,0,0,0,0,0,0,0,0,0,0,0,0,0,0,0,0,0,0,0,0,0,0,0,0,0,0,0,0,0,0,0,0,0,0,0,0,0,0,0,0,0,0,0,0,0,0,0,0,0,0,0,0,0,0,0,0,0,0,0,0,0,0,0,0,0,0,0,0,0,0,0,0,0,0,0,0,0,0,0,0,0,0,0,0,0,0,0,
0,0,0,0,0,0,0,0,0,0,0,0,0,0,0,0,0,0,0,0,0,0,0,0,0,0,0,0,0,0,0,0,0,0,0,0,0,0,0,0,0,0,0,0,0,0,0,0,0,0,0,0,0,0,0,0,0,0,0,0,0,0,0,0,0,0,0,0,0,0,0,0,0,0,0,0,0,0,0,0,0,0,0,0,0,0,0,0,0,0,0,0,0,0,0,0,0,0,0,0,0,0,0,0,
0,0,0,0,0,0,0,0,0,0,0,0,0,0,0,0,0,0,0,0,0,0,0,0,0,0,0,0,0,0,0,0,0,0,0,0,0,0,0,0,0,0,0,0,0,0,0,0,0,0,0,0,0,0,0,0,0,0,0,0,0,0,0,0,0,0,0,0,0,0,0,0,0,0,0,0,0,0,0,0,0,0,0,0,0,0,0,0,0,0,0,0,0,0,0,0,0,0,0,0,0,0,0,0,
0,0,0,0,0,0,0,0,0,0,0,0,0,0,0,0,0,0,0,0,0,0,0,0,0,0,0,0,0,0,0,0,0,0,0,0,0,0,0,0,0,0,0,0,0,0,0,0,0,0,0,0,0,0,0,0,0,0,0,0,0,0,0,0,0,0,0,0,0,0,0,0,0,0,0,0,0,0,0,0,0,0,0,0,0,0,0,0,0,0,0,0,0,0,0,0,0,0,0,0,0,0,0,0,
0,0,0,0,0,0,0,0,0,0,0,0,0,0,0,0,0,0,0,0,0,0,0,0,0,0,0,0,0,0,0,0,0,0,0,0,0,0,0,0,0,0,0,0,0,0,0,0,0,0,0,0,0,0,0,0,0,0,0,0,0,0,0,0,0,0,0,0,0,0,0,0,0,0,0,0,0,0,0,0,0,0,0,0,0,0,0,0,0,0,0,0,0,0,0,0,0,0,0,0,0,0,0,0,
0,0,0,0,0,0,0,0,0,0,0,0,0,0,0,0,0,0,0,0,0,0,0,0,0,0,0,0,0,0,0,0,0,0,0,0,0,0,0,0,0,0,0,0,0,0,0,0,0,0,0,0,0,0,0,0,0,0,0,0,0,0,0,0,0,0,0,0,0,0,0,0,0,0,0,0,0,0,0,0,0,0,0,0,0,0,0,0,0,0,0,0,0,0,0,0,0,0,0,0,0,0,0,0,
0,0,0,0,0,0,0,0,0,0,0,0,0,0,0,0,0,0,0,0,0,0,0,0,0,0,0,0,0,0,0,0,0,0,0,0,0,0,0,0,0,0,0,0,0,0,0,0,0,0,0,0,0,0,0,0,0,0,0,0,0,0,0,0,0,0,0,0,0,0,0,0,0,0,0,0,0,0,0,0,0,0,0,0,0,0,0,0,0,0,0,0,0,0,0,0,0,0,0,0,0,0,0,0,
0,0,0,0,0,0,0,0,0,0,0,0,0,0,0,0,0,0,0,0,0,0,0,0,0,0,0,0,0,0,0,0,0,0,0,0,0,0,0,0,0,0,0,0,0,0,0,0,0,0,0,0,0,0,0,0,0,0,0,0,0,0,0,0,0,0,0,0,0,0,0,0,0,0,0,0,0,0,0,0,0,0,0,0,0,0,0,0,0,0,0,0,0,0,0,0,0,0,0,0,0,0,0,0,
0,0,0,0,0,0,0,0,0,0,0,0,0,0,0,0,0,0,0,0,0,0,0,0,0,0,0,0,0,0,0,0,0,0,0,0,0,0,0,0,0,0,0,0,0,0,0,0,0,0,0,0,0,0,0,0,0,0,0,0,0,0,0,0,0,0,0,0,0,0,0,0,0,0,0,0,0,0,0,0,0,0,0,0,0,0,0,0,0,0,0,0,0,0,0,0,0,0,0,0,0,0,0,0,
0,0,0,0,0,0,0,0,0,0,0,0,0,0,0,0,0,0,0,0,0,0,0,0,0,0,0,0,0,0,0,0,0,0,0,0,0,0,0,0,0,0,0,0,0,0,0,0,0,0,0,0,0,0,0,0,0,0,0,0,0,0,0,0,0,0,0,0,0,0,0,0,0,0,0,0,0,0,0,0,0,0,0,0,0,0,0,0,0,0,0,0,0,0,0,0,0,0,0,0,0,0,0,0,
0,0,0,0,0,0,0,0,0,0,0,0,0,0,0,0,0,0,0,0,0,0,0,0,0,0,0,0,0,0,0,0,0,0,0,0,0,0,0,0,0,0,0,0,0,0,0,0,0,0,0,0,0,0,0,0,0,0,0,0,0,0,0,0,0,0,0,0,0,0,0,0,0,0,0,0,0,0,0,0,0,0,0,0,0,0,0,0,0,0,0,0,0,0,0,0,0,0,0,0,0,0,0,0,
0,0,0,0,0,0,0,0,0,0,0,0,0,0,0,0,0,0,0,0,0,0,0,0,0,0,0,0,0,0,0,0,0,0,0,0,0,0,0,0,0,0,0,0,0,0,0,0,0,0,0,0,0,0,0,0,0,0,0,0,0,0,0,0,0,0,0,0,0,0,0,0,0,0,0,0,0,0,0,0,0,0,0,0,0,0,0,0,0,0,0,0,0,0,0,0,0,0,0,0,0,0,0,0,
0,0,0,0,0,0,0,0,0,0,0,0,0,0,0,0,0,0,0,0,0,0,0,0,0,0,0,0,0,0,0,0,0,0,0,0,0,0,0,0,0,0,0,0,0,0,0,0,0,0,0,0,0,0,0,0,0,0,0,0,0,0,0,0,0,0,0,0,0,0,0,0,0,0,0,0,0,0,0,0,0,0,0,0,0,0,0,0,0,0,0,0,0,0,0,0,0,0,0,0,0,0,0,0,
0,0,0,0,0,0,0,0,0,0,0,0,0,0,0,0,0,0,0,0,0,0,0,0,0,0,0,0,0,0,0,0,0,0,0,0,0,0,0,0,0,0,0,0,0,0,0,0,0,0,0,0,0,0,0,0,0,0,0,0,0,0,0,0,0,0,0,0,0,0,0,0,0,0,0,0,0,0,0,0,0,0,0,0,0,0,0,0,0,0,0,0,0,0,0,0,0,0,0,0,0,0,0,0,
0,0,0,0,0,0,0,0,0,0,0,0,0,0,0,0,0,0,0,0,0,0,0,0,0,0,0,0,0,0,0,0,0,0,0,0,0,0,0,0,0,0,0,0,0,0,0,0,0,0,0,0,0,0,0,0,0,0,0,0,0,0,0,0,0,0,0,0,0,0,0,0,0,0,0,0,0,0,0,0,0,0,0,0,0,0,0,0,0,0,0,0,0,0,0,0,0,0,0,0,0,0,0,0,
0,0,0,0,0,0,0,0,0,0,0,0,0,0,0,0,0,0,0,0,0,0,0,0,0,0,0,0,0,0,0,0,0,0,0,0,0,0,0,0,0,0,0,0,0,0,0,0,0,0,0,0,0,0,0,0,0,0,0,0,0,0,0,0,0,0,0,0,0,0,0,0,0,0,0,0,0,0,0,0,0,0,0,0,0,0,0,0,0,0,0,0,0,0,0,0,0,0,0,0,0,0,0,0,
0,0,0,0,0,0,0,0,0,0,0,0,0,0,0,0,0,0,0,0,0,0,0,0,0,0,0,0,0,0,0,0,0,0,0,0,0,0,0,0,0,0,0,0,0,0,0,0,0,0,0,0,0,0,0,0,0,0,0,0,0,0,0,0,0,0,0,0,0,0,0,0,0,0,0,0,0,0,0,0,0,0,0,0,0,0,0,0,0,0,0,0,0,0,0,0,0,0,0,0,0,0,0,0,
0,0,0,0,0,0,0,0,0,0,0,0,0,0,0,0,0,0,0,0,0,0,0,0,0,0,0,0,0,0,0,0,0,0,0,0,0,0,0,0,0,0,0,0,0,0,0,0,0,0,0,0,0,0,0,0,0,0,0,0,0,0,0,0,0,0,0,0,0,0,0,0,0,0,0,0,0,0,0,0,0,0,0,0,0,0,0,0,0,0,0,0,0,0,0,0,0,0,0,0,0,0,0,0,
0,0,0,0,0,0,0,0,0,0,0,0,0,0,0,0,0,0,0,0,0,0,0,0,0,0,0,0,0,0,0,0,0,0,0,0,0,0,0,0,0,0,0,0,0,0,0,0,0,0,0,0,0,0,0,0,0,0,0,0,0,0,0,0,0,0,0,0,0,0,0,0,0,0,0,0,0,0,0,0,0,0,0,0,0,0,0,0,0,0,0,0,0,0,0,0,0,0,0,0,0,0,0,0
</data>
 </layer>
 <layer id="4" name="Buildings" width="104" height="50">
  <data encoding="csv">
977,977,977,977,977,977,703,704,977,977,977,977,977,703,704,703,703,704,977,977,977,977,686,687,703,686,687,703,704,686,687,686,687,686,687,703,704,0,0,0,0,478,977,977,977,977,977,977,977,977,977,977,977,977,977,977,977,977,2147484477,0,1073742636,1073742619,977,787,977,977,686,687,777,686,687,977,977,977,977,977,686,687,807,686,687,807,686,687,807,686,687,977,977,977,977,977,977,880,696,0,0,0,0,686,687,686,687,0,
687,686,687,686,687,478,977,977,686,687,977,977,977,807,704,977,977,703,704,703,704,977,703,704,478,703,704,478,478,703,704,703,704,703,704,769,770,0,0,0,0,478,977,977,977,977,977,977,977,977,977,977,977,977,977,977,977,3221226284,0,0,829,478,478,769,770,686,703,704,686,703,686,687,687,686,686,687,686,687,686,703,704,686,703,704,686,687,651,686,687,686,687,977,0,686,687,686,687,696,2147484418,703,704,703,704,0,
704,703,704,703,704,977,786,787,703,704,686,687,977,686,687,478,478,478,686,687,906,686,687,478,478,790,478,769,770,478,478,478,0,0,824,786,787,0,0,0,0,478,703,704,3221226176,3221226175,686,703,704,703,704,703,704,703,704,977,977,880,0,0,829,478,478,786,787,703,704,478,703,704,703,704,686,687,703,704,703,704,703,704,478,703,704,478,703,704,0,2147484418,2147484417,703,704,478,478,703,704,703,704,478,2147484435,478,478,478,478,478,
787,790,786,787,771,0,0,0,0,0,703,704,478,703,704,478,977,977,703,704,923,703,704,977,769,770,0,786,787,0,0,0,0,0,0,0,8481,0,0,0,8481,769,770,3621,703,704,478,686,687,807,686,687,807,686,687,771,977,880,0,0,812,795,0,771,769,770,0,0,478,478,478,478,703,704,478,0,0,0,478,478,478,478,478,478,769,770,0,2147484435,2147484434,0,771,769,770,478,478,771,0,0,0,0,0,0,0,0,
0,0,0,0,0,0,0,0,0,0,2147484438,786,787,0,0,0,0,0,0,0,0,0,0,0,786,787,0,0,0,0,0,0,0,0,0,0,0,0,0,0,0,786,787,0,0,3602,769,770,704,478,703,704,478,703,704,769,770,2147484477,696,0,696,829,0,0,786,787,790,0,0,786,787,478,769,770,0,0,0,0,0,0,478,769,770,790,786,787,0,0,0,0,0,786,787,0,0,0,0,0,0,0,0,0,0,0,
0,0,0,0,0,0,0,0,0,0,0,0,0,0,0,0,0,0,0,0,0,0,0,0,0,0,0,0,0,0,0,0,0,0,0,0,0,0,0,0,0,0,0,769,770,0,786,787,478,478,478,2147487239,0,977,977,786,787,3221226267,3221226284,696,696,812,795,0,0,0,0,0,0,0,0,2147484438,786,787,0,0,0,0,0,0,0,786,787,0,0,0,0,0,0,0,0,0,0,0,0,0,0,0,0,0,0,0,0,0,
0,0,0,0,0,0,0,0,0,0,0,0,0,0,0,0,0,0,0,0,0,0,0,0,0,0,0,0,0,0,0,0,0,0,0,0,0,0,0,0,0,0,0,786,787,3591,478,478,0,0,769,770,3769,3770,3771,0,0,0,2147484477,696,0,696,829,0,0,0,0,0,0,0,0,0,0,0,0,0,0,0,0,0,0,0,0,0,0,0,0,0,0,0,0,0,0,0,0,0,0,0,0,0,0,0,0,0,
0,0,0,0,0,0,0,0,0,0,0,0,0,0,0,0,0,0,0,0,0,0,0,0,0,0,0,0,0,0,0,0,0,0,0,0,0,0,0,0,0,0,0,0,0,0,1225,0,0,0,786,787,0,0,0,0,0,0,2147484477,696,0,696,829,0,0,0,0,0,0,0,0,0,0,0,0,0,0,0,0,0,0,0,0,0,0,0,0,0,0,0,0,0,0,0,0,0,0,0,0,0,0,0,0,0,
795,0,0,0,0,0,0,0,0,0,0,0,0,0,0,0,0,0,0,0,0,0,0,0,0,0,0,0,0,0,0,0,0,0,0,0,0,0,0,0,0,0,0,0,786,787,892,893,894,895,896,0,0,0,0,0,0,0,2147484477,696,0,696,829,0,0,0,0,0,0,0,0,0,0,0,0,0,0,0,0,0,0,0,0,0,0,0,0,0,0,0,0,0,0,0,0,0,0,0,0,0,0,0,0,0,
696,761,778,795,0,0,0,0,0,0,0,0,0,0,0,0,0,0,0,0,0,0,0,0,0,0,0,0,0,0,0,0,0,0,0,0,0,0,0,0,0,0,0,915,916,903,909,910,911,912,913,786,787,0,0,0,0,0,2147484477,696,696,1073742636,1073742619,0,0,0,0,0,0,0,0,0,0,0,0,0,0,0,0,0,0,0,0,0,0,0,0,0,0,0,0,0,0,0,0,0,0,0,0,0,0,0,0,0,
696,7683,696,812,795,0,0,0,0,0,0,0,0,0,0,0,0,0,0,0,0,0,0,0,0,0,0,0,0,0,0,0,0,0,0,0,0,0,0,0,0,0,931,932,933,0,926,927,928,929,930,950,786,787,0,0,0,846,863,696,696,829,0,0,0,0,0,0,0,0,0,0,0,0,0,0,0,0,0,0,0,0,0,0,0,0,0,0,0,0,0,0,0,0,0,0,0,0,0,0,0,846,761,778,
0,0,0,696,812,761,795,0,0,0,0,0,0,0,0,0,0,0,0,0,0,0,0,0,0,0,0,0,0,0,0,0,0,0,0,0,0,0,0,0,0,0,0,0,0,0,0,0,0,0,0,0,0,0,0,0,0,880,696,0,696,812,795,0,0,0,0,0,0,0,0,0,0,0,0,0,0,0,0,0,0,0,0,0,0,0,0,0,0,0,0,0,0,0,0,0,0,0,0,846,761,863,696,696,
0,0,0,0,696,7683,829,0,0,0,0,0,0,0,0,0,0,0,0,0,0,0,0,0,0,0,0,0,0,0,0,0,0,0,0,0,0,0,0,0,0,0,0,0,0,0,0,0,0,0,0,0,0,0,0,0,0,880,2147491331,696,696,7683,829,0,0,0,0,0,0,0,0,0,0,0,0,0,0,0,0,0,0,0,0,0,0,0,0,0,0,0,0,0,0,0,0,0,0,0,846,863,696,696,0,0,
0,0,0,0,0,696,829,0,0,0,0,0,0,0,0,0,0,0,0,0,0,0,0,0,0,0,0,0,0,0,0,0,0,0,0,0,0,0,0,0,0,0,0,0,0,0,0,0,0,0,0,0,0,0,0,0,0,0,0,0,0,0,0,0,0,0,0,0,0,0,0,0,0,0,0,0,0,0,0,0,0,0,0,0,0,0,0,0,0,0,0,0,0,0,0,0,846,761,863,696,0,0,0,0,
0,0,0,0,0,696,812,761,795,0,0,0,0,0,0,0,0,0,0,0,0,0,0,0,0,0,0,0,0,0,0,0,0,0,0,0,0,0,0,0,0,0,0,0,0,0,0,0,0,0,0,0,0,0,0,0,0,880,696,696,2147491331,696,829,0,0,0,0,0,0,0,0,0,0,0,0,0,0,0,0,0,0,786,787,0,0,0,0,0,0,0,0,0,0,0,0,0,880,696,696,0,0,0,0,0,
0,0,0,0,0,0,696,696,829,0,0,0,0,0,0,0,0,0,0,0,0,0,0,0,0,0,0,0,0,0,0,0,0,0,0,0,0,0,0,0,0,0,0,0,0,0,0,0,0,0,0,0,0,0,0,0,0,1073742670,1073742687,696,0,696,829,0,0,0,0,0,0,0,0,0,0,0,0,0,0,0,0,0,0,0,0,0,0,0,0,0,0,0,0,0,0,0,0,846,863,696,0,0,0,0,0,0,
0,0,0,0,0,0,0,696,812,795,0,0,0,0,0,0,0,0,0,0,0,0,0,0,0,0,0,0,0,0,0,0,0,0,0,0,0,0,0,0,0,0,0,0,0,0,0,0,0,0,0,0,0,0,0,0,0,0,880,696,0,696,829,0,0,0,0,0,0,0,0,0,0,0,0,0,0,0,0,0,0,0,0,0,0,0,0,0,786,787,0,0,0,0,846,863,696,0,0,0,0,0,0,0,
0,0,0,0,0,0,0,696,696,812,761,0,0,0,761,778,795,0,0,0,0,0,0,0,0,0,0,0,0,0,0,0,0,0,0,0,0,0,0,0,0,0,0,0,0,0,0,0,0,0,0,0,0,0,0,0,0,0,880,696,696,3221226335,3221226318,0,0,0,0,0,0,0,0,0,0,0,786,787,0,0,0,0,0,0,0,0,0,0,0,0,0,0,0,0,0,0,880,696,0,0,0,0,0,0,0,0,
0,0,0,0,0,0,0,0,696,696,1055,0,0,0,1059,696,812,795,0,0,0,0,0,0,0,0,0,0,0,0,0,0,0,0,0,0,0,0,0,0,0,0,0,0,0,0,0,0,0,0,0,0,0,0,0,0,0,846,863,696,696,2147484528,0,0,0,0,0,0,0,0,0,0,0,0,0,0,0,0,0,0,0,0,0,0,0,0,0,0,0,0,0,0,0,0,2147484477,696,0,0,0,0,0,0,0,0,
0,0,0,0,0,0,0,0,0,2147491331,1106,0,0,0,1093,696,696,812,795,0,0,0,0,0,0,0,0,0,0,0,0,0,0,0,0,0,0,0,0,0,0,0,0,0,0,0,0,0,0,0,0,0,0,0,0,0,0,880,696,0,696,2147484528,0,0,0,0,0,786,787,0,0,0,0,0,0,0,0,0,0,0,0,0,0,0,0,0,0,0,0,0,0,0,0,0,880,696,0,0,0,0,0,0,0,0,
0,0,0,0,0,0,0,0,0,0,1089,0,0,0,1110,0,696,696,812,761,795,0,0,0,0,0,0,0,0,0,0,0,0,0,0,0,0,0,0,0,0,0,0,0,0,0,0,0,793,794,0,0,0,0,0,0,846,863,696,0,696,2147484511,2147484494,0,0,0,0,0,0,0,0,0,0,0,0,0,0,0,0,0,0,0,0,0,0,0,0,0,0,0,0,0,0,846,863,696,0,0,0,0,0,0,0,0,
0,0,0,0,0,0,0,0,0,0,1106,0,0,0,1093,2147491331,0,696,696,696,812,761,778,795,0,0,0,0,0,0,0,0,0,0,0,0,0,0,0,0,0,0,0,0,0,0,0,0,810,811,0,0,0,0,0,0,880,696,696,0,0,696,812,795,0,0,0,0,0,0,0,0,0,0,0,0,0,0,0,0,0,0,0,0,0,0,0,0,0,0,0,0,0,880,696,0,0,0,0,0,0,0,0,0,
0,0,0,0,0,0,0,6806,6807,6808,1106,0,0,0,1110,696,696,696,696,7683,696,696,696,812,0,0,0,0,761,778,778,761,795,0,0,0,0,0,0,0,0,0,0,0,0,0,0,0,0,0,0,0,0,0,0,0,880,2147491331,0,0,0,696,696,829,0,0,0,0,0,0,0,0,0,0,0,0,0,0,0,0,0,0,0,0,0,0,0,0,0,0,0,0,0,880,696,0,0,0,0,0,0,0,0,0,
0,0,0,0,0,0,0,6878,6879,6880,1106,0,0,0,0,0,0,0,0,0,0,0,0,0,0,0,0,0,1110,696,696,7683,812,761,761,795,0,0,0,0,0,0,0,0,0,0,0,0,0,0,0,0,0,0,0,846,863,696,0,0,0,696,696,812,795,0,0,0,0,0,0,0,0,0,0,0,0,0,0,0,0,0,0,0,0,0,0,0,0,0,0,0,846,863,696,0,0,0,0,0,0,0,0,0,
0,0,0,0,0,0,0,6950,6951,6952,1089,0,0,0,0,937,0,0,937,0,0,937,0,0,0,0,0,0,1110,0,0,0,696,696,696,812,778,795,0,0,0,0,0,0,0,0,0,0,0,0,0,0,0,0,846,863,696,696,0,0,0,0,696,7683,812,778,795,0,0,0,0,0,0,0,0,0,0,0,0,0,0,0,0,0,0,0,0,0,0,0,846,778,863,696,696,0,0,0,0,0,0,0,0,0,
0,0,0,0,0,0,0,0,0,0,1106,0,0,0,1146,1141,1142,1142,1141,1142,1142,1141,1142,1145,0,0,0,0,1110,0,0,0,0,0,696,696,7683,812,778,761,778,795,0,0,0,0,0,0,0,0,0,846,761,778,863,696,696,0,0,0,0,0,0,696,696,696,812,778,761,778,795,0,0,0,0,0,0,0,0,0,0,0,0,0,2147484443,761,0,0,0,778,863,696,696,696,0,0,0,0,0,0,0,0,0,0,
0,0,0,0,0,0,0,0,0,0,1123,0,0,0,1127,0,0,0,0,0,0,0,0,1106,0,0,0,0,1110,0,0,0,0,0,0,696,696,696,696,696,696,812,761,2147484494,0,0,0,0,846,761,778,863,7683,696,696,696,0,0,0,0,0,0,0,0,696,696,696,696,696,696,812,761,778,778,761,795,0,0,0,0,0,0,2147484443,761,2147484460,1055,0,0,0,1059,696,696,0,0,0,0,0,0,0,0,0,0,0,0,
0,0,0,0,0,0,0,0,0,0,1106,0,0,0,1093,0,0,0,0,0,0,0,0,1089,0,0,0,0,1110,0,0,0,0,0,0,0,0,0,0,0,0,696,696,2147484511,761,778,778,761,863,696,696,696,0,0,0,0,0,0,0,0,0,0,0,0,0,0,0,0,0,0,696,696,696,696,696,812,761,761,778,778,761,761,2147484460,696,696,1106,0,0,0,1110,0,0,0,0,0,0,0,0,0,0,0,0,0,0,
0,0,0,0,0,0,0,0,0,0,1089,0,0,0,1110,0,0,0,0,0,0,0,0,1106,0,0,0,0,1110,0,0,0,0,0,0,0,6205,6206,6207,6208,6209,6210,0,696,696,696,696,696,696,0,0,0,0,0,0,0,0,0,0,0,0,0,0,0,0,0,0,0,0,0,0,0,0,0,0,696,696,696,696,696,696,696,696,0,0,1106,0,0,0,1110,0,0,0,0,0,0,0,0,0,0,0,0,0,0,
0,0,0,0,0,0,0,0,0,0,1106,0,0,0,1093,0,0,0,0,0,0,0,0,1106,0,0,0,950,1093,0,0,0,0,0,0,0,6277,6278,6279,6280,6281,6282,6283,0,0,0,0,0,0,0,0,0,0,0,0,0,0,0,0,0,0,0,0,0,0,0,0,6308,6309,6310,6311,6312,0,0,0,0,0,0,0,0,0,0,0,0,0,1106,0,0,0,1093,0,0,0,0,0,0,0,0,0,0,0,0,0,0,
0,0,0,0,0,0,0,0,0,0,1106,0,0,0,1110,0,6329,6330,6331,6332,6333,6334,6335,1106,0,0,0,903,1110,0,0,0,0,0,0,696,6349,6350,6351,6352,6353,6354,6355,6356,0,0,0,0,0,0,0,0,0,0,0,6368,6369,6370,6371,6372,6373,6374,6375,6376,6377,6378,6379,6380,6381,6382,6383,6384,0,0,0,0,0,0,0,0,0,0,0,0,0,1089,0,0,0,1110,0,0,0,0,0,0,0,0,0,0,0,0,0,0,
0,0,0,0,0,0,0,0,0,0,1089,0,0,0,1110,6400,6401,6402,6403,6404,6405,6406,6407,6408,0,0,0,937,1080,1081,1082,1083,1084,1085,1086,1087,903,0,0,0,6425,6426,6427,0,0,0,0,6432,6433,0,0,0,0,0,0,6440,6441,6442,6443,6444,6445,6446,6447,6448,6449,6450,6451,6452,6453,6454,6455,6456,0,0,0,0,0,0,0,0,0,0,0,0,0,1106,0,0,0,1110,0,0,0,0,0,0,0,0,0,0,0,0,0,0,
0,0,0,0,0,0,0,0,0,0,6467,0,0,0,1093,6472,6473,6474,6475,6476,6477,6478,6479,6480,0,0,0,950,1097,1098,1099,1100,1101,1102,1103,1104,950,0,0,0,1110,0,0,0,0,0,6503,6504,6505,6506,6507,6508,6509,0,0,6512,6513,6514,0,6516,6517,6518,6519,6520,6521,6522,6523,6524,6525,6526,6527,6528,0,0,0,0,0,0,0,0,0,0,0,0,0,1106,0,0,0,1093,0,0,0,0,0,0,0,0,0,0,0,0,0,0,
6529,6530,6531,6532,6533,6534,6535,6536,6537,6538,6539,0,0,0,1110,6544,6545,6546,6547,6548,6549,6550,6551,6552,0,0,0,903,1114,1115,1116,1117,1118,1119,1120,1121,1122,1094,0,0,1127,990,991,992,1004,0,6575,6576,6577,6578,6579,6580,6581,6582,6583,6584,6585,6586,0,6588,6589,6590,6591,6592,6593,6594,6595,6596,6597,6598,0,0,0,0,0,0,0,0,0,0,0,0,0,0,0,1089,0,0,0,1110,0,0,0,0,0,0,0,0,0,0,0,0,0,0,
6601,6602,6603,6604,6605,6606,6607,6608,6609,6610,6611,0,0,0,1093,6616,6617,6618,6619,0,6621,6622,6623,1106,0,0,0,0,1131,0,0,7237,7238,1136,1137,1138,1139,0,0,0,0,7169,7170,6021,1021,1042,6647,6023,6023,6650,6651,6652,6653,6654,6655,6656,0,6658,0,6660,6661,6662,6663,6664,6665,0,0,0,0,0,0,0,0,0,0,0,0,0,0,0,0,0,0,0,0,1106,0,0,0,1093,0,0,0,0,0,0,0,0,0,0,0,0,0,0,
6673,6674,6675,6676,6677,0,6679,6680,6681,6682,6683,0,0,0,0,0,0,0,0,0,0,0,0,0,0,0,0,0,0,0,0,0,0,0,0,0,0,0,0,0,0,0,0,0,0,0,0,0,0,6722,6723,6724,6725,6726,6727,6728,0,6730,0,7683,0,0,0,0,0,0,0,0,0,0,0,0,0,0,0,0,0,0,0,0,0,0,0,0,0,1106,0,0,0,1110,0,0,0,0,0,0,0,0,0,0,0,0,0,0,
6745,6746,6747,6748,6749,0,0,0,0,0,0,0,0,0,1110,6760,6761,6762,6763,6764,6765,5953,5953,1123,937,0,0,937,0,0,937,0,0,937,0,0,937,950,0,937,0,0,0,0,937,6790,6791,6792,6793,6794,6795,6796,6797,6798,6799,0,0,6802,0,5953,0,0,0,0,0,0,0,0,0,0,0,0,0,0,0,0,0,0,0,0,0,0,0,0,0,1089,0,0,0,1110,987,0,0,0,0,0,0,0,0,0,0,0,0,0,
0,0,0,0,0,6822,6823,6823,6823,6826,0,0,0,6830,6022,1042,0,0,0,0,0,0,0,1140,1141,1142,1142,1141,1142,1142,1141,1142,1142,1141,1142,1142,1141,1142,1142,1143,1142,1142,7288,1142,7290,6862,6863,6864,6865,6866,6867,6868,6869,6870,6871,0,0,2147491331,0,5953,0,0,0,0,0,0,0,0,0,0,0,0,0,0,0,0,0,0,0,0,0,0,696,696,696,1106,0,0,937,1127,1004,0,0,0,0,0,0,0,0,0,0,0,0,0,
0,0,0,0,6806,6807,6808,0,0,6898,950,0,0,0,0,1093,0,0,0,6908,6909,6910,6911,6912,6913,6914,6915,6916,6917,6918,0,0,0,0,0,0,0,0,0,6928,6929,6930,6931,0,6933,6934,6935,6936,0,6806,6807,6808,0,6942,6943,6944,6945,6946,0,5953,0,0,0,0,0,0,0,0,0,0,0,0,0,0,0,0,0,0,0,0,0,1038,0,0,0,0,0,0,950,903,1021,1059,0,0,0,0,0,0,0,0,0,0,0,0,
0,0,0,0,6878,6879,6880,0,0,6970,0,0,0,0,0,1127,0,0,0,6980,6981,6982,6983,6984,6985,6986,6987,6988,6989,6990,0,0,0,6994,6995,6996,6997,6998,6999,7000,7001,7002,7003,0,7005,7006,7007,7008,0,6878,6879,6880,0,7014,7015,0,0,0,0,5953,0,6806,6807,6808,0,0,0,0,0,0,0,0,0,0,0,0,0,0,0,0,0,1106,0,0,0,0,0,0,0,0,0,1110,0,0,0,0,0,0,0,0,0,0,0,0,
0,0,0,0,6950,6951,6806,6807,6808,7042,1141,1142,1142,1142,1143,1144,6734,6735,6736,7052,7053,7054,7055,7056,7057,7058,7059,7060,7061,7062,0,0,0,7066,7067,7068,7069,7070,7071,7072,7073,7074,7075,0,7077,7078,7079,7080,7683,6950,6951,6952,5953,7086,7087,0,7089,7090,7091,0,0,6878,6879,6880,0,0,0,0,0,0,0,0,0,0,0,0,0,0,0,0,0,1123,937,0,0,0,0,0,0,937,0,1127,0,0,0,0,0,0,0,0,0,0,0,0,
0,0,6806,6807,6808,7110,6878,6879,6880,0,0,0,0,0,0,0,6806,6807,6808,7124,7125,7126,7127,7128,7129,7130,7131,7132,7133,7134,0,6806,6807,6808,7139,7140,7141,7142,7143,7144,7145,7146,7147,0,0,0,0,0,0,0,0,0,0,0,0,0,7161,7162,0,2147491331,0,6950,6951,6952,0,0,0,0,0,0,0,0,0,0,0,0,0,0,0,0,0,1140,1141,1142,1142,1142,1141,1142,1142,1143,1142,1144,0,0,0,0,0,0,0,0,0,0,0,0,
0,0,6878,6879,6880,0,0,0,0,0,0,0,0,0,0,0,6878,6879,6880,7196,7197,7198,7199,7200,7201,7202,7203,7204,7205,7206,0,6878,6879,6880,0,0,0,0,0,0,0,0,7219,7220,7221,7683,7223,7224,7225,7226,7227,7228,7229,7230,7231,7232,7233,0,0,0,0,0,0,0,0,0,0,0,0,0,0,0,0,0,0,0,0,0,0,0,0,0,0,0,0,0,0,0,0,0,0,0,0,0,0,0,0,0,0,0,0,0,0,0,
0,0,0,0,0,0,0,0,0,0,0,0,0,0,0,0,6950,6951,6952,0,0,0,0,6734,6735,6736,0,0,0,0,0,6950,6951,6952,0,0,0,0,0,0,0,0,0,0,0,0,0,0,0,0,0,0,2147491331,0,7303,7304,7305,0,6806,6807,6808,0,0,0,0,0,0,0,0,0,0,0,0,0,0,0,0,0,0,0,0,0,0,0,0,0,0,0,0,0,0,0,0,0,0,0,0,0,0,0,0,0,0,0,
0,0,0,0,0,0,0,0,0,0,0,0,0,0,0,0,0,0,0,0,0,0,0,6806,6807,6808,0,0,0,0,6734,6735,6736,0,0,0,0,0,0,0,0,0,0,0,0,0,6806,6807,6808,0,0,0,0,0,0,0,0,0,6878,6879,6880,0,0,0,0,0,0,0,0,0,0,0,0,0,0,0,0,0,0,0,0,0,0,0,0,0,0,0,0,0,0,0,0,0,0,0,0,0,0,0,0,0,0,0,
0,0,0,0,0,0,0,0,0,0,0,0,0,0,0,0,0,0,0,0,0,0,0,6878,6879,6880,0,0,0,0,6806,6807,6808,0,0,0,0,0,0,0,0,0,0,0,0,0,6878,6879,6880,0,0,0,0,0,0,0,0,0,6950,6951,6952,0,0,0,0,0,0,0,0,0,0,0,0,0,0,0,0,0,0,0,0,0,0,0,0,0,0,0,0,0,0,0,0,0,0,0,0,0,0,0,0,0,0,0,
0,0,0,0,0,0,0,0,0,0,0,0,0,0,0,0,0,0,0,0,0,0,0,6950,6951,6952,0,0,0,0,6878,6879,6880,0,0,0,0,0,0,0,0,0,0,0,0,0,6950,6951,6952,0,0,0,0,0,0,0,0,0,0,0,0,0,0,0,0,0,0,0,0,0,0,0,0,0,0,0,0,0,0,0,0,0,0,0,0,0,0,0,0,0,0,0,0,0,0,0,0,0,0,0,0,0,0,0,
0,0,0,0,0,0,0,0,0,0,0,0,0,0,0,0,0,0,0,0,0,0,0,0,0,0,0,0,0,0,6950,6951,6952,0,0,0,0,0,0,0,0,0,0,0,0,0,0,0,0,0,0,0,0,0,0,0,0,0,0,0,0,0,0,0,0,0,0,0,0,0,0,0,0,0,0,0,0,0,0,0,0,0,0,0,0,0,0,0,0,0,0,0,0,0,0,0,0,0,0,0,0,0,0,0,
0,0,0,0,0,0,0,0,0,0,0,0,0,0,0,0,0,0,0,0,0,0,0,0,0,0,0,0,0,0,0,0,0,0,0,0,0,0,0,0,0,0,0,0,0,0,0,0,0,0,0,0,0,0,0,0,0,0,0,0,0,0,0,0,0,0,0,0,0,0,0,0,0,0,0,0,0,0,0,0,0,0,0,0,0,0,0,0,0,0,0,0,0,0,0,0,0,0,0,0,0,0,0,0,
0,0,0,0,0,0,0,0,0,0,0,0,0,0,0,0,0,0,0,0,0,0,0,0,0,0,0,0,0,0,0,0,0,0,0,0,0,0,0,0,0,0,0,0,0,0,0,0,0,0,0,0,0,0,0,0,0,0,0,0,0,0,0,0,0,0,0,0,0,0,0,0,0,0,0,0,0,0,0,0,0,0,0,0,0,0,0,0,0,0,0,0,0,0,0,0,0,0,0,0,0,0,0,0
</data>
 </layer>
 <layer id="5" name="Buildings2" width="104" height="50">
  <properties>
   <property name="Draw" value="Buildings"/>
  </properties>
  <data encoding="csv">
0,0,0,0,0,0,0,0,0,0,0,0,0,0,0,0,0,0,0,0,0,0,0,0,0,0,0,0,0,0,0,0,0,0,0,0,0,0,0,0,0,0,0,0,0,0,0,0,0,0,0,0,0,0,0,0,0,0,0,0,0,0,0,0,0,0,0,0,0,0,0,0,0,0,0,0,0,0,0,0,0,0,0,0,0,0,0,0,0,0,0,0,0,0,0,0,0,0,0,0,0,0,0,0,
0,0,0,0,0,0,0,0,0,0,0,0,0,0,0,0,0,0,0,0,0,0,0,0,0,0,0,0,0,0,0,0,0,0,0,0,0,0,0,0,0,0,0,0,0,0,0,0,0,0,0,0,0,0,0,0,0,0,0,0,0,0,0,0,0,0,0,0,0,0,0,0,0,0,0,0,0,0,0,0,0,0,0,0,0,0,0,0,0,0,0,0,0,0,0,0,0,0,0,2147484417,0,0,0,0,
0,0,0,0,0,0,0,0,0,0,0,0,0,0,0,0,0,0,0,0,0,0,0,0,0,0,0,0,0,0,0,0,0,0,0,0,0,0,0,0,0,0,0,0,0,0,0,0,0,0,0,0,0,0,0,0,0,0,0,0,0,0,0,0,0,0,0,0,0,0,0,0,0,0,0,0,0,0,0,0,0,0,0,0,0,0,0,0,0,0,0,0,0,0,0,0,0,0,0,2147484434,0,0,0,0,
0,0,0,0,0,0,0,0,0,0,0,0,0,0,0,0,0,0,0,0,0,0,0,0,0,0,0,0,0,0,0,0,0,0,0,0,0,0,0,0,0,0,0,0,0,0,0,0,0,0,0,0,0,0,0,0,0,0,0,0,0,0,0,0,0,0,0,0,0,0,0,0,0,0,0,0,0,0,0,0,0,0,0,0,0,0,0,0,0,0,0,0,0,0,0,0,0,0,0,0,0,0,0,0,
0,0,0,0,0,0,0,0,0,0,0,0,0,0,0,0,0,0,0,0,0,0,0,0,0,0,0,0,0,0,0,0,0,0,0,0,0,0,0,0,0,0,0,0,0,0,0,0,0,0,0,0,0,0,0,0,0,0,0,0,0,0,0,0,0,0,0,0,0,0,0,0,0,0,0,0,0,0,0,0,0,0,0,0,0,0,0,0,0,0,0,0,0,0,0,0,0,0,0,0,0,0,0,0,
0,0,0,0,0,0,0,0,0,0,0,0,0,0,0,0,0,0,0,0,0,0,0,0,0,0,0,0,0,0,0,0,0,0,0,0,0,0,0,0,0,0,0,0,0,0,0,0,0,0,0,0,0,0,0,0,0,0,0,0,0,0,0,0,0,0,0,0,0,0,0,0,0,0,0,0,0,0,0,0,0,0,0,0,0,0,0,0,0,0,0,0,0,0,0,0,0,0,0,0,0,0,0,0,
0,0,0,0,0,0,0,0,0,0,0,0,0,0,0,0,0,0,0,0,0,0,0,0,0,0,0,0,0,0,0,0,0,0,0,0,0,0,0,0,0,0,0,0,0,0,0,0,0,0,0,0,0,0,0,0,0,0,0,0,0,0,0,0,0,0,0,0,0,0,0,0,0,0,0,0,0,0,0,0,0,0,0,0,0,0,0,0,0,0,0,0,0,0,0,0,0,0,0,0,0,0,0,0,
0,0,0,0,0,0,0,0,0,0,0,0,0,0,0,0,0,0,0,0,0,0,0,0,0,0,0,0,0,0,0,0,0,0,0,0,0,0,0,0,0,0,0,0,0,0,0,0,0,0,0,0,0,0,0,0,0,0,0,0,0,0,0,0,0,0,0,0,0,0,0,0,0,0,0,0,0,0,0,0,0,0,0,0,0,0,0,0,0,0,0,0,0,0,0,0,0,0,0,0,0,0,0,0,
0,0,0,0,0,0,0,0,0,0,0,0,0,0,0,0,0,0,0,0,0,0,0,0,0,0,0,0,0,0,0,0,0,0,0,0,0,0,0,0,0,0,0,0,0,0,0,0,0,0,0,0,0,0,0,0,0,0,0,0,0,0,0,0,0,0,0,0,0,0,0,0,0,0,0,0,0,0,0,0,0,0,0,0,0,0,0,0,0,0,0,0,0,0,0,0,0,0,0,0,0,0,0,0,
812,0,0,0,0,0,0,0,0,0,0,0,0,0,0,0,0,0,0,0,0,0,0,0,0,0,0,0,0,0,0,0,0,0,0,0,0,0,0,0,0,0,0,0,0,0,0,0,0,0,0,0,0,0,0,0,0,0,0,0,0,0,0,0,0,0,0,0,0,0,0,0,0,0,0,0,0,0,0,0,0,0,0,0,0,0,0,0,0,0,0,0,0,0,0,0,0,0,0,0,0,0,0,0,
0,0,0,0,0,0,0,0,0,0,0,0,0,0,0,0,0,0,0,0,0,0,0,0,0,0,0,0,0,0,0,0,0,0,0,0,0,0,0,0,0,0,0,0,0,0,161,162,162,162,163,0,0,0,0,0,0,0,0,0,0,0,0,0,0,0,0,0,0,0,0,0,0,0,0,0,0,0,0,0,0,0,0,0,0,0,0,0,0,0,0,0,0,0,0,0,0,0,0,0,0,0,0,0,
0,0,0,0,0,0,0,0,0,0,0,0,0,0,0,0,0,0,0,0,0,0,0,0,0,0,0,0,0,0,0,0,0,0,0,0,0,0,0,0,0,0,0,0,0,0,0,0,0,0,0,0,0,0,0,0,0,0,0,0,0,0,0,0,0,0,0,0,0,0,0,0,0,0,0,0,0,0,0,0,0,0,0,0,0,0,0,0,0,0,0,0,0,0,0,0,0,0,0,0,0,0,0,0,
0,0,0,0,0,0,0,0,0,0,0,0,0,0,0,0,0,0,0,0,0,0,0,0,0,0,0,0,0,0,0,0,0,0,0,0,0,0,0,0,0,0,0,0,0,0,0,0,0,0,0,0,0,0,0,0,0,0,0,0,0,0,0,0,0,0,0,0,0,0,0,0,0,0,0,0,0,0,0,0,0,0,0,0,0,0,0,0,0,0,0,0,0,0,0,0,0,0,0,0,0,0,0,0,
0,0,0,0,0,0,0,0,0,0,0,0,0,0,0,0,0,0,0,0,0,0,0,0,0,0,0,0,0,0,0,0,0,0,0,0,0,0,0,0,0,0,0,0,0,0,0,0,0,0,0,0,0,0,0,0,0,0,0,0,0,0,0,0,0,0,0,0,0,0,0,0,0,0,0,0,0,0,0,0,0,0,0,0,0,0,0,0,0,0,0,0,0,0,0,0,0,0,0,0,0,0,0,0,
0,0,0,0,0,0,0,0,0,0,0,0,0,0,0,0,0,0,0,0,0,0,0,0,0,0,0,0,0,0,0,0,0,0,0,0,0,0,0,0,0,0,0,0,0,0,0,0,0,0,0,0,0,0,0,0,0,0,0,0,0,0,0,0,0,0,0,0,0,0,0,0,0,0,0,0,0,0,0,0,0,0,0,0,0,0,0,0,0,0,0,0,0,0,0,0,0,0,0,0,0,0,0,0,
0,0,0,0,0,0,0,0,0,0,0,0,0,0,0,0,0,0,0,0,0,0,0,0,0,0,0,0,0,0,0,0,0,0,0,0,0,0,0,0,0,0,0,0,0,0,0,0,0,0,0,0,0,0,0,0,0,0,0,0,0,0,0,0,0,0,0,0,0,0,0,0,0,0,0,0,0,0,0,0,0,0,0,0,0,0,0,0,0,0,0,0,0,0,0,0,0,0,0,0,0,0,0,0,
0,0,0,0,0,0,0,0,0,0,0,0,0,0,0,0,0,0,0,0,0,0,0,0,0,0,0,0,0,0,0,0,0,0,0,0,0,0,0,0,0,0,0,0,0,0,0,0,0,0,0,0,0,0,0,0,0,0,0,0,0,0,0,0,0,0,0,0,0,0,0,0,0,0,0,0,0,0,0,0,0,0,0,0,0,0,0,0,0,0,0,0,0,0,0,0,0,0,0,0,0,0,0,0,
0,0,0,0,0,0,0,0,0,0,0,0,0,0,0,0,0,0,0,0,0,0,0,0,0,0,0,0,0,0,0,0,0,0,0,0,0,0,0,0,0,0,0,0,0,0,0,0,0,0,0,0,0,0,0,0,0,0,0,0,0,0,0,0,0,0,0,0,0,0,0,0,0,0,0,0,0,0,0,0,0,0,0,0,0,0,0,0,0,0,0,0,0,0,0,0,0,0,0,0,0,0,0,0,
0,0,0,0,0,0,0,0,0,0,0,0,0,0,0,0,0,0,0,0,0,0,0,0,0,0,0,0,0,0,0,0,0,0,0,0,0,0,0,0,0,0,0,0,0,0,0,0,0,0,0,0,0,0,0,0,0,0,0,0,0,0,0,0,0,0,0,0,0,0,0,0,0,0,0,0,0,0,0,0,0,0,0,0,0,0,0,0,0,0,0,0,0,0,0,0,0,0,0,0,0,0,0,0,
0,0,0,0,0,0,0,0,0,0,0,0,0,0,0,0,0,0,0,0,0,0,0,0,0,0,0,0,0,0,0,0,0,0,0,0,0,0,0,0,0,0,0,0,0,0,0,0,0,0,0,0,0,0,0,0,0,0,0,0,0,0,0,0,0,0,0,0,0,0,0,0,0,0,0,0,0,0,0,0,0,0,0,0,0,0,0,0,0,0,0,0,0,0,0,0,0,0,0,0,0,0,0,0,
0,0,0,0,0,0,0,0,0,0,0,0,0,0,0,0,0,0,0,0,0,0,0,0,0,0,0,0,0,0,0,0,0,0,0,0,0,0,0,0,0,0,0,0,0,0,0,0,0,0,0,0,0,0,0,0,0,0,0,0,0,0,0,0,0,0,0,0,0,0,0,0,0,0,0,0,0,0,0,0,0,0,0,0,0,0,0,0,0,0,0,0,0,0,0,0,0,0,0,0,0,0,0,0,
0,0,0,0,0,0,0,0,0,0,0,0,0,0,0,0,0,0,0,0,0,0,0,0,0,0,0,0,0,0,0,0,0,0,0,0,0,0,0,0,0,0,0,0,0,0,0,0,0,0,0,0,0,0,0,0,0,0,0,0,0,0,0,0,0,0,0,0,0,0,0,0,0,0,0,0,0,0,0,0,0,0,0,0,0,0,0,0,0,0,0,0,0,0,0,0,0,0,0,0,0,0,0,0,
0,0,0,0,0,0,0,0,0,0,0,0,0,0,0,0,0,0,0,0,0,0,0,1055,0,0,0,0,1059,0,0,0,0,0,0,0,0,0,0,0,0,0,0,0,0,0,0,0,0,0,0,0,0,0,0,0,0,0,0,0,0,0,0,0,0,0,0,0,0,0,0,0,0,0,0,0,0,0,0,0,0,0,0,0,0,0,0,0,0,0,0,0,0,0,0,0,0,0,0,0,0,0,0,0,
0,0,0,0,0,0,0,0,0,0,0,0,0,0,0,0,0,0,0,0,0,0,0,0,0,0,0,0,0,0,0,0,0,0,0,0,0,0,0,0,0,0,0,0,0,0,0,0,0,0,0,0,0,0,0,0,0,0,0,0,0,0,0,0,0,0,0,0,0,0,0,0,0,0,0,0,0,0,0,0,0,0,0,0,0,0,0,0,0,0,0,0,0,0,0,0,0,0,0,0,0,0,0,0,
0,0,0,0,0,0,0,0,0,0,0,0,0,0,0,0,0,903,0,0,0,0,0,0,0,0,0,0,0,0,0,0,0,0,0,0,0,0,0,0,0,0,0,0,0,0,0,0,0,0,0,0,0,0,0,0,0,0,0,0,0,0,0,0,0,0,0,0,0,0,0,0,0,0,0,0,0,0,0,0,0,0,0,0,0,0,0,0,0,0,0,0,0,0,0,0,0,0,0,0,0,0,0,0,
0,0,0,0,0,0,0,0,0,0,0,0,0,0,0,0,0,0,0,0,0,0,0,0,0,0,0,0,0,0,0,0,0,0,0,0,0,0,0,0,0,0,0,0,0,0,0,0,0,0,0,0,0,0,0,0,0,0,0,0,0,0,0,0,0,0,0,0,0,0,0,0,0,0,0,0,0,0,0,0,0,0,0,0,0,0,0,0,0,0,0,0,0,0,0,0,0,0,0,0,0,0,0,0,
0,0,0,0,0,0,0,0,0,0,0,0,0,0,0,0,0,0,0,0,0,0,0,0,0,0,0,0,0,0,0,0,0,0,0,0,0,0,0,0,0,0,0,0,0,0,0,0,0,0,0,0,0,0,0,0,0,0,0,0,0,0,0,0,0,0,0,0,0,0,0,0,0,0,0,0,0,0,0,0,0,0,0,0,0,0,0,0,0,0,0,0,0,0,0,0,0,0,0,0,0,0,0,0,
0,0,0,0,0,0,0,0,0,0,0,0,0,0,0,0,0,0,0,0,0,0,0,0,0,0,0,0,0,0,0,0,0,0,0,0,0,0,0,0,0,0,0,0,0,0,0,0,0,0,0,0,0,0,0,0,0,0,0,0,0,0,0,0,0,0,0,0,0,0,0,0,0,0,0,0,0,0,0,0,0,0,0,0,0,0,0,0,0,0,0,0,0,0,0,0,0,0,0,0,0,0,0,0,
0,0,0,0,0,0,0,0,0,0,0,0,0,0,0,0,0,0,0,0,0,0,0,0,0,0,0,0,0,0,0,0,0,0,0,0,0,0,0,0,0,0,0,0,0,0,0,0,0,0,0,0,0,0,0,0,0,0,0,0,0,0,0,0,0,0,0,0,0,0,0,0,0,0,0,0,0,0,0,0,0,0,0,0,0,0,0,0,0,0,0,0,0,0,0,0,0,0,0,0,0,0,0,0,
0,0,0,0,0,0,0,0,0,0,0,0,0,0,0,0,0,0,0,0,0,0,0,0,0,0,0,0,0,0,0,0,0,0,0,0,0,0,0,0,0,0,0,0,0,0,0,0,0,0,0,0,0,0,0,0,0,0,0,0,0,0,0,0,0,0,0,0,0,0,0,0,0,0,0,0,0,0,0,0,0,0,0,0,0,0,0,0,0,0,0,0,0,0,0,0,0,0,0,0,0,0,0,0,
0,0,0,0,0,0,0,0,0,0,0,0,0,0,0,0,0,0,0,0,0,0,0,0,0,0,0,0,0,0,0,0,0,0,0,0,0,0,0,0,0,0,0,0,0,0,0,0,0,0,0,0,0,0,0,0,0,0,0,0,0,0,0,0,0,0,0,0,0,0,0,0,0,0,0,0,0,0,0,0,0,0,0,0,0,0,0,0,0,0,0,0,0,0,0,0,0,0,0,0,0,0,0,0,
0,0,0,0,0,0,0,0,0,0,0,0,0,0,0,0,0,0,0,0,0,0,0,0,0,0,0,157,158,0,0,0,0,0,0,0,0,0,0,0,0,0,0,0,0,0,0,0,0,0,0,0,0,0,0,0,0,0,0,0,0,0,0,0,0,0,0,0,0,0,0,0,0,0,0,0,0,0,0,0,0,0,0,0,0,0,0,0,0,0,0,0,0,0,0,0,0,0,0,0,0,0,0,0,
0,0,0,0,0,0,0,0,0,0,0,0,0,0,0,0,0,0,0,0,0,0,0,0,0,0,0,176,177,0,0,0,0,0,0,0,0,0,0,0,0,0,0,0,0,0,0,0,0,0,0,0,0,0,0,0,0,0,0,0,0,0,0,0,0,0,0,0,0,0,0,0,0,0,0,0,0,0,0,0,0,0,0,0,0,0,0,0,0,0,0,0,0,0,0,0,0,0,0,0,0,0,0,0,
0,0,0,0,0,0,0,0,0,0,0,0,0,0,0,0,0,0,0,0,0,0,0,0,0,0,0,195,196,0,0,0,0,0,0,0,0,0,0,0,0,0,0,0,0,0,0,0,0,0,0,0,0,0,0,0,0,0,0,0,0,0,0,0,0,0,0,0,0,0,0,0,0,0,0,0,0,0,0,0,0,0,0,0,0,0,0,0,0,0,0,0,0,0,0,0,0,0,0,0,0,0,0,0,
0,0,0,0,0,0,0,0,0,0,0,0,0,0,0,0,0,0,0,0,0,0,0,0,0,0,0,0,215,0,0,0,0,220,221,222,0,0,0,0,0,0,0,0,0,0,0,0,0,0,0,0,0,0,0,0,0,0,0,0,0,0,0,0,0,0,0,0,0,0,0,0,0,0,0,0,0,0,0,0,0,0,0,0,0,0,0,0,0,0,0,0,0,0,0,0,0,0,0,0,0,0,0,0,
0,0,0,0,0,0,0,0,0,0,0,0,0,0,0,0,0,0,0,0,0,0,0,0,0,0,0,0,0,0,0,0,0,0,0,0,0,0,0,0,0,0,0,0,0,0,0,0,0,0,0,0,0,0,0,0,0,0,0,0,0,0,0,0,0,0,0,0,0,0,0,0,0,0,0,0,0,0,0,0,0,0,0,0,0,0,0,0,0,0,0,0,0,0,0,0,0,0,0,0,0,0,0,0,
0,0,0,0,0,0,0,0,0,0,0,0,0,0,0,0,0,0,0,0,0,0,0,0,0,0,0,0,0,0,0,0,0,0,0,0,0,0,0,0,0,0,0,0,0,0,0,0,0,0,0,0,0,0,0,0,0,0,0,0,0,0,0,0,0,0,0,0,0,0,0,0,0,0,0,0,0,0,0,0,0,0,0,0,0,0,0,0,903,0,0,0,0,0,0,0,0,0,0,0,0,0,0,0,
0,0,0,0,0,0,0,0,0,0,0,0,0,0,0,0,0,0,0,0,0,0,0,0,0,0,0,0,0,0,0,0,0,0,0,0,0,0,0,0,0,0,0,0,0,0,0,0,0,0,0,0,0,0,0,0,0,0,0,0,0,0,0,0,0,0,0,0,0,0,0,0,0,0,0,0,0,0,0,0,0,0,0,0,0,0,0,0,0,0,0,0,0,0,0,0,0,0,0,0,0,0,0,0,
0,0,0,0,0,0,0,0,0,0,0,0,0,0,0,0,0,0,0,0,0,0,0,0,0,0,0,0,0,0,0,0,0,0,0,0,0,0,0,0,0,0,0,0,0,0,0,0,0,0,0,0,0,0,0,7684,0,0,0,0,0,0,0,0,0,0,0,0,0,0,0,0,0,0,0,0,0,0,0,0,0,0,0,0,0,0,0,0,0,0,0,0,0,0,0,0,0,0,0,0,0,0,0,0,
0,0,0,0,0,0,0,0,0,0,0,0,0,0,0,0,0,0,0,0,0,0,0,0,0,0,0,0,0,0,0,0,0,0,0,0,0,0,0,0,0,0,0,0,0,0,0,0,0,0,0,0,0,0,0,0,0,0,0,0,0,0,0,0,0,0,0,0,0,0,0,0,0,0,0,0,0,0,0,0,0,0,0,0,0,0,0,0,0,0,0,0,0,0,0,0,0,0,0,0,0,0,0,0,
0,0,0,0,0,0,0,0,0,0,0,0,0,0,0,0,0,0,0,0,0,0,0,0,0,0,0,0,0,0,0,0,0,0,0,0,0,0,0,0,0,0,0,0,0,0,0,0,0,0,0,0,0,0,0,0,0,0,0,0,0,0,0,0,0,0,0,0,0,0,0,0,0,0,0,0,0,0,0,0,0,0,0,0,0,0,0,0,0,0,0,0,0,0,0,0,0,0,0,0,0,0,0,0,
0,0,0,0,0,0,0,0,0,0,0,0,0,0,0,0,0,0,0,0,0,0,0,0,0,0,0,0,0,0,0,0,0,0,0,0,0,0,0,0,0,0,0,0,0,0,0,0,0,0,0,0,0,0,0,0,0,0,0,0,0,0,0,0,0,0,0,0,0,0,0,0,0,0,0,0,0,0,0,0,0,0,0,0,0,0,0,0,0,0,0,0,0,0,0,0,0,0,0,0,0,0,0,0,
0,0,0,0,0,0,0,0,0,0,0,0,0,0,0,0,0,0,0,0,0,0,0,0,0,0,0,0,0,0,0,0,0,0,0,0,0,0,0,0,0,0,0,0,0,0,0,0,0,0,0,0,0,0,0,0,0,0,0,0,0,0,0,0,0,0,0,0,0,0,0,0,0,0,0,0,0,0,0,0,0,0,0,0,0,0,0,0,0,0,0,0,0,0,0,0,0,0,0,0,0,0,0,0,
0,0,0,0,0,0,0,0,0,0,0,0,0,0,0,0,0,0,0,0,0,0,0,0,0,0,0,0,0,0,0,0,0,0,0,0,0,0,0,0,0,0,0,0,0,0,0,0,0,0,0,0,0,0,0,0,0,0,0,0,0,0,0,0,0,0,0,0,0,0,0,0,0,0,0,0,0,0,0,0,0,0,0,0,0,0,0,0,0,0,0,0,0,0,0,0,0,0,0,0,0,0,0,0,
0,0,0,0,0,0,0,0,0,0,0,0,0,0,0,0,0,0,0,0,0,0,0,0,0,0,0,0,0,0,0,0,0,0,0,0,0,0,0,0,0,0,0,0,0,0,0,0,0,0,0,0,0,0,0,0,0,0,0,0,0,0,0,0,0,0,0,0,0,0,0,0,0,0,0,0,0,0,0,0,0,0,0,0,0,0,0,0,0,0,0,0,0,0,0,0,0,0,0,0,0,0,0,0,
0,0,0,0,0,0,0,0,0,0,0,0,0,0,0,0,0,0,0,0,0,0,0,0,0,0,0,0,0,0,0,0,0,0,0,0,0,0,0,0,0,0,0,0,0,0,0,0,0,0,0,0,0,0,0,0,0,0,0,0,0,0,0,0,0,0,0,0,0,0,0,0,0,0,0,0,0,0,0,0,0,0,0,0,0,0,0,0,0,0,0,0,0,0,0,0,0,0,0,0,0,0,0,0,
0,0,0,0,0,0,0,0,0,0,0,0,0,0,0,0,0,0,0,0,0,0,0,0,0,0,0,0,0,0,0,0,0,0,0,0,0,0,0,0,0,0,0,0,0,0,0,0,0,0,0,0,0,0,0,0,0,0,0,0,0,0,0,0,0,0,0,0,0,0,0,0,0,0,0,0,0,0,0,0,0,0,0,0,0,0,0,0,0,0,0,0,0,0,0,0,0,0,0,0,0,0,0,0,
0,0,0,0,0,0,0,0,0,0,0,0,0,0,0,0,0,0,0,0,0,0,0,0,0,0,0,0,0,0,0,0,0,0,0,0,0,0,0,0,0,0,0,0,0,0,0,0,0,0,0,0,0,0,0,0,0,0,0,0,0,0,0,0,0,0,0,0,0,0,0,0,0,0,0,0,0,0,0,0,0,0,0,0,0,0,0,0,0,0,0,0,0,0,0,0,0,0,0,0,0,0,0,0,
0,0,0,0,0,0,0,0,0,0,0,0,0,0,0,0,0,0,0,0,0,0,0,0,0,0,0,0,0,0,0,0,0,0,0,0,0,0,0,0,0,0,0,0,0,0,0,0,0,0,0,0,0,0,0,0,0,0,0,0,0,0,0,0,0,0,0,0,0,0,0,0,0,0,0,0,0,0,0,0,0,0,0,0,0,0,0,0,0,0,0,0,0,0,0,0,0,0,0,0,0,0,0,0,
0,0,0,0,0,0,0,0,0,0,0,0,0,0,0,0,0,0,0,0,0,0,0,0,0,0,0,0,0,0,0,0,0,0,0,0,0,0,0,0,0,0,0,0,0,0,0,0,0,0,0,0,0,0,0,0,0,0,0,0,0,0,0,0,0,0,0,0,0,0,0,0,0,0,0,0,0,0,0,0,0,0,0,0,0,0,0,0,0,0,0,0,0,0,0,0,0,0,0,0,0,0,0,0
</data>
 </layer>
 <layer id="6" name="Paths" width="104" height="50">
  <data encoding="csv">
0,0,0,0,0,0,0,0,0,0,0,0,0,0,0,0,0,0,0,0,0,0,0,0,0,0,0,0,0,0,0,0,0,0,0,0,0,0,0,0,0,0,0,0,0,0,0,0,0,0,0,0,0,0,0,0,0,0,0,0,0,0,0,0,0,0,0,0,0,0,0,0,0,0,0,0,0,0,0,0,0,0,0,0,0,0,0,0,0,0,0,0,0,0,0,0,0,0,0,0,0,0,0,0,
0,0,0,0,0,0,0,0,0,0,0,0,0,0,0,0,0,0,0,0,0,0,0,0,0,0,0,0,0,0,0,0,0,0,0,0,7329,0,7329,0,7329,0,0,0,0,0,0,0,0,0,0,0,0,0,0,0,0,0,0,0,0,0,0,0,0,0,0,0,0,0,0,0,0,0,0,0,0,0,0,0,0,0,0,0,0,0,0,0,0,0,0,0,0,0,0,0,0,0,0,0,0,0,0,0,
0,0,0,0,0,0,0,0,0,0,0,0,0,0,0,0,0,0,0,0,0,0,0,0,0,0,0,0,0,0,0,0,0,0,0,0,0,0,0,0,0,0,0,0,0,0,0,0,0,0,0,0,0,0,0,0,0,0,0,0,0,0,0,0,0,0,0,0,0,0,0,0,0,0,0,0,0,0,0,0,0,0,0,0,0,0,0,0,0,0,0,0,0,0,0,0,0,0,0,0,0,0,0,0,
0,0,0,0,0,0,0,0,0,0,0,0,0,0,0,0,0,0,0,0,0,0,0,0,0,0,0,0,0,0,0,0,0,0,0,0,0,0,0,0,0,0,0,0,0,0,0,0,0,0,0,0,0,0,0,0,0,0,0,0,0,0,0,0,0,0,0,0,0,0,0,0,0,0,0,0,0,0,0,0,0,0,0,0,0,0,0,0,0,0,0,0,0,0,0,0,0,0,0,0,0,0,0,0,
0,0,0,0,0,0,0,0,0,0,0,0,0,0,0,0,0,0,0,0,0,0,0,0,0,0,0,0,0,0,0,0,0,0,0,0,0,0,0,0,0,0,0,0,0,0,0,0,0,0,0,0,0,0,0,0,0,0,0,0,0,0,0,0,0,0,0,0,0,0,0,0,0,0,0,0,0,0,0,0,0,0,0,0,0,0,0,0,0,0,0,0,0,0,0,0,0,0,0,0,0,0,0,0,
0,0,0,0,0,0,0,0,0,0,0,0,0,0,0,0,0,0,0,0,0,0,0,0,0,0,0,0,0,0,0,0,0,0,0,0,0,0,0,0,0,0,0,0,0,0,0,0,0,0,0,0,0,0,0,0,0,0,0,0,0,0,0,0,0,0,0,0,0,0,0,0,0,0,0,0,0,0,0,0,0,0,0,0,0,0,0,0,0,0,0,0,0,0,0,0,0,0,0,0,0,0,0,0,
0,0,0,0,0,0,0,0,0,0,0,0,0,0,0,0,0,0,0,0,0,0,0,0,0,0,0,0,0,0,0,0,0,0,0,0,0,0,0,0,0,0,0,0,0,0,0,0,0,0,0,0,0,0,0,0,0,0,0,0,0,0,0,0,0,0,0,0,0,0,0,0,0,0,0,0,0,0,0,0,0,0,0,0,0,0,0,0,0,0,0,0,0,0,0,0,0,0,0,0,0,0,0,0,
0,0,0,0,0,0,0,0,0,0,0,0,0,0,0,0,0,0,0,0,0,0,0,0,0,0,0,0,0,0,0,0,0,0,0,0,0,0,0,0,0,0,0,0,0,0,0,0,0,0,0,0,0,0,0,0,0,0,0,0,0,0,0,0,0,0,0,0,0,0,0,0,0,0,0,0,0,0,0,0,0,0,0,0,0,0,0,0,0,0,0,0,0,0,0,0,0,0,0,0,0,0,0,0,
0,0,0,0,0,0,0,0,0,0,0,0,0,0,0,0,0,0,0,0,0,0,0,0,0,0,0,0,0,0,0,0,0,0,0,0,0,0,0,0,0,0,0,0,0,0,0,0,0,0,0,0,0,0,0,0,0,0,0,0,0,0,0,0,0,0,0,0,0,0,0,0,0,0,0,0,0,0,0,0,0,0,0,0,0,0,0,0,0,0,0,0,0,0,0,0,0,0,0,0,0,0,0,0,
0,0,0,0,0,0,0,0,0,0,0,0,0,0,0,0,0,0,0,0,0,0,0,0,0,0,0,0,0,0,0,0,0,0,0,0,0,0,0,0,0,0,0,0,0,0,0,0,0,0,0,0,0,0,0,0,0,0,0,0,0,0,0,0,0,0,0,0,0,0,0,0,0,0,0,0,0,0,0,0,0,0,0,0,0,0,0,0,0,0,0,0,0,0,0,0,0,0,0,0,0,0,0,0,
0,7329,0,0,0,0,0,0,0,0,0,0,0,0,0,0,0,0,0,0,0,0,0,0,0,0,0,0,0,0,0,0,0,0,0,0,0,0,0,0,0,0,0,0,0,0,0,0,0,0,0,0,0,0,0,0,0,0,0,0,0,0,0,0,0,0,0,0,0,0,0,0,0,0,0,0,0,0,0,0,0,0,0,0,0,0,0,0,0,0,0,0,0,0,0,0,0,0,0,0,0,0,0,0,
0,0,0,0,0,0,0,0,0,0,0,0,0,0,0,0,0,0,0,0,0,0,0,0,0,0,0,0,0,0,0,0,0,0,0,0,0,0,0,0,0,0,0,0,0,0,0,0,0,0,0,0,0,0,0,0,0,0,0,0,0,0,0,0,0,0,0,0,0,0,0,0,0,0,0,0,0,0,0,0,0,0,0,0,0,0,0,0,0,0,0,0,0,0,0,0,0,0,0,0,0,0,0,0,
0,0,0,0,0,7329,0,0,0,0,0,0,0,0,0,0,0,0,0,0,0,0,0,0,0,0,0,0,0,0,0,0,0,0,0,0,0,0,0,0,0,0,0,0,0,0,0,0,0,0,0,0,0,0,0,0,0,0,7329,0,0,7329,0,0,0,0,0,0,0,0,0,0,0,0,0,0,0,0,0,0,0,0,0,0,0,0,0,0,0,0,0,0,0,0,0,0,0,0,0,0,0,0,0,0,
0,0,0,0,0,0,0,0,0,0,0,0,0,0,0,0,0,0,0,0,0,0,0,0,0,0,0,0,0,0,0,0,0,0,0,0,0,0,0,0,0,0,0,0,0,0,0,0,0,0,0,0,0,0,0,0,0,0,0,0,0,0,0,0,0,0,0,0,0,0,0,0,0,0,0,0,0,0,0,0,0,0,0,0,0,0,0,0,0,0,0,0,0,0,0,0,0,0,0,0,0,0,0,0,
0,0,0,0,0,0,0,0,0,0,0,0,0,0,0,0,0,0,0,0,0,0,0,0,0,0,0,0,0,0,0,0,0,0,0,0,0,0,0,0,0,0,0,0,0,0,0,0,0,0,0,0,0,0,0,0,0,0,0,0,7329,0,0,0,0,0,0,0,0,0,0,0,0,0,0,0,0,0,0,0,0,0,0,0,0,0,0,0,0,0,0,0,0,0,0,0,0,0,0,0,0,0,0,0,
0,0,0,0,0,0,0,0,0,0,0,0,0,0,0,0,0,0,0,0,0,0,0,0,0,0,0,0,0,0,0,0,0,0,0,0,0,0,0,0,0,0,0,0,0,0,0,0,0,0,0,0,0,0,0,0,0,0,0,0,0,0,0,0,0,0,0,0,0,0,0,0,0,0,0,0,0,0,0,0,0,0,0,0,0,0,0,0,0,0,0,0,0,0,0,0,0,0,0,0,0,0,0,0,
0,0,0,0,0,0,0,0,0,0,0,0,0,0,0,0,0,0,0,0,0,0,0,0,0,0,0,0,0,0,0,0,0,0,0,0,0,0,0,0,0,0,0,0,0,0,0,0,0,0,0,0,0,0,0,0,0,0,0,0,0,0,0,0,0,0,0,0,0,0,0,0,0,0,0,0,0,0,0,0,0,0,0,0,0,0,0,0,0,0,0,0,0,0,0,0,0,0,0,0,0,0,0,0,
0,0,0,0,0,0,0,0,0,0,0,0,0,0,0,0,0,0,0,0,0,0,0,0,0,0,0,0,0,0,0,0,0,0,0,0,0,0,0,0,0,0,0,0,0,0,0,0,0,0,0,0,0,0,0,0,0,0,0,0,0,0,0,0,0,0,0,0,0,0,0,0,0,0,0,0,0,0,0,0,0,0,0,0,0,0,0,0,0,0,0,0,0,0,0,0,0,0,0,0,0,0,0,0,
0,0,0,0,0,0,0,0,0,0,0,0,0,0,0,0,0,0,0,0,0,0,0,0,0,0,0,0,0,0,0,0,0,0,0,0,0,0,0,0,0,0,0,0,0,0,0,0,0,0,0,0,0,0,0,0,0,0,0,0,0,0,0,0,0,0,0,0,0,0,0,0,0,0,0,0,0,0,0,0,0,0,0,0,0,0,0,0,0,0,0,0,0,0,0,0,0,0,0,0,0,0,0,0,
0,0,0,0,0,0,0,0,0,7329,0,0,0,0,0,0,0,0,0,0,0,0,0,0,0,0,0,0,0,0,0,0,0,0,0,0,0,0,0,0,0,0,0,0,0,0,0,0,0,0,0,0,0,0,0,0,0,0,0,0,0,0,0,0,0,0,0,0,0,0,0,0,0,0,0,0,0,0,0,0,0,0,0,0,0,0,0,0,0,0,0,0,0,0,0,0,0,0,0,0,0,0,0,0,
0,0,0,0,0,0,0,0,0,0,0,0,0,0,0,0,0,0,0,0,0,0,0,0,0,0,0,0,0,0,0,0,0,0,0,0,0,0,0,0,0,0,0,0,0,0,0,0,0,0,0,0,0,0,0,0,0,0,0,0,0,0,0,0,0,0,0,0,0,0,0,0,0,0,0,0,0,0,0,0,0,0,0,0,0,0,0,0,0,0,0,0,0,0,0,0,0,0,0,0,0,0,0,0,
0,0,0,0,0,0,0,0,0,0,0,0,0,0,0,7329,0,0,0,0,0,0,0,0,0,0,0,0,0,0,0,0,0,0,0,0,0,0,0,0,0,0,0,0,0,0,0,0,0,0,0,0,0,0,0,0,0,0,0,0,0,0,0,0,0,0,0,0,0,0,0,0,0,0,0,0,0,0,0,0,0,0,0,0,0,0,0,0,0,0,0,0,0,0,0,0,0,0,0,0,0,0,0,0,
0,0,0,0,0,0,0,0,7329,0,0,0,0,0,0,0,0,0,0,7329,0,0,0,0,0,0,0,0,0,0,0,0,0,0,0,0,0,0,0,0,0,0,0,0,0,0,0,0,0,0,0,0,0,0,0,0,0,7329,0,0,0,0,0,0,0,0,0,0,0,0,0,0,0,0,0,0,0,0,0,0,0,0,0,0,0,0,0,0,0,0,0,0,0,0,0,0,0,0,0,0,0,0,0,0,
0,0,0,0,0,0,0,0,0,0,0,0,0,0,0,0,0,0,0,0,0,0,0,0,0,0,0,0,0,0,0,7329,0,0,0,0,0,0,0,0,0,0,0,0,0,0,0,0,0,0,0,0,0,0,0,0,0,0,0,0,0,0,0,0,0,0,0,0,0,0,0,0,0,0,0,0,0,0,0,0,0,0,0,0,0,0,0,0,0,0,0,0,0,0,0,0,0,0,0,0,0,0,0,0,
0,0,0,0,0,0,0,0,0,0,0,0,0,0,0,0,0,0,0,0,0,0,0,0,0,0,0,0,0,0,0,0,0,0,0,0,0,0,0,0,0,0,0,0,0,0,0,0,0,0,0,0,0,0,0,0,0,0,0,0,0,0,0,7329,0,0,0,0,0,0,0,0,0,0,0,0,0,0,0,0,0,0,0,0,0,0,0,0,0,0,0,0,0,0,0,0,0,0,0,0,0,0,0,0,
0,0,0,0,0,0,0,0,0,0,0,0,0,0,0,0,0,0,0,0,0,0,0,0,0,0,0,0,0,7329,0,0,0,0,0,0,7329,0,0,0,0,0,0,0,0,0,0,0,0,0,0,0,0,0,0,0,0,0,0,0,0,0,0,0,0,0,0,0,0,0,0,0,0,0,0,0,0,0,0,0,0,0,0,0,0,0,0,0,0,0,0,0,0,0,0,0,0,0,0,0,0,0,0,0,
0,0,0,0,0,0,0,0,0,0,0,0,0,0,0,0,0,0,0,0,0,7329,0,7329,0,7329,0,7329,0,0,0,0,0,0,0,0,0,0,0,0,0,0,0,0,0,0,0,0,0,0,0,0,7329,0,0,0,0,0,0,0,0,0,0,0,0,0,0,0,0,0,0,0,0,0,0,0,0,0,0,0,0,0,0,0,0,0,0,0,0,0,0,0,0,0,0,0,0,0,0,0,0,0,0,0,
0,0,0,0,0,0,0,7329,0,7329,0,7329,0,7329,0,0,7329,0,0,0,0,0,0,0,0,0,0,0,0,0,0,0,0,0,0,0,0,0,0,0,0,0,0,0,0,0,0,0,0,0,0,0,0,0,0,0,0,0,0,0,0,0,0,0,0,0,0,0,0,0,0,0,0,0,0,0,0,0,0,0,0,0,0,0,0,0,0,0,0,0,0,0,0,0,0,0,0,0,0,0,0,0,0,0,
0,0,0,0,0,0,0,0,0,0,0,0,0,0,0,0,0,0,0,0,0,0,0,0,0,0,0,0,0,0,0,0,0,0,0,0,0,0,7329,0,7329,0,0,7329,0,7329,0,7329,0,7329,0,7329,0,7329,0,7329,0,0,0,0,0,7329,0,0,0,0,0,0,0,0,0,0,0,0,0,0,0,0,0,0,0,0,0,0,0,0,0,0,0,0,0,0,0,0,0,0,0,0,0,0,0,0,0,0,
0,0,0,0,0,0,0,0,0,0,0,0,0,0,0,0,0,0,0,7329,0,0,0,0,7329,0,0,0,0,0,0,7329,0,0,0,0,0,0,0,0,0,0,0,0,0,0,0,0,0,0,0,0,0,0,0,0,0,0,0,0,0,0,0,0,0,0,0,0,0,0,0,0,0,0,0,0,0,0,0,0,0,0,0,0,0,0,0,0,0,0,0,0,0,0,0,0,0,0,0,0,0,0,0,0,
0,0,0,0,0,7329,0,0,0,0,0,0,0,0,0,0,0,0,0,0,0,0,0,0,0,0,7329,0,0,0,0,0,0,0,0,0,0,0,0,0,0,0,0,0,0,0,0,0,0,0,0,0,0,0,0,0,0,0,0,0,0,0,0,0,0,0,0,0,0,0,0,0,0,0,0,0,0,0,0,0,0,0,0,0,0,0,0,0,0,0,0,0,0,0,0,0,0,0,0,0,0,0,0,0,
0,0,0,0,0,0,0,0,0,0,0,0,7329,0,0,0,0,0,0,0,0,0,0,0,0,0,0,0,0,0,0,0,0,0,0,0,0,0,0,0,0,0,0,0,7329,0,0,0,0,0,0,0,0,0,0,0,0,0,0,7329,7329,0,0,0,0,0,0,0,0,0,0,0,0,0,0,0,0,0,0,0,0,0,0,0,0,0,0,0,0,0,0,0,0,0,0,0,0,0,0,0,0,0,0,0,
0,0,0,0,0,0,0,0,0,0,0,0,0,0,0,0,0,7329,0,0,0,7329,0,0,7329,0,0,0,0,0,7329,0,0,7329,0,0,0,0,0,7329,0,0,0,0,0,0,0,0,0,0,0,0,0,0,0,0,0,0,0,0,0,0,0,0,0,0,0,0,0,0,0,0,0,0,0,0,0,0,0,0,0,0,0,0,0,0,0,0,0,0,0,0,0,0,0,0,0,0,0,0,0,0,0,0,
0,0,0,7329,0,0,0,7329,0,0,0,0,0,0,0,0,0,0,0,0,0,0,0,0,0,0,7329,0,0,0,0,0,0,0,0,0,0,0,0,0,0,0,0,0,0,0,7329,0,0,0,7329,0,7329,0,0,0,0,0,0,0,0,0,0,0,0,0,0,0,0,0,0,0,0,0,0,0,0,0,0,0,0,0,0,0,0,0,0,0,0,0,0,0,0,0,0,0,0,0,0,0,0,0,0,0,
0,0,0,0,0,0,0,0,0,0,0,0,7329,0,0,0,0,0,0,0,0,0,0,0,0,0,0,0,0,0,0,0,0,0,0,0,0,0,0,0,0,0,0,0,0,0,0,0,0,0,0,0,0,0,0,0,0,0,0,0,0,0,0,0,0,0,0,0,0,0,0,0,0,0,0,0,0,0,0,0,0,0,0,0,0,0,0,0,0,0,0,0,0,0,0,0,0,0,0,0,0,0,0,0,
0,0,0,0,0,0,0,0,0,0,0,0,0,0,0,0,0,7329,0,0,0,7329,0,0,0,0,0,0,0,0,0,0,0,0,0,0,0,0,7329,0,0,0,7329,0,0,0,0,0,7329,0,0,0,0,0,0,0,0,0,0,7329,0,0,0,0,0,0,0,0,0,0,0,0,0,0,0,0,0,0,0,0,0,0,0,0,0,0,0,0,0,0,0,0,0,0,0,0,0,0,0,0,0,0,0,0,
0,0,0,0,0,7329,0,0,0,7329,0,0,0,0,0,0,0,0,0,0,0,0,0,0,0,0,7329,0,7329,7329,0,7329,0,7329,0,0,0,0,0,0,0,0,0,0,0,0,0,0,0,0,0,0,0,0,0,0,0,0,0,0,0,0,0,0,0,0,0,0,0,0,0,0,0,0,0,0,0,0,0,0,0,0,0,0,0,0,0,0,0,0,0,0,0,0,0,0,0,0,0,0,0,0,0,0,
0,0,0,0,0,0,0,0,0,0,0,0,0,0,7329,0,0,0,0,0,0,0,0,0,0,0,0,0,0,0,0,0,0,0,0,7329,0,7329,0,0,0,0,0,0,0,0,0,0,0,0,0,0,0,0,0,0,0,7329,0,0,0,0,0,0,0,0,0,0,0,0,0,0,0,0,0,0,0,0,0,0,0,0,0,0,0,0,0,0,0,0,0,0,0,0,0,0,0,0,0,0,0,0,0,0,
0,0,0,0,0,7329,0,0,0,0,0,0,0,0,0,0,0,0,0,0,0,0,0,0,0,0,0,0,0,0,0,0,0,0,0,0,0,0,0,0,0,0,0,7329,0,7329,0,0,0,0,7329,0,0,0,0,7329,0,0,0,0,0,0,0,0,0,0,0,0,0,0,0,0,0,0,0,0,0,0,0,0,0,0,0,0,0,0,0,0,0,0,0,0,0,0,0,0,0,0,0,0,0,0,0,0,
0,0,0,0,0,0,0,0,0,0,0,0,0,0,0,0,0,0,0,0,0,0,7329,0,7329,0,0,7329,0,0,0,0,0,0,0,0,7329,0,0,0,7329,0,0,0,0,0,0,0,0,0,0,0,0,0,0,0,0,0,0,0,0,0,7329,0,0,0,0,0,0,0,0,0,0,0,0,0,0,0,0,0,0,0,0,0,0,0,0,0,0,0,0,0,0,0,0,0,0,0,0,0,0,0,0,0,
0,0,0,0,0,0,0,7329,0,0,0,0,0,0,0,0,0,0,0,0,0,0,0,0,0,0,0,0,0,0,0,0,0,0,0,0,0,0,0,0,0,0,0,0,0,0,0,0,7329,0,0,0,0,0,0,0,0,0,0,0,0,0,0,0,0,0,0,0,0,0,0,0,0,0,0,0,0,0,0,0,0,0,0,0,0,0,0,0,0,0,0,0,0,0,0,0,0,0,0,0,0,0,0,0,
0,0,0,7329,0,0,0,0,0,0,0,0,0,0,0,0,0,7329,0,0,0,0,0,0,0,0,0,0,0,0,0,0,7329,0,0,0,0,0,0,0,0,0,0,0,0,0,0,0,0,0,0,0,0,0,0,0,0,0,0,7329,0,0,0,0,0,0,0,0,0,0,0,0,0,0,0,0,0,0,0,0,0,0,0,0,0,0,0,0,0,0,0,0,0,0,0,0,0,0,0,0,0,0,0,0,
0,0,0,0,0,0,0,0,0,0,0,0,0,0,0,0,0,0,0,0,0,0,0,0,0,0,0,0,0,0,0,0,0,0,0,0,0,0,0,0,0,0,0,0,0,7329,0,0,0,0,0,0,0,0,0,0,0,0,0,0,0,0,0,0,0,0,0,0,0,0,0,0,0,0,0,0,0,0,0,0,0,0,0,0,0,0,0,0,0,0,0,0,0,0,0,0,0,0,0,0,0,0,0,0,
0,0,0,0,0,0,0,0,0,0,0,0,0,0,0,0,0,0,0,0,0,0,0,0,0,0,0,0,0,0,0,0,0,0,0,0,0,0,0,0,0,0,0,0,0,0,0,0,0,0,0,0,7329,0,0,0,0,0,0,7329,0,0,0,0,0,0,0,0,0,0,0,0,0,0,0,0,0,0,0,0,0,0,0,0,0,0,0,0,0,0,0,0,0,0,0,0,0,0,0,0,0,0,0,0,
0,0,0,0,0,0,0,0,0,0,0,0,0,0,0,0,0,0,0,0,0,0,0,0,7329,0,0,0,0,0,0,0,0,0,0,0,0,0,0,0,0,0,0,0,0,0,0,7329,0,0,0,0,0,0,0,0,0,0,0,0,0,0,0,0,0,0,0,0,0,0,0,0,0,0,0,0,0,0,0,0,0,0,0,0,0,0,0,0,0,0,0,0,0,0,0,0,0,0,0,0,0,0,0,0,
0,0,0,0,0,0,0,0,0,0,0,0,0,0,0,0,0,0,0,0,0,0,0,0,0,0,0,0,0,0,0,7329,0,0,0,0,0,0,0,0,0,0,0,0,0,0,0,0,0,0,0,0,0,0,0,0,0,0,0,0,0,0,0,0,0,0,0,0,0,0,0,0,0,0,0,0,0,0,0,0,0,0,0,0,0,0,0,0,0,0,0,0,0,0,0,0,0,0,0,0,0,0,0,0,
0,0,0,0,0,0,0,0,0,0,0,0,0,0,0,0,0,0,0,0,0,0,0,0,0,0,0,0,0,0,0,0,0,0,0,0,0,0,0,0,0,0,0,0,0,0,0,0,0,0,0,0,0,0,0,0,0,0,0,0,0,0,0,0,0,0,0,0,0,0,0,0,0,0,0,0,0,0,0,0,0,0,0,0,0,0,0,0,0,0,0,0,0,0,0,0,0,0,0,0,0,0,0,0,
0,0,0,0,0,0,0,0,0,0,0,0,0,0,0,0,0,0,0,0,0,0,0,0,0,0,0,0,0,0,0,0,0,0,0,0,0,0,0,0,0,0,0,0,0,0,0,0,0,0,0,0,0,0,0,0,0,0,0,0,0,0,0,0,0,0,0,0,0,0,0,0,0,0,0,0,0,0,0,0,0,0,0,0,0,0,0,0,0,0,0,0,0,0,0,0,0,0,0,0,0,0,0,0,
0,0,0,0,0,0,0,0,0,0,0,0,0,0,0,0,0,0,0,0,0,0,0,0,0,0,0,0,0,0,0,0,0,0,0,0,0,0,0,0,0,0,0,0,0,0,0,0,0,0,0,0,0,0,0,0,0,0,0,0,0,0,0,0,0,0,0,0,0,0,0,0,0,0,0,0,0,0,0,0,0,0,0,0,0,0,0,0,0,0,0,0,0,0,0,0,0,0,0,0,0,0,0,0,
0,0,0,0,0,0,0,0,0,0,0,0,0,0,0,0,0,0,0,0,0,0,0,0,0,0,0,0,0,0,0,0,0,0,0,0,0,0,0,0,0,0,0,0,0,0,0,0,0,0,0,0,0,0,0,0,0,0,0,0,0,0,0,0,0,0,0,0,0,0,0,0,0,0,0,0,0,0,0,0,0,0,0,0,0,0,0,0,0,0,0,0,0,0,0,0,0,0,0,0,0,0,0,0
</data>
 </layer>
 <layer id="7" name="Front" width="104" height="50">
  <data encoding="csv">
0,0,0,0,0,0,0,0,0,0,0,0,0,0,0,0,0,0,0,0,0,0,0,0,0,0,0,0,0,0,0,0,0,0,0,0,0,0,0,0,0,0,0,0,0,0,0,0,0,0,0,0,0,0,0,0,0,0,0,0,0,0,0,0,0,0,0,0,0,0,0,0,0,650,650,0,0,0,0,0,0,0,0,650,650,650,650,650,0,0,0,0,0,0,0,0,0,650,650,0,0,0,0,0,
0,0,0,0,0,0,769,770,0,0,0,0,0,0,0,0,0,0,0,0,0,0,0,0,0,0,0,0,0,0,0,0,0,0,0,0,0,0,0,0,0,0,0,0,0,0,0,0,0,0,0,0,0,0,0,0,0,0,0,0,0,0,0,0,0,0,0,0,0,0,0,0,0,650,0,0,0,0,0,0,0,0,0,650,650,0,0,650,0,0,0,0,0,0,0,0,0,650,0,0,0,0,0,0,
770,0,769,770,0,0,0,0,0,0,0,0,0,0,0,0,0,0,0,0,0,0,0,0,0,0,0,0,0,0,0,0,0,0,0,0,8468,0,0,0,8468,0,0,0,0,0,0,0,0,0,0,0,0,0,0,0,0,0,0,0,0,0,0,0,0,0,0,0,0,0,0,0,0,0,0,0,0,0,0,0,0,0,0,0,0,0,0,0,0,0,0,0,0,0,0,0,0,0,0,0,0,0,0,0,
0,0,0,0,0,0,0,0,0,0,0,769,770,0,0,0,0,0,0,0,0,0,0,0,0,0,0,0,0,0,0,0,0,0,0,0,0,0,0,0,0,0,0,0,0,0,0,0,0,0,0,0,0,0,0,0,0,0,0,0,0,0,0,0,0,0,0,0,0,0,0,0,0,0,0,0,0,0,0,0,0,0,0,0,0,0,0,0,0,0,0,0,0,0,0,0,0,0,0,0,0,0,0,0,
0,0,0,0,0,0,0,0,0,0,0,0,0,0,0,0,0,0,0,0,0,0,0,0,0,0,0,0,0,0,0,0,0,0,0,0,0,0,0,0,0,0,0,0,0,0,824,825,826,827,828,0,0,0,0,0,0,0,0,0,0,0,0,0,0,0,0,0,0,0,0,0,0,0,0,0,0,0,0,0,0,0,0,0,0,0,0,0,0,0,0,0,0,0,0,0,0,0,0,0,0,0,0,0,
0,0,0,0,0,0,0,0,0,0,0,0,0,0,0,0,0,0,0,0,0,0,0,0,0,0,0,0,0,0,0,0,0,0,0,0,0,0,0,0,0,0,0,0,0,0,841,842,843,844,845,0,0,0,0,0,0,0,0,0,0,0,0,0,0,0,0,0,0,0,0,0,0,0,0,0,0,0,0,0,0,0,0,0,0,0,0,0,0,0,0,0,0,0,0,0,0,0,0,0,0,0,0,0,
0,0,0,0,0,0,0,0,0,0,0,0,0,0,0,0,0,0,0,0,0,0,0,0,0,0,0,0,0,0,0,0,0,0,0,0,0,0,0,0,0,0,0,0,0,0,858,859,860,861,862,0,0,0,0,0,0,0,0,0,0,0,0,0,0,0,0,0,0,0,0,0,0,0,0,0,0,0,0,0,0,0,0,0,0,0,0,0,0,0,0,0,0,0,0,0,0,0,0,0,0,0,0,0,
0,0,0,0,0,0,0,0,0,0,0,0,0,0,0,0,0,0,0,0,0,0,0,0,0,0,0,0,0,0,0,0,0,0,0,0,0,0,0,0,0,0,0,0,769,770,875,876,877,878,879,0,0,0,0,0,0,0,0,0,0,0,0,0,0,0,0,0,0,0,0,0,0,0,0,0,0,0,0,0,0,0,0,0,0,0,0,0,0,0,0,0,0,0,0,0,0,0,0,0,0,0,0,0,
0,0,0,0,0,0,0,0,0,0,0,0,0,0,0,0,0,0,0,0,0,0,0,0,0,0,0,0,0,0,0,0,0,0,0,0,0,0,0,0,0,0,0,0,0,0,0,0,0,0,0,769,770,0,0,0,0,0,0,0,0,0,0,0,0,0,0,0,0,0,0,0,0,0,0,0,0,0,0,0,0,0,0,0,0,0,0,0,0,0,0,0,0,0,0,0,0,0,0,0,0,0,0,0,
0,0,0,0,0,0,0,0,0,0,0,0,0,0,0,0,0,0,0,0,0,0,0,0,0,0,0,0,0,0,0,0,0,0,0,0,0,0,0,0,0,0,914,0,0,0,0,0,0,0,0,0,769,770,0,0,0,0,0,0,0,0,0,0,0,0,0,0,0,0,0,0,0,0,0,0,0,0,0,0,0,0,0,0,0,0,0,0,0,0,0,0,0,0,0,0,0,0,0,0,0,0,0,0,
0,0,0,0,0,0,0,0,0,0,0,0,0,0,0,0,0,0,0,0,0,0,0,0,0,0,0,0,0,0,0,0,0,0,0,0,0,0,0,0,0,0,0,0,0,0,0,0,0,0,0,0,0,0,0,0,0,0,0,0,0,0,0,0,0,0,0,0,0,0,0,0,0,0,0,0,0,0,0,0,0,0,0,0,0,0,0,0,0,0,0,0,0,0,0,0,0,0,0,0,0,0,0,0,
0,0,0,0,0,0,0,0,0,0,0,0,0,0,0,0,0,0,0,0,0,0,0,0,0,0,0,0,0,0,0,0,0,0,0,0,0,0,0,0,0,0,0,0,0,0,0,0,0,0,0,0,0,0,0,0,0,0,0,0,0,0,0,0,0,0,0,0,0,0,0,0,0,0,0,0,0,0,0,0,0,0,0,0,0,0,0,0,0,0,0,0,0,0,0,0,0,0,0,0,0,0,0,0,
0,0,0,0,0,0,0,0,0,0,0,0,0,0,0,0,0,0,0,0,0,0,0,0,0,0,0,0,0,0,0,0,0,0,0,0,0,0,0,0,0,0,0,0,0,0,0,0,0,0,0,0,0,0,0,0,0,0,0,0,0,0,0,0,0,0,0,0,0,0,0,0,0,0,0,0,0,0,0,0,0,0,0,0,0,0,0,0,0,0,0,0,0,0,0,0,0,0,0,0,0,0,0,0,
0,0,0,0,0,0,0,0,0,0,0,0,0,0,0,0,0,0,0,0,0,0,0,0,0,0,0,0,0,0,0,0,0,0,0,0,0,0,0,0,0,0,0,0,0,0,0,0,0,0,0,0,0,0,0,0,0,0,0,0,0,0,0,0,0,0,0,0,0,0,0,0,0,0,0,0,0,0,0,0,0,769,770,0,0,0,0,0,0,0,0,0,0,0,0,0,0,0,0,0,0,0,0,0,
0,0,0,0,0,0,0,0,0,0,0,0,0,0,0,0,0,0,0,0,0,0,0,0,0,0,0,0,0,0,0,0,0,0,0,0,0,0,0,0,0,0,0,0,0,0,0,0,0,0,0,0,0,0,0,0,0,0,0,0,0,0,0,0,0,0,0,0,0,0,0,0,0,0,0,0,0,0,0,0,0,0,0,0,0,0,0,0,0,0,0,0,0,0,0,0,0,0,0,0,0,0,0,0,
0,0,0,0,0,0,0,0,0,0,0,0,0,0,0,0,0,0,0,0,0,0,0,0,0,0,0,0,0,0,0,0,0,0,0,0,0,0,0,0,0,0,0,0,0,0,0,0,0,0,0,0,0,0,0,0,0,0,0,0,0,0,0,0,0,0,0,0,0,0,0,0,0,0,0,0,0,0,0,0,0,0,0,0,0,0,0,0,769,770,0,0,0,0,0,0,0,0,0,0,0,0,0,0,
0,0,0,0,0,0,0,0,0,0,0,0,0,0,0,0,0,0,0,0,0,0,0,0,0,0,0,0,0,0,0,0,0,0,0,0,0,0,0,0,0,0,0,0,0,0,0,0,0,0,0,0,0,0,0,0,0,0,0,0,0,0,0,0,0,0,0,0,0,0,0,0,0,0,769,770,0,0,0,0,0,0,0,0,0,0,0,0,0,0,0,0,0,0,0,0,0,0,0,0,0,0,0,0,
0,0,0,0,0,0,0,0,0,0,0,0,0,0,0,0,0,0,0,0,0,0,0,0,0,0,0,0,0,0,0,0,0,0,0,0,0,0,0,0,0,0,0,0,0,0,0,0,0,0,0,0,0,0,0,0,0,0,0,0,0,0,0,0,0,0,0,0,0,0,0,0,0,0,0,0,0,0,0,0,0,0,0,0,0,0,0,0,0,0,0,0,0,0,0,0,0,0,0,0,0,0,0,0,
0,0,0,0,0,0,0,0,0,0,0,0,0,0,0,0,0,0,0,0,0,0,0,0,0,0,0,0,0,0,0,0,0,0,0,0,0,0,0,0,0,0,0,0,0,0,0,0,0,0,0,0,0,0,0,0,0,0,0,0,0,0,0,0,0,0,0,769,770,0,0,0,0,0,0,0,0,0,0,0,0,0,0,0,0,0,0,0,0,0,0,0,0,0,0,0,0,0,0,0,0,0,0,0,
0,0,0,0,0,0,0,0,0,0,0,0,0,0,0,0,0,0,0,0,0,0,0,0,0,0,0,0,0,0,0,0,0,0,0,0,0,0,0,0,0,0,0,0,0,0,0,0,0,0,0,0,0,0,0,0,0,0,0,0,0,0,0,0,0,0,0,0,0,0,0,0,0,0,0,0,0,0,0,0,0,0,0,0,0,0,0,0,0,0,0,0,0,0,0,0,0,0,0,0,0,0,0,0,
0,0,0,0,0,0,0,0,0,0,0,0,0,0,0,0,0,0,0,0,0,0,0,0,0,0,0,0,0,0,0,0,0,0,0,0,0,0,0,0,0,0,0,0,0,0,0,0,0,0,0,0,0,0,0,0,0,0,0,0,0,0,0,0,0,0,0,0,0,0,0,0,0,0,0,0,0,0,0,0,0,0,0,0,0,0,0,0,0,0,0,0,0,0,0,0,0,0,0,0,0,0,0,0,
0,0,0,0,0,0,0,0,0,0,0,0,0,0,0,0,0,0,0,0,0,0,0,0,0,0,0,0,0,0,0,0,0,0,0,0,0,0,0,0,0,0,0,0,0,0,0,0,0,0,0,0,0,0,0,0,0,0,0,0,0,0,0,0,0,0,0,0,0,0,0,0,0,0,0,0,0,0,0,0,0,0,0,0,0,0,0,0,0,0,0,0,0,0,0,0,0,0,0,0,0,0,0,0,
0,0,0,0,0,0,0,0,0,0,0,0,0,0,0,0,0,0,0,0,0,0,0,0,0,0,0,0,0,0,0,0,0,0,0,0,0,0,0,0,0,0,0,0,0,0,0,0,0,0,0,0,0,0,0,0,0,0,0,0,0,0,0,0,0,0,0,0,0,0,0,0,0,0,0,0,0,0,0,0,0,0,0,0,0,0,0,0,0,0,0,0,0,0,0,0,0,0,0,0,0,0,0,0,
0,0,0,0,0,0,0,0,0,0,0,0,0,0,0,0,0,0,0,0,0,0,0,0,0,0,0,0,0,0,0,0,0,0,0,0,0,0,0,0,0,0,0,0,0,0,0,0,0,0,0,0,0,0,0,0,0,0,0,0,0,0,0,0,0,0,0,0,0,0,0,0,0,0,0,0,0,0,0,0,0,0,0,0,0,0,0,0,0,0,0,0,0,0,0,0,0,0,0,0,0,0,0,0,
0,0,0,0,802,803,804,0,0,0,0,0,0,0,0,0,0,0,0,0,0,0,0,0,0,0,0,0,0,0,0,0,0,0,0,0,0,0,0,0,0,0,0,0,0,0,0,0,0,0,0,0,0,0,0,0,0,0,0,0,0,0,0,0,0,0,0,0,0,0,0,0,0,0,0,0,0,0,0,0,0,0,0,0,0,0,0,0,0,0,0,0,0,0,0,0,0,0,0,0,0,0,0,0,
0,0,0,0,819,820,821,0,0,0,0,0,0,0,0,0,0,0,0,0,0,0,0,0,0,0,0,0,978,979,980,981,982,983,984,985,986,0,0,0,0,0,0,0,0,0,0,0,0,0,0,0,0,0,0,0,0,0,0,0,0,0,0,0,0,0,0,0,0,0,0,0,0,0,0,0,0,0,0,0,0,0,0,0,0,0,0,0,0,0,0,0,0,0,0,0,0,0,0,0,0,0,0,0,
0,0,0,0,836,837,838,0,0,0,0,0,0,0,0,0,0,0,0,0,0,0,0,0,0,0,0,0,995,996,997,998,999,1000,1001,1002,1003,0,0,0,0,0,0,0,0,0,0,0,0,0,0,0,0,0,0,0,0,0,0,0,0,0,0,0,0,0,0,0,0,0,0,0,0,0,0,0,0,0,0,0,0,0,0,0,0,0,0,0,0,0,0,0,0,0,0,0,0,0,0,0,0,0,0,0,
0,0,0,0,0,0,0,0,0,0,0,0,0,0,0,0,0,0,0,0,0,0,0,0,0,0,0,0,1012,1013,1014,1015,1016,1017,1018,1019,1020,0,0,0,0,0,0,0,0,0,0,0,0,0,0,0,0,0,0,0,0,0,0,0,0,0,0,0,0,0,0,0,0,0,0,0,0,0,0,0,0,0,0,0,0,0,0,0,0,0,0,0,0,0,0,0,0,0,0,0,0,0,0,0,0,0,0,0,
0,0,0,0,0,0,0,0,0,0,0,0,0,0,0,0,0,0,0,0,0,0,0,0,0,0,0,1028,1029,1030,1031,1032,1033,1034,1035,1036,1037,0,0,0,0,0,0,0,0,0,0,0,0,0,0,0,0,0,0,0,0,0,0,0,0,0,0,0,0,0,0,0,0,0,0,0,0,0,0,0,0,0,0,0,0,0,0,0,0,0,0,0,0,0,0,0,0,0,0,0,0,0,0,0,0,0,0,0,
0,0,0,0,0,0,0,0,0,0,0,0,0,0,0,0,0,0,0,0,0,0,0,0,0,0,0,1045,1046,1047,1048,1049,1050,1051,1052,1053,1054,0,0,0,0,0,0,0,0,0,0,0,0,0,0,0,0,0,0,0,0,6298,6299,6300,0,0,0,0,0,0,0,0,0,0,0,0,0,0,0,0,0,0,0,0,0,0,0,0,0,0,0,0,0,0,0,0,0,0,0,0,0,0,0,0,0,0,0,0,
6313,6314,6315,6316,6317,6318,6319,6320,6321,6322,0,0,0,0,0,0,0,0,0,0,0,0,0,0,0,0,0,1062,1063,7101,7102,7103,1067,1068,1069,1070,1071,0,0,0,0,0,0,0,0,0,0,0,0,0,0,0,0,0,0,0,0,0,0,0,0,0,0,0,0,0,0,0,0,0,0,0,0,0,0,0,0,0,0,0,0,0,0,0,0,0,0,0,0,0,0,0,0,0,0,0,0,0,0,0,0,0,0,0,
6385,6386,6387,6388,6389,6390,6391,6392,6393,6394,0,0,0,0,0,0,0,0,0,0,0,0,0,0,0,0,0,1079,1080,7173,7174,7175,0,0,0,1087,1088,0,0,0,0,0,0,0,989,0,0,0,0,0,0,0,0,0,0,0,0,0,0,0,0,0,0,0,0,0,0,0,0,0,0,0,0,0,0,0,0,0,0,0,0,0,0,0,0,0,0,0,0,0,0,0,0,0,0,0,0,0,0,0,0,0,0,0,
6457,6458,6459,6460,6461,6462,6463,6464,6465,6466,0,0,0,0,0,0,0,0,0,0,0,0,0,0,0,0,0,1096,0,0,0,0,0,0,0,0,1105,1077,0,0,0,0,0,0,987,0,0,0,0,0,0,0,0,0,0,0,0,0,0,0,0,0,0,0,0,0,0,0,0,0,0,0,0,0,0,0,0,0,0,0,0,0,0,0,0,0,0,0,0,0,0,0,0,0,0,0,0,0,0,0,0,0,0,0,
0,0,0,0,0,0,0,0,0,0,0,0,0,0,0,0,0,0,0,0,0,0,0,0,0,0,0,0,0,0,0,7165,7166,0,0,0,0,0,0,0,0,7097,7098,7099,0,0,0,0,0,0,0,0,0,0,0,0,0,0,0,0,0,0,0,0,0,0,0,0,0,0,0,0,0,0,0,0,0,0,0,0,0,0,0,0,0,0,0,0,0,0,0,0,0,0,0,0,0,0,0,0,0,0,0,0,
0,0,0,0,0,0,0,0,0,0,0,0,0,0,0,0,0,0,0,0,0,0,0,0,0,0,0,0,0,0,0,0,0,0,0,0,0,0,0,0,0,0,0,0,0,0,0,0,0,0,0,0,0,0,0,0,0,0,0,0,0,0,0,0,0,0,0,0,0,0,0,0,0,0,0,0,0,0,0,0,0,0,0,0,0,0,0,0,0,0,0,0,0,0,0,0,0,0,0,0,0,0,0,0,
0,0,0,0,0,0,0,0,0,0,0,0,0,0,0,0,0,0,0,0,0,0,0,0,0,0,0,0,0,0,0,0,0,0,0,0,0,0,0,0,0,0,0,0,0,0,0,0,0,0,0,0,0,0,0,0,0,0,0,0,0,0,0,0,0,0,0,0,0,0,0,0,0,0,0,0,0,0,0,0,0,0,0,0,0,0,0,0,0,0,989,0,0,0,0,0,0,0,0,0,0,0,0,0,
0,0,0,0,0,0,0,0,0,0,0,0,0,6758,6759,0,0,0,0,0,0,0,0,0,0,0,0,0,0,0,0,0,0,0,0,0,0,0,0,0,0,0,0,0,0,0,0,0,0,0,0,0,0,0,0,0,0,0,0,0,0,0,0,0,0,0,0,0,0,0,0,0,0,0,0,0,0,0,0,0,0,0,0,0,0,0,0,0,0,0,987,0,0,0,0,0,0,0,0,0,0,0,0,0,
0,0,0,0,0,0,0,0,0,0,0,0,0,0,0,0,0,0,0,0,0,0,0,0,0,0,0,0,0,0,0,0,0,0,0,0,0,0,0,0,0,0,0,0,0,0,0,0,0,0,0,0,0,0,0,0,0,0,0,0,0,0,0,0,0,0,0,0,0,0,0,0,0,0,0,0,0,0,0,0,0,0,0,0,0,0,0,0,0,0,0,0,0,0,0,0,0,0,0,0,0,0,0,0,
0,0,0,0,0,0,0,0,0,0,0,0,0,0,0,0,0,0,0,0,0,0,0,0,0,0,0,0,0,0,0,0,0,0,0,6924,6925,0,0,0,0,0,0,0,0,0,0,0,0,0,0,0,0,0,0,0,0,0,0,0,0,0,0,0,0,0,0,0,0,0,0,0,0,0,0,0,0,0,0,0,0,0,0,0,0,0,0,0,0,0,0,0,0,0,0,0,0,0,0,0,0,0,0,0,
0,0,0,0,0,0,0,0,0,0,0,0,0,0,0,0,0,0,0,0,0,0,0,0,0,0,0,0,0,0,0,0,0,0,0,0,0,0,0,0,0,0,0,0,0,0,0,0,0,0,0,0,0,0,0,0,0,0,0,0,0,0,0,0,0,0,0,0,0,0,0,0,0,0,0,0,0,0,0,0,0,0,0,0,0,0,0,0,0,0,0,0,0,0,0,0,0,0,0,0,0,0,0,0,
0,0,0,0,0,0,0,0,0,0,0,0,0,0,0,0,0,0,0,0,0,0,0,0,0,0,0,0,0,0,0,0,0,0,0,0,0,0,0,0,0,0,0,0,0,0,0,0,0,0,0,0,0,0,0,0,0,0,0,0,0,0,0,0,0,0,0,0,0,0,0,0,0,0,0,0,0,0,0,0,0,0,0,0,0,0,0,0,0,0,0,0,0,0,0,0,0,0,0,0,0,0,0,0,
0,0,0,0,0,0,0,0,0,0,0,0,0,0,0,0,0,0,0,0,0,0,0,0,0,0,0,0,0,0,0,0,0,0,0,0,0,0,0,0,0,0,0,0,0,0,0,0,0,0,0,0,0,0,0,0,0,0,0,0,0,0,0,0,0,0,0,0,0,0,0,0,0,0,0,0,0,0,0,0,0,0,0,0,0,0,0,0,0,0,0,0,0,0,0,0,0,0,0,0,0,0,0,0,
0,0,0,0,0,0,0,0,0,0,0,0,0,0,0,0,0,0,0,0,0,0,0,0,0,0,0,0,0,0,0,0,0,0,0,0,0,0,0,0,0,0,0,0,0,0,0,0,0,0,0,0,0,0,0,0,0,0,0,0,0,0,0,0,0,0,0,0,0,0,0,0,0,0,0,0,0,0,0,0,0,0,0,0,0,0,0,0,0,0,0,0,0,0,0,0,0,0,0,0,0,0,0,0,
0,0,0,0,0,0,0,0,0,0,0,0,0,0,0,0,0,0,0,0,0,0,0,0,0,0,0,0,0,0,0,0,0,0,0,0,0,0,0,0,0,0,0,0,0,0,0,0,0,0,0,0,0,0,0,0,0,0,0,0,0,0,0,0,0,0,0,0,0,0,0,0,0,0,0,0,0,0,0,0,0,0,0,0,0,0,0,0,0,0,0,0,0,0,0,0,0,0,0,0,0,0,0,0,
0,0,0,0,0,0,0,0,0,0,0,0,0,0,0,0,0,0,0,0,0,0,0,0,0,0,0,0,0,0,0,0,0,0,0,0,0,0,0,0,0,0,0,0,0,0,0,0,0,0,0,0,0,0,0,0,0,0,0,0,0,0,0,0,0,0,0,0,0,0,0,0,0,0,0,0,0,0,0,0,0,0,0,0,0,0,0,0,0,0,0,0,0,0,0,0,0,0,0,0,0,0,0,0,
0,0,0,0,0,0,0,0,0,0,0,0,0,0,0,0,0,0,0,0,0,0,0,0,0,0,0,0,0,0,0,0,0,0,0,0,0,0,0,0,0,0,0,0,0,0,0,0,0,0,0,0,0,0,0,0,0,0,0,0,0,0,0,0,0,0,0,0,0,0,0,0,0,0,0,0,0,0,0,0,0,0,0,0,0,0,0,0,0,0,0,0,0,0,0,0,0,0,0,0,0,0,0,0,
0,0,0,0,0,0,0,0,0,0,0,0,0,0,0,0,0,0,0,0,0,0,0,0,0,0,0,0,0,0,0,0,0,0,0,0,0,0,0,0,0,0,0,0,0,0,0,0,0,0,0,0,0,0,0,0,0,0,0,0,0,0,0,0,0,0,0,0,0,0,0,0,0,0,0,0,0,0,0,0,0,0,0,0,0,0,0,0,0,0,0,0,0,0,0,0,0,0,0,0,0,0,0,0,
0,0,0,0,0,0,0,0,0,0,0,0,0,0,0,0,0,0,0,0,0,0,0,0,0,0,0,0,0,0,0,0,0,0,0,0,0,0,0,0,0,0,0,0,0,0,0,0,0,0,0,0,0,0,0,0,0,0,0,0,0,0,0,0,0,0,0,0,0,0,0,0,0,0,0,0,0,0,0,0,0,0,0,0,0,0,0,0,0,0,0,0,0,0,0,0,0,0,0,0,0,0,0,0,
0,0,0,0,0,0,0,0,0,0,0,0,0,0,0,0,0,0,0,0,0,0,0,0,0,0,0,0,0,0,0,0,0,0,0,0,0,0,0,0,0,0,0,0,0,0,0,0,0,0,0,0,0,0,0,0,0,0,0,0,0,0,0,0,0,0,0,0,0,0,0,0,0,0,0,0,0,0,0,0,0,0,0,0,0,0,0,0,0,0,0,0,0,0,0,0,0,0,0,0,0,0,0,0,
0,0,0,0,0,0,0,0,0,0,0,0,0,0,0,0,0,0,0,0,0,0,0,0,0,0,0,0,0,0,0,0,0,0,0,0,0,0,0,0,0,0,0,0,0,0,0,0,0,0,0,0,0,0,0,0,0,0,0,0,0,0,0,0,0,0,0,0,0,0,0,0,0,0,0,0,0,0,0,0,0,0,0,0,0,0,0,0,0,0,0,0,0,0,0,0,0,0,0,0,0,0,0,0
</data>
 </layer>
 <layer id="26" name="AlwaysFront-1" width="104" height="50">
  <data encoding="csv">
650,651,653,653,653,652,669,666,653,651,653,653,652,649,651,653,651,653,653,651,653,669,651,653,653,653,651,653,651,653,653,653,651,653,653,669,0,0,0,0,2147484317,2147484301,653,650,653,2147484301,2147484301,651,650,653,650,650,651,653,650,651,653,651,653,669,0,0,0,0,0,0,0,0,0,0,0,0,0,0,0,0,0,0,0,0,0,0,0,0,0,0,0,0,0,0,0,0,0,0,0,0,651,651,0,0,0,0,0,0,
667,668,684,685,667,669,0,0,666,653,653,653,653,666,653,651,653,651,653,653,650,653,651,653,667,668,684,685,667,668,684,685,667,668,669,0,0,0,0,0,0,649,653,653,650,653,650,653,651,650,650,653,650,653,651,653,653,667,669,0,0,0,0,0,0,0,0,0,0,0,0,0,0,0,0,0,0,0,0,0,0,0,0,0,0,0,0,0,0,0,0,0,0,0,0,0,651,651,0,0,0,0,0,0,
0,0,0,0,0,0,0,0,0,666,667,668,669,667,668,684,685,684,685,684,0,684,685,669,0,0,0,0,0,0,0,0,0,0,0,0,0,0,0,0,0,666,667,684,685,668,653,653,653,651,653,653,653,650,653,653,652,0,0,0,0,0,0,0,0,0,0,0,0,0,0,0,0,0,0,0,0,0,0,0,0,0,0,0,0,0,0,0,0,0,0,0,0,0,0,0,0,0,0,0,0,0,0,0,
0,0,0,0,0,0,0,0,0,0,0,0,0,0,0,0,0,0,0,0,0,0,0,0,0,0,0,0,0,0,0,0,0,0,0,0,0,0,0,0,0,0,0,0,0,0,666,667,684,685,684,685,667,668,667,685,669,0,0,0,0,0,0,0,0,0,0,0,0,0,0,0,0,0,0,0,0,0,0,0,0,0,0,0,0,0,0,0,0,0,0,0,0,0,0,0,0,0,0,0,0,0,0,0,
0,0,0,0,0,0,0,0,0,0,0,0,0,0,0,0,0,0,0,0,0,0,0,0,0,0,0,0,0,0,0,0,0,0,0,0,0,0,0,0,0,0,0,0,0,0,0,0,0,0,0,0,0,0,0,0,0,0,0,0,0,0,0,0,0,0,0,0,0,0,0,0,0,0,0,0,0,0,0,0,0,0,0,0,0,0,0,0,0,0,0,0,0,0,0,0,0,0,0,0,0,0,0,0,
0,0,0,0,0,0,0,0,0,0,0,0,0,0,0,0,0,0,0,0,0,0,0,0,0,0,0,0,0,0,0,0,0,0,0,0,0,0,0,0,0,0,0,0,0,0,0,0,0,0,0,0,0,0,0,0,0,0,0,0,0,0,0,0,0,0,0,0,0,0,0,0,0,0,0,0,0,0,0,0,0,0,0,0,0,0,0,0,0,0,0,0,0,0,0,0,0,0,0,0,0,0,0,0,
0,0,0,0,0,0,0,0,0,0,0,0,0,0,0,0,0,0,0,0,0,0,0,0,0,0,0,0,0,0,0,0,0,0,0,0,0,0,0,0,0,0,0,0,0,0,0,0,0,0,0,0,0,0,0,0,0,0,0,0,0,0,0,0,0,0,0,0,0,0,0,0,0,0,0,0,0,0,0,0,0,0,0,0,0,0,0,0,0,0,0,0,0,0,0,0,0,0,0,0,0,0,0,0,
0,0,0,0,0,0,0,0,0,0,0,0,0,0,0,0,0,0,0,0,0,0,0,0,0,0,0,0,0,0,0,0,0,0,0,0,0,0,0,0,0,0,0,0,0,0,0,0,0,0,0,0,0,0,0,0,0,0,0,0,0,0,0,0,0,0,0,0,0,0,0,0,0,0,0,0,0,0,0,0,0,0,0,0,0,0,0,0,0,0,0,0,0,0,0,0,0,0,0,0,0,0,0,0,
0,0,0,0,0,0,0,0,0,0,0,0,0,0,0,0,0,0,0,0,0,0,0,0,0,0,0,0,0,0,0,0,0,0,0,0,0,0,0,0,0,0,0,0,0,0,0,0,0,0,0,0,0,0,0,0,0,0,0,0,0,0,0,0,0,0,0,0,0,0,0,0,0,0,0,0,0,0,0,0,0,0,0,0,0,0,0,0,0,0,0,0,0,0,0,0,0,0,0,0,0,0,0,0,
0,0,0,0,0,0,0,0,0,0,0,0,0,0,0,0,0,0,0,0,0,0,0,0,0,0,0,0,0,0,0,0,0,0,0,0,0,0,0,0,0,0,0,0,0,0,0,0,0,0,0,0,0,0,0,0,0,0,0,0,0,0,0,0,0,0,0,0,0,0,0,0,0,0,0,0,0,0,0,0,0,0,0,0,0,0,0,0,0,0,0,0,0,0,0,0,0,0,0,0,0,0,0,0,
0,0,0,0,0,0,0,0,0,0,0,0,0,0,0,0,0,0,0,0,0,0,0,0,0,0,0,0,0,0,0,0,0,0,0,0,0,0,0,0,0,0,0,0,0,0,0,0,0,0,0,0,0,0,0,0,0,0,0,0,0,0,0,0,0,0,0,0,0,0,0,0,0,0,0,0,0,0,0,0,0,0,0,0,0,0,0,0,0,0,0,0,0,0,0,0,0,0,0,0,0,0,0,0,
0,0,0,0,0,0,0,0,0,0,0,0,0,0,0,0,0,0,0,0,0,0,0,0,0,0,0,0,0,0,0,0,0,0,0,0,0,0,0,0,0,0,0,0,0,0,0,0,0,0,0,0,0,0,0,0,0,0,0,0,0,0,0,0,0,0,0,0,0,0,0,0,0,0,0,0,0,0,0,0,0,0,0,0,0,0,0,0,0,0,0,0,0,0,0,0,0,0,0,0,0,0,0,0,
0,0,0,0,0,0,0,0,0,0,0,0,0,0,0,0,0,0,0,0,0,0,0,0,0,0,0,0,0,0,0,0,0,0,0,0,0,0,0,0,0,0,0,0,0,0,0,0,0,0,0,0,0,0,0,0,0,0,0,0,0,0,0,0,0,0,0,0,0,0,0,0,0,0,0,0,0,0,0,0,0,0,0,0,0,0,0,0,0,0,0,0,0,0,0,0,0,0,0,0,0,0,0,0,
0,0,0,0,0,0,0,0,0,0,0,0,0,0,0,0,0,0,0,0,0,0,0,0,0,0,0,0,0,0,0,0,0,0,0,0,0,0,0,0,0,0,0,0,0,0,0,0,0,0,0,0,0,0,0,0,0,0,0,0,0,0,0,0,0,0,0,0,0,0,0,0,0,0,0,0,0,0,0,0,0,0,0,0,0,0,0,0,0,0,0,0,0,0,0,0,0,0,0,0,0,0,0,0,
0,0,0,0,0,0,0,0,0,0,0,0,0,0,0,0,0,0,0,0,0,0,0,0,0,0,0,0,0,0,0,0,0,0,0,0,0,0,0,0,0,0,0,0,0,0,0,0,0,0,0,0,0,0,0,0,0,0,0,0,0,0,0,0,0,0,0,0,0,0,0,0,0,0,0,0,0,0,0,0,0,0,0,0,0,0,0,0,0,0,0,0,0,0,0,0,0,0,0,0,0,0,0,0,
0,0,0,0,0,0,0,0,0,0,0,0,0,0,0,0,0,0,0,0,0,0,0,0,0,0,0,0,0,0,0,0,0,0,0,0,0,0,0,0,0,0,0,0,0,0,0,0,0,0,0,0,0,0,0,0,0,0,0,0,0,0,0,0,0,0,0,0,0,0,0,0,0,0,0,0,0,0,0,0,0,0,0,0,0,0,0,0,0,0,0,0,0,0,0,0,0,0,0,0,0,0,0,0,
0,0,0,0,0,0,0,0,0,0,0,0,0,0,0,0,0,0,0,0,0,0,0,0,0,0,0,0,0,0,0,0,0,0,0,0,0,0,0,0,0,0,0,0,0,0,0,0,0,0,0,0,0,0,0,0,0,0,0,0,0,0,0,0,0,0,0,0,0,0,0,0,0,0,0,0,0,0,0,0,0,0,0,0,0,0,0,0,0,0,0,0,0,0,0,0,0,0,0,0,0,0,0,0,
0,0,0,0,0,0,0,0,0,0,0,0,0,0,0,0,0,0,0,0,0,0,0,0,0,0,0,0,0,0,0,0,0,0,0,0,0,0,0,0,0,0,0,0,0,0,0,0,0,0,0,0,0,0,0,0,0,0,0,0,0,0,0,0,0,0,0,0,0,0,0,0,0,0,0,0,0,0,0,0,0,0,0,0,0,0,0,0,0,0,0,0,0,0,0,0,0,0,0,0,0,0,0,0,
0,0,0,0,0,0,0,0,0,0,0,0,0,0,0,0,0,0,0,0,0,0,0,0,0,0,0,0,0,0,0,0,0,0,0,0,0,0,0,0,0,0,0,0,0,0,0,0,0,0,0,0,0,0,0,0,0,0,0,0,0,0,0,0,0,0,0,0,0,0,0,0,0,0,0,0,0,0,0,0,0,0,0,0,0,0,0,0,0,0,0,0,0,0,0,0,0,0,0,0,0,0,0,0,
0,0,0,0,0,0,0,0,0,0,0,0,0,0,0,0,0,0,0,0,0,0,0,0,0,0,0,0,0,0,0,0,0,0,0,0,0,0,0,0,0,0,0,0,0,0,0,0,0,0,0,0,0,0,0,0,0,0,0,0,0,0,0,0,0,0,0,0,0,0,0,0,0,0,0,0,0,0,0,0,0,0,0,0,0,0,0,0,0,0,0,0,0,0,0,0,0,0,0,0,0,0,0,0,
0,0,0,0,0,0,0,0,0,0,0,0,0,0,0,0,0,0,0,0,0,0,0,0,0,0,0,0,0,0,0,0,0,0,0,0,0,0,0,0,0,0,0,0,0,0,0,0,0,0,0,0,0,0,0,0,0,0,0,0,0,0,0,0,0,0,0,0,0,0,0,0,0,0,0,0,0,0,0,0,0,0,0,0,0,0,0,0,0,0,0,0,0,0,0,0,0,0,0,0,0,0,0,0,
0,0,0,0,0,0,0,0,0,0,0,0,0,0,0,0,0,0,0,0,0,0,0,0,0,0,0,0,0,0,0,0,0,0,0,0,0,0,0,0,0,0,0,0,0,0,0,0,0,0,0,0,0,0,0,0,0,0,0,0,0,0,0,0,0,0,0,0,0,0,0,0,0,0,0,0,0,0,0,0,0,0,0,0,0,0,0,0,0,0,0,0,0,0,0,0,0,0,0,0,0,0,0,0,
0,0,0,0,0,0,0,0,0,0,0,0,0,0,0,0,0,0,0,0,0,0,0,0,0,0,0,0,0,0,0,0,0,0,0,0,0,0,0,0,0,0,0,0,0,0,0,0,0,0,0,0,0,0,0,0,0,0,0,0,0,0,0,0,0,0,0,0,0,0,0,0,0,0,0,0,0,0,0,0,0,0,0,0,0,0,0,0,0,0,0,0,0,0,0,0,0,0,0,0,0,0,0,0,
0,0,0,0,0,0,0,0,0,0,0,0,0,0,0,0,0,0,0,0,0,0,0,0,0,0,0,0,0,0,0,0,0,0,0,0,0,0,0,0,0,0,0,0,0,0,0,0,0,0,0,0,0,0,0,0,0,0,0,0,0,0,0,0,0,0,0,0,0,0,0,0,0,0,0,0,0,0,0,0,0,0,0,0,0,0,0,0,0,0,0,0,0,0,0,0,0,0,0,0,0,0,0,0,
0,0,0,0,0,0,0,0,0,0,0,0,0,0,0,0,0,0,0,0,0,0,0,0,0,0,0,0,0,0,0,0,0,0,0,0,0,0,0,0,0,0,0,0,0,0,0,0,0,0,0,0,0,0,0,0,0,0,0,0,0,0,0,0,0,0,0,0,0,0,0,0,0,0,0,0,0,0,0,0,0,0,0,0,0,0,0,0,0,0,0,0,0,0,0,0,0,0,0,0,0,0,0,0,
0,0,0,0,0,0,0,0,0,0,0,0,0,0,0,0,0,0,0,0,0,0,0,0,0,0,0,0,0,0,0,0,0,0,0,0,0,0,0,0,0,0,0,0,0,0,0,0,0,0,0,0,0,0,0,0,0,0,0,0,0,0,0,0,0,0,0,0,0,0,0,0,0,0,0,0,0,0,0,0,0,0,0,0,0,0,0,0,0,0,0,0,0,0,0,0,0,0,0,0,0,0,0,0,
0,0,0,0,0,0,0,0,0,0,0,0,0,0,0,0,0,0,0,0,0,0,0,0,0,0,0,0,0,0,0,0,0,0,0,0,0,0,0,0,0,0,0,0,0,0,0,0,0,0,0,0,0,0,0,0,0,0,0,0,0,0,0,0,0,0,0,0,0,0,0,0,0,0,0,0,0,0,0,0,0,0,0,0,0,0,0,0,0,0,0,0,0,0,0,0,0,0,0,0,0,0,0,0,
0,0,0,0,0,0,0,0,0,0,0,0,0,0,0,0,0,0,0,0,0,0,0,0,0,0,0,0,0,0,0,0,0,0,0,0,0,0,0,0,0,0,0,0,0,0,0,0,0,0,0,0,0,0,0,0,0,0,0,0,0,0,0,0,0,0,0,0,0,0,0,0,0,0,0,0,0,0,0,0,0,0,0,0,0,0,0,0,0,0,0,0,0,0,0,0,0,0,0,0,0,0,0,0,
0,0,0,0,0,0,0,0,0,0,0,0,0,0,0,0,0,0,0,0,0,0,0,0,0,0,0,0,0,0,0,0,0,0,0,0,0,0,0,0,0,0,0,0,0,0,0,0,0,0,0,0,0,0,0,0,0,0,0,0,0,0,0,0,0,0,0,0,0,0,0,0,0,0,0,0,0,0,0,0,0,0,0,0,0,0,0,0,0,0,0,0,0,0,0,0,0,0,0,0,0,0,0,0,
0,0,0,0,0,0,0,0,0,0,0,0,0,0,0,0,0,0,0,0,0,0,0,0,0,0,0,0,0,0,0,0,0,0,0,0,0,0,0,0,0,0,0,0,0,0,0,0,0,0,0,0,0,0,0,0,0,0,0,0,0,0,0,0,0,0,0,0,0,0,0,0,0,0,0,0,0,0,0,0,0,0,0,0,0,0,0,0,0,0,0,0,0,0,0,0,0,0,0,0,0,0,0,0,
0,0,0,0,0,0,0,0,0,0,0,0,0,0,0,0,0,0,0,0,0,0,0,0,0,0,0,0,0,0,0,0,0,0,0,0,0,0,0,0,0,0,0,0,0,0,0,0,0,0,0,0,0,0,0,0,0,0,0,0,0,0,0,0,0,0,0,0,0,0,0,0,0,0,0,0,0,0,0,0,0,0,0,0,0,0,0,0,0,0,0,0,0,0,0,0,0,0,0,0,0,0,0,0,
0,0,0,0,0,0,0,0,0,0,0,0,0,0,0,0,0,0,0,0,0,0,0,0,0,0,0,0,0,0,0,0,0,0,0,0,0,0,0,0,0,0,0,0,0,0,0,0,0,0,0,0,0,0,0,0,0,0,0,0,0,0,0,0,0,0,0,0,0,0,0,0,0,0,0,0,0,0,0,0,0,0,0,0,0,0,0,0,0,0,0,0,0,0,0,0,0,0,0,0,0,0,0,0,
0,0,0,0,0,0,0,0,0,0,0,0,0,0,0,0,0,0,0,0,0,0,0,0,0,0,0,0,0,0,0,0,0,0,0,0,0,0,0,0,0,0,0,0,0,0,0,0,0,0,0,0,0,0,0,0,0,0,0,0,0,0,0,0,0,0,0,0,0,0,0,0,0,0,0,0,0,0,0,0,0,0,0,0,0,0,0,0,0,0,0,0,0,0,0,0,0,0,0,0,0,0,0,0,
0,0,0,0,0,0,0,0,0,0,0,0,0,0,0,0,0,0,0,0,0,0,0,0,0,0,0,0,0,0,0,0,0,0,0,0,0,0,0,0,0,0,0,0,0,0,0,0,0,0,0,0,0,0,0,0,0,0,0,0,0,0,0,0,0,0,0,0,0,0,0,0,0,0,0,0,0,0,0,0,0,0,0,0,0,0,0,0,0,0,0,0,0,0,0,0,0,0,0,0,0,0,0,0,
0,0,0,0,0,0,0,0,0,0,0,0,0,0,0,0,0,0,0,0,0,0,0,0,0,0,0,0,0,0,0,0,0,0,0,0,0,0,0,0,0,0,0,0,0,0,0,0,0,0,0,0,0,0,0,0,0,0,0,0,0,0,0,0,0,0,0,0,0,0,0,0,0,0,0,0,0,0,0,0,0,0,0,0,0,0,0,0,0,0,0,0,0,0,0,0,0,0,0,0,0,0,0,0,
0,0,0,0,0,0,0,0,0,0,0,0,0,0,0,0,0,0,0,0,0,0,0,0,0,0,0,0,0,0,0,0,0,0,0,0,0,0,0,0,0,0,0,0,0,0,0,0,0,0,0,0,0,0,0,0,0,0,0,0,0,0,0,0,0,0,0,0,0,0,0,0,0,0,0,0,0,0,0,0,0,0,0,0,0,0,0,0,0,0,0,0,0,0,0,0,0,0,0,0,0,0,0,0,
0,0,0,0,0,0,0,0,0,0,0,0,0,0,0,0,0,0,0,0,0,0,0,0,0,0,0,0,0,0,0,0,0,0,0,0,0,0,0,0,0,0,0,0,0,0,0,0,0,0,0,0,0,0,0,0,0,0,0,0,0,0,0,0,0,0,0,0,0,0,0,0,0,0,0,0,0,0,0,0,0,0,0,0,0,0,0,0,0,0,0,0,0,0,0,0,0,0,0,0,0,0,0,0,
0,0,0,0,0,0,0,0,0,0,0,0,0,0,0,0,0,0,0,0,0,0,0,0,0,0,0,0,0,0,0,0,0,0,0,0,0,0,0,0,0,0,0,0,0,0,0,0,0,0,0,0,0,0,0,0,0,0,0,0,0,0,0,0,0,0,0,0,0,0,0,0,0,0,0,0,0,0,0,0,0,0,0,0,0,0,0,0,0,0,0,0,0,0,0,0,0,0,0,0,0,0,0,0,
0,0,0,0,0,0,0,0,0,0,0,0,0,0,0,0,0,0,0,0,0,0,0,0,0,0,0,0,0,0,0,0,0,0,0,0,0,0,0,0,0,0,0,0,0,0,0,0,0,0,0,0,0,0,0,0,0,0,0,0,0,0,0,0,0,0,0,0,0,0,0,0,0,0,0,0,0,0,0,0,0,0,0,0,0,0,0,0,0,0,0,0,0,0,0,0,0,0,0,0,0,0,0,0,
0,0,0,0,0,0,0,0,0,0,0,0,0,0,0,0,0,0,0,0,0,0,0,0,0,0,0,0,0,0,0,0,0,0,0,0,0,0,0,0,0,0,0,0,0,0,0,0,0,0,0,0,0,0,0,0,0,0,0,0,0,0,0,0,0,0,0,0,0,0,0,0,0,0,0,0,0,0,0,0,0,0,0,0,0,0,0,0,0,0,0,0,0,0,0,0,0,0,0,0,0,0,0,0,
0,0,0,0,0,0,0,0,0,0,0,0,0,0,0,0,0,0,0,0,0,0,0,0,0,0,0,0,0,0,0,0,0,0,0,0,0,0,0,0,0,0,0,0,0,0,0,0,0,0,0,0,0,0,0,0,0,0,0,0,0,0,0,0,0,0,0,0,0,0,0,0,0,0,0,0,0,0,0,0,0,0,0,0,0,0,0,0,0,0,0,0,0,0,0,0,0,0,0,0,0,0,0,0,
0,0,0,0,0,0,0,0,0,0,0,0,0,0,0,0,0,0,0,0,0,0,0,0,0,0,0,0,0,0,0,0,0,0,0,0,0,0,0,0,0,0,0,0,0,0,0,0,0,0,0,0,0,0,0,0,0,0,0,0,0,0,0,0,0,0,0,0,0,0,0,0,0,0,0,0,0,0,0,0,0,0,0,0,0,0,0,0,0,0,0,0,0,0,0,0,0,0,0,0,0,0,0,0,
0,0,0,0,0,0,0,0,0,0,0,0,0,0,0,0,0,0,0,0,0,0,0,0,0,0,0,0,0,0,0,0,0,0,0,0,0,0,0,0,0,0,0,0,0,0,0,0,0,0,0,0,0,0,0,0,0,0,0,0,0,0,0,0,0,0,0,0,0,0,0,0,0,0,0,0,0,0,0,0,0,0,0,0,0,0,0,0,0,0,0,0,0,0,0,0,0,0,0,0,0,0,0,0,
0,0,0,0,0,0,0,0,0,0,0,0,0,0,0,0,0,0,0,0,0,0,0,0,0,0,0,0,0,0,0,0,0,0,0,0,0,0,0,0,0,0,0,0,0,0,0,0,0,0,0,0,0,0,0,0,0,0,0,0,0,0,0,0,0,0,0,0,0,0,0,0,0,0,0,0,0,0,0,0,0,0,0,0,0,0,0,0,0,0,0,0,0,0,0,0,0,0,0,0,0,0,0,0,
0,0,0,0,0,0,0,0,0,0,0,0,0,0,0,0,0,0,0,0,0,0,0,0,0,0,0,0,0,0,0,0,0,0,0,0,0,0,0,0,0,0,0,0,0,0,0,0,0,0,0,0,0,0,0,0,0,0,0,0,0,0,0,0,0,0,0,0,0,0,0,0,0,0,0,0,0,0,0,0,0,0,0,0,0,0,0,0,0,0,0,0,0,0,0,0,0,0,0,0,0,0,0,0,
0,0,0,0,0,0,0,0,0,0,0,0,0,0,0,0,0,0,0,0,0,0,0,0,0,0,0,0,0,0,0,0,0,0,0,0,0,0,0,0,0,0,0,0,0,0,0,0,0,0,0,0,0,0,0,0,0,0,0,0,0,0,0,0,0,0,0,0,0,0,0,0,0,0,0,0,0,0,0,0,0,0,0,0,0,0,0,0,0,0,0,0,0,0,0,0,0,0,0,0,0,0,0,0,
0,0,0,0,0,0,0,0,0,0,0,0,0,0,0,0,0,0,0,0,0,0,0,0,0,0,0,0,0,0,0,0,0,0,0,0,0,0,0,0,0,0,0,0,0,0,0,0,0,0,0,0,0,0,0,0,0,0,0,0,0,0,0,0,0,0,0,0,0,0,0,0,0,0,0,0,0,0,0,0,0,0,0,0,0,0,0,0,0,0,0,0,0,0,0,0,0,0,0,0,0,0,0,0,
0,0,0,0,0,0,0,0,0,0,0,0,0,0,0,0,0,0,0,0,0,0,0,0,0,0,0,0,0,0,0,0,0,0,0,0,0,0,0,0,0,0,0,0,0,0,0,0,0,0,0,0,0,0,0,0,0,0,0,0,0,0,0,0,0,0,0,0,0,0,0,0,0,0,0,0,0,0,0,0,0,0,0,0,0,0,0,0,0,0,0,0,0,0,0,0,0,0,0,0,0,0,0,0,
0,0,0,0,0,0,0,0,0,0,0,0,0,0,0,0,0,0,0,0,0,0,0,0,0,0,0,0,0,0,0,0,0,0,0,0,0,0,0,0,0,0,0,0,0,0,0,0,0,0,0,0,0,0,0,0,0,0,0,0,0,0,0,0,0,0,0,0,0,0,0,0,0,0,0,0,0,0,0,0,0,0,0,0,0,0,0,0,0,0,0,0,0,0,0,0,0,0,0,0,0,0,0,0,
0,0,0,0,0,0,0,0,0,0,0,0,0,0,0,0,0,0,0,0,0,0,0,0,0,0,0,0,0,0,0,0,0,0,0,0,0,0,0,0,0,0,0,0,0,0,0,0,0,0,0,0,0,0,0,0,0,0,0,0,0,0,0,0,0,0,0,0,0,0,0,0,0,0,0,0,0,0,0,0,0,0,0,0,0,0,0,0,0,0,0,0,0,0,0,0,0,0,0,0,0,0,0,0
</data>
 </layer>
 <layer id="8" name="AlwaysFront" width="104" height="50">
  <data encoding="csv">
0,0,0,0,0,0,0,0,0,0,0,0,0,0,0,0,0,0,0,0,0,0,0,0,0,0,0,0,2147484301,2147484299,651,0,0,0,0,0,2147490147,0,0,0,6499,0,0,0,0,0,0,0,0,0,0,0,0,0,0,0,0,0,0,0,0,666,668,653,653,653,651,653,650,651,650,653,652,649,650,651,653,650,651,650,653,651,653,652,649,653,653,2147484301,653,650,650,651,653,653,650,650,2147484297,2147484300,2147484301,653,651,2147484301,650,653,
653,667,667,0,0,0,0,0,0,0,0,2147484301,2147484298,2147484314,0,666,650,653,0,0,0,0,0,0,0,0,0,0,2147484315,2147484301,2147484299,653,667,0,0,0,8455,0,0,0,8455,0,0,0,0,0,0,0,0,0,0,0,0,0,0,0,0,0,0,0,0,0,0,666,653,653,653,651,650,653,650,651,653,666,650,653,651,650,653,650,651,650,653,653,666,652,0,649,2147484301,653,651,650,651,651,651,653,2147484314,2147484301,653,668,684,685,2147484301,653,
685,669,0,0,0,0,0,0,0,0,0,2147484315,2147484315,2147484301,650,653,667,667,0,0,0,0,0,0,0,0,0,0,0,2147484317,685,669,0,0,0,1610618720,0,1610618864,0,0,0,0,0,0,0,0,0,0,0,0,0,0,0,0,0,0,0,0,0,0,0,0,0,0,666,2147484316,667,2147484315,2147484298,2147484298,2147484301,653,650,653,667,667,668,684,685,2147484298,2147484301,650,650,650,653,669,0,666,684,685,653,651,653,653,653,684,685,1610613385,1610613402,0,0,0,2147484317,685,
0,0,0,0,0,0,0,0,0,0,0,0,2147484317,667,685,685,669,0,0,0,0,0,0,0,0,0,0,0,0,0,0,0,0,0,0,0,0,0,0,0,0,0,0,0,0,0,0,0,0,0,0,2147484315,653,2147484301,2147484301,667,0,0,0,0,0,0,0,0,0,0,0,0,2147484317,650,653,650,667,685,669,0,0,0,2147484317,2147484315,2147484298,2147484301,2147484301,2147484298,669,0,0,0,0,0,2147484317,2147484301,653,667,669,0,0,0,0,0,0,0,0,0,
0,0,0,0,0,0,0,0,0,0,0,0,0,0,0,0,0,0,0,0,0,0,0,0,0,0,0,0,0,0,0,0,0,0,0,0,0,0,0,0,0,0,0,0,0,0,0,0,0,0,0,0,2147484317,2147484333,669,0,0,0,0,0,0,0,0,0,0,0,0,0,0,2147484317,685,669,0,0,0,0,0,0,0,0,2147484317,2147484333,2147484333,669,0,0,0,0,0,0,0,2147484317,2147484314,0,0,0,0,0,0,0,0,0,0,0,
0,0,0,0,0,0,0,0,0,0,0,0,0,0,0,0,0,0,0,0,0,0,0,0,0,0,0,0,0,0,0,0,0,0,0,0,0,0,0,0,0,0,0,0,0,0,0,0,0,0,0,0,0,0,0,0,0,0,0,0,0,0,0,0,0,0,0,0,0,0,0,0,0,0,0,0,0,0,0,0,0,0,0,0,0,0,0,0,0,0,0,0,0,0,0,0,0,0,0,0,0,0,0,0,
0,0,0,0,0,0,0,0,0,0,0,0,0,0,0,0,0,0,0,0,0,0,0,0,0,0,0,0,0,0,0,0,0,0,0,0,0,0,0,0,0,0,0,0,0,0,0,0,0,0,0,0,0,0,0,0,0,0,0,0,0,0,0,0,0,0,0,0,0,0,0,0,0,0,0,0,0,0,0,0,0,0,0,0,0,0,0,0,0,0,0,0,0,0,0,0,0,0,0,0,0,0,0,0,
0,0,0,0,0,0,0,0,0,0,0,0,0,0,0,0,0,0,0,0,0,0,0,0,0,0,0,0,0,0,0,0,0,0,8494,0,0,0,0,0,0,0,0,0,0,0,0,0,0,0,0,0,0,0,0,0,0,0,0,0,0,0,0,0,0,0,0,0,0,0,0,0,0,0,0,0,0,0,0,0,0,0,0,0,0,0,0,0,0,0,0,0,0,0,0,0,0,0,0,0,0,0,0,0,
0,0,0,0,0,0,0,0,0,0,0,0,0,0,0,0,0,0,0,0,0,0,0,0,0,0,0,0,0,0,0,0,0,0,0,0,0,0,0,0,0,0,0,0,0,0,0,0,0,0,0,0,0,0,0,0,0,0,0,0,0,0,0,0,0,0,0,0,0,0,0,0,0,0,0,0,0,0,0,0,0,0,0,0,0,0,0,0,0,0,0,0,0,0,0,0,0,0,0,0,0,0,0,0,
0,0,0,0,0,0,0,0,0,0,0,0,0,0,0,0,0,0,0,0,0,0,0,0,0,0,0,0,0,0,0,0,0,0,0,0,0,0,0,0,0,0,0,0,0,0,0,0,0,0,0,0,0,0,0,0,0,0,0,0,0,0,0,0,0,0,0,0,0,0,0,0,0,0,0,0,0,0,0,0,0,0,0,0,0,0,0,0,0,0,0,0,0,0,0,0,0,0,0,0,0,0,0,0,
0,0,0,0,0,0,0,0,0,0,0,0,0,0,0,0,0,0,0,0,0,0,0,0,0,0,0,0,0,0,0,0,0,0,0,0,0,0,0,0,0,0,0,0,0,0,0,0,0,0,0,0,0,0,0,0,0,0,0,0,0,0,0,0,0,0,0,0,0,0,0,0,0,0,0,0,0,0,0,0,0,0,0,0,0,0,0,0,0,0,0,0,0,0,0,0,0,0,0,0,0,0,0,0,
0,0,0,0,0,0,0,0,0,0,0,0,0,0,0,0,0,0,0,0,0,0,0,0,0,0,0,0,0,0,0,0,0,0,0,0,0,0,0,0,0,0,0,0,0,0,0,0,0,0,0,0,0,0,0,0,0,0,0,0,0,0,0,0,0,0,0,0,0,0,0,0,0,0,0,0,0,0,0,0,0,0,0,0,0,0,0,0,0,0,0,0,0,0,0,0,0,0,0,0,0,0,0,0,
0,0,0,0,0,0,0,0,0,0,0,0,0,0,0,0,0,0,0,0,0,0,0,0,0,0,0,0,0,0,0,0,0,0,0,0,0,0,0,0,0,0,0,0,0,0,0,0,0,0,0,0,0,0,0,0,0,0,0,0,0,0,0,0,0,0,0,0,0,0,0,0,0,0,0,0,0,0,0,0,0,0,0,0,0,0,0,0,0,0,0,0,0,0,0,0,0,0,0,0,0,0,0,0,
0,0,0,0,0,0,0,0,0,0,0,0,0,0,0,0,0,0,0,0,0,0,0,0,0,0,0,0,0,0,0,0,0,0,0,0,0,0,0,0,0,0,0,0,0,0,0,0,0,0,0,0,0,0,0,0,0,0,0,0,0,0,0,0,0,0,0,0,0,0,0,0,0,0,0,0,0,0,0,0,0,0,0,0,0,0,0,0,0,0,0,0,0,0,0,0,0,0,0,0,0,0,0,0,
0,0,0,0,0,0,0,0,0,0,0,0,0,0,0,0,0,0,0,0,0,0,0,0,0,0,0,0,0,0,0,0,0,0,0,0,0,0,0,0,0,0,0,0,0,0,0,0,0,0,0,0,0,0,0,0,0,0,0,0,0,0,0,0,0,0,0,0,0,0,0,0,0,0,0,0,0,0,0,0,0,0,0,0,0,0,0,0,0,0,0,0,0,0,0,0,0,0,0,0,0,0,0,0,
0,0,0,0,0,0,0,0,0,0,0,0,0,0,0,0,0,0,0,0,0,0,0,0,0,0,0,0,0,0,0,0,0,0,0,0,0,0,0,0,0,0,0,0,0,0,0,0,0,0,0,0,0,0,0,0,0,0,0,0,0,0,0,0,0,0,0,0,0,0,0,0,0,0,0,0,0,0,0,0,0,0,0,0,0,0,0,0,0,0,0,0,0,0,0,0,0,0,0,0,0,0,0,0,
0,0,0,0,0,0,0,0,0,0,0,0,0,0,0,0,0,0,0,0,0,0,0,0,0,0,0,0,0,0,0,0,0,0,0,0,0,0,0,0,0,0,0,0,0,0,0,0,0,0,0,0,0,0,0,0,0,0,0,0,0,0,0,0,0,0,0,0,0,0,0,0,0,0,0,0,0,0,0,0,0,0,0,0,0,0,0,0,0,0,0,0,0,0,0,0,0,0,0,0,0,0,0,0,
0,0,0,0,0,0,0,0,0,0,0,0,0,0,0,0,0,0,0,0,0,0,0,0,0,0,0,0,0,0,0,0,0,0,0,0,0,0,0,0,0,0,0,0,0,0,0,0,0,0,0,0,0,0,0,0,0,0,0,0,0,0,0,0,0,0,0,0,0,0,0,0,0,0,0,0,0,0,0,0,0,0,0,0,0,0,0,0,0,0,0,0,0,0,0,0,0,0,0,0,0,0,0,0,
0,0,0,0,0,0,0,0,0,0,0,0,0,0,0,0,0,0,0,0,0,0,0,0,0,0,0,0,0,0,0,0,0,0,0,0,0,0,0,0,0,0,0,0,0,0,0,0,0,0,0,0,0,0,0,0,0,0,0,0,0,0,0,0,0,0,0,0,0,0,0,0,0,0,0,0,0,0,0,0,0,0,0,0,0,0,0,0,0,0,0,0,0,0,0,0,0,0,0,0,0,0,0,0,
0,0,0,0,0,0,0,0,0,0,0,0,0,0,0,0,0,0,0,0,0,0,0,0,0,0,0,0,0,0,0,0,0,0,0,0,0,0,0,0,0,0,0,0,0,0,0,0,0,0,0,0,0,0,0,0,0,0,0,0,0,0,0,0,0,0,0,0,0,0,0,0,0,0,0,0,0,0,0,0,0,0,0,0,0,0,0,0,0,0,0,0,0,0,0,0,0,0,0,0,0,0,0,0,
0,0,0,0,0,0,0,0,0,0,0,0,0,0,0,0,0,0,0,0,0,0,0,0,0,0,0,0,0,0,0,0,0,0,0,0,0,0,0,0,0,0,0,0,0,0,0,0,0,0,0,0,0,0,0,0,0,0,0,0,0,0,0,0,0,0,0,0,0,0,0,0,0,0,0,0,0,0,0,0,0,0,0,0,0,0,0,0,0,0,0,0,0,0,0,0,0,0,0,0,0,0,0,0,
0,0,0,0,0,0,0,0,0,0,0,0,0,0,0,0,0,0,0,0,0,0,0,0,0,0,0,0,0,0,0,0,0,0,0,0,0,0,0,0,0,0,0,0,0,0,0,0,0,0,0,0,0,0,0,0,0,0,0,0,0,0,0,0,0,0,0,0,0,0,0,0,0,0,0,0,0,0,0,0,0,0,0,0,0,0,0,0,0,0,0,0,0,0,0,0,0,0,0,0,0,0,0,0,
0,0,0,0,0,0,0,0,0,0,0,0,0,0,0,0,0,0,0,0,0,0,0,0,0,0,0,0,0,0,0,0,0,0,0,0,0,0,0,0,0,0,0,0,0,0,0,0,0,0,0,0,0,0,0,0,0,0,0,0,0,0,0,0,0,0,0,0,0,0,0,0,0,0,0,0,0,0,0,0,0,0,0,0,0,0,0,0,0,0,0,0,0,0,0,0,0,0,0,0,0,0,0,0,
0,0,0,0,0,0,0,0,0,0,0,0,0,0,0,0,0,0,0,0,0,0,0,0,0,0,0,0,0,0,0,0,0,0,0,0,0,0,0,0,0,0,0,0,0,0,0,0,0,0,0,0,0,0,0,0,0,0,0,0,0,0,0,0,0,0,0,0,0,0,0,0,0,0,0,0,0,0,0,0,0,0,0,0,0,0,0,0,0,0,0,0,0,0,0,0,0,0,0,0,0,0,0,0,
0,0,0,0,0,0,0,0,0,0,0,0,0,0,0,0,0,0,0,0,0,0,0,0,0,0,0,0,0,0,0,0,0,0,0,0,0,0,0,0,0,0,0,0,0,0,0,0,0,0,0,0,0,0,0,0,0,0,0,0,0,0,0,0,0,0,0,0,0,0,0,0,0,0,0,0,0,0,0,0,0,0,0,0,0,0,0,0,0,0,0,0,0,0,0,0,0,0,0,0,0,0,0,0,
0,0,0,0,0,0,0,0,0,0,0,0,0,0,0,0,0,0,0,5972,5973,5974,5975,5976,5977,5978,5979,5980,5981,5982,5983,5984,0,0,0,0,0,0,0,0,0,0,0,0,0,0,0,0,0,0,0,0,0,0,0,0,0,0,0,0,0,0,0,0,6089,6090,6091,6092,6093,0,0,0,0,0,0,0,0,0,0,0,0,0,0,0,0,0,0,0,0,0,0,0,0,0,0,0,0,0,0,0,0,0,0,0,
0,0,0,0,0,0,6031,6032,6033,6034,6035,6036,6037,6038,6039,6040,6041,6042,6043,6044,6045,6046,6047,6048,6049,6050,6051,6052,6053,6054,6055,6056,0,0,0,0,6061,6062,6063,6064,6065,6066,6067,0,0,0,0,0,0,0,0,0,0,0,0,0,6081,6082,6083,6084,6085,6086,6087,6088,6089,6090,6091,6092,6093,0,0,0,0,0,0,0,0,0,0,0,0,0,0,0,0,0,0,0,0,0,0,0,0,0,0,0,0,0,0,0,0,0,0,0,
0,0,0,0,0,0,6103,6104,6105,6106,6107,6108,6109,6110,6111,6112,6113,6114,6115,6116,6117,6118,6119,6120,6121,6122,6123,6124,6125,6126,6127,6128,0,0,0,0,6133,6134,6135,6136,6137,6138,6139,6140,6141,6142,6143,6144,6145,6146,6147,6148,6149,6150,6151,6152,6153,6154,6155,6156,6157,6158,6159,6160,6161,6162,6163,6164,6165,0,0,0,0,0,0,0,0,0,0,0,0,0,0,0,0,0,0,0,0,0,0,0,0,0,0,0,0,0,0,0,0,0,0,0,
0,0,0,0,0,0,6175,6176,6177,6178,6179,6180,6181,6182,6183,6184,6185,6186,6187,6188,6189,6190,6191,0,0,0,0,0,0,0,0,0,0,0,0,0,6205,6206,6207,0,6209,6210,6211,6212,6213,6214,6215,6216,6217,6218,6219,6220,6221,6222,6223,6224,6225,6226,6227,6228,6229,6230,6231,6232,6233,6234,6235,6236,6237,0,0,0,0,0,0,0,0,0,0,0,0,0,0,0,0,0,0,0,0,0,0,0,0,0,0,0,0,0,0,0,0,0,0,0,
0,0,0,0,0,6246,6247,0,0,0,0,0,0,0,0,0,0,6258,6259,6260,6261,6262,6263,0,0,0,0,0,0,0,0,0,0,0,0,0,0,0,0,0,0,0,6283,6284,6285,6286,6287,6288,6289,6290,6291,6292,6293,6294,6295,6296,6297,6298,6299,6300,6301,6302,6303,6304,6305,6306,6307,6308,6309,6310,6311,6312,0,0,0,0,0,0,0,0,0,0,0,0,0,0,0,0,0,0,0,0,0,0,0,0,0,0,0,0,0,0,0,0,
0,0,0,0,0,0,6319,0,0,0,0,0,0,0,0,0,0,0,0,0,0,6334,6335,0,0,0,0,0,0,0,0,0,0,0,0,0,0,0,0,0,0,0,0,0,6357,6358,0,0,0,0,0,0,0,0,0,0,0,0,0,0,0,0,0,0,0,0,0,0,0,0,0,0,0,0,0,0,0,0,0,0,0,0,0,0,0,0,0,0,0,0,0,0,0,0,0,0,0,0,0,0,0,0,0,0,
0,0,0,0,0,0,0,0,0,0,0,0,0,0,0,0,0,0,0,0,0,0,0,0,0,0,0,0,0,0,0,0,0,0,0,0,0,0,0,0,0,0,0,0,0,0,0,0,0,0,0,0,0,0,0,0,0,0,0,0,0,0,0,0,0,0,0,0,0,0,0,0,0,0,0,0,0,0,0,0,0,0,0,0,0,0,0,0,0,0,0,0,0,0,0,0,0,0,0,0,0,0,0,0,
0,0,0,0,0,0,0,0,0,0,0,0,0,0,0,0,0,0,0,0,0,0,0,0,0,0,0,0,0,0,0,0,0,0,0,0,0,0,0,0,0,0,0,0,0,0,0,0,0,0,0,0,0,0,0,0,0,0,0,0,0,0,0,0,0,0,0,0,0,0,0,0,0,0,0,0,0,0,0,0,0,0,0,0,0,0,0,0,0,0,0,0,0,0,0,0,0,0,0,0,0,0,0,0,
0,0,0,0,0,0,0,0,0,0,0,0,0,0,0,0,0,0,0,0,0,0,0,0,0,0,0,0,0,0,0,0,0,0,0,0,0,0,0,0,0,0,0,0,0,0,0,0,0,0,0,0,0,0,0,0,0,0,0,0,0,0,0,0,0,0,0,0,0,0,0,0,0,0,0,0,0,0,0,0,0,0,0,0,0,0,0,0,0,0,0,0,0,0,0,0,0,0,0,0,0,0,0,0,
0,0,0,0,0,0,0,0,0,0,0,0,0,0,0,0,0,0,0,0,0,0,0,0,0,0,0,0,0,0,0,0,0,0,0,0,0,0,0,0,0,0,0,0,0,0,0,0,0,0,0,0,0,0,0,0,0,0,0,0,0,0,0,0,0,0,0,0,0,0,0,0,0,0,0,0,0,0,0,0,0,0,0,0,0,0,0,0,0,0,0,0,0,0,0,0,0,0,0,0,0,0,0,0,
0,0,0,0,0,0,0,0,0,0,0,0,0,0,0,0,0,0,0,0,0,0,0,0,6697,6698,6699,6700,6701,6702,6703,6704,6705,6706,6707,6708,6709,6710,6711,6712,6713,6714,6715,6716,0,0,0,0,0,0,0,0,0,0,0,0,0,0,0,0,0,0,0,0,0,0,0,0,0,0,0,0,0,0,0,0,0,0,0,0,0,0,0,0,0,0,0,0,0,0,0,0,0,0,0,0,0,0,0,0,0,0,0,0,
0,0,0,0,0,0,0,0,0,0,0,0,0,0,0,0,0,0,0,0,0,6766,6767,6768,6769,6770,6771,6772,6773,6774,6775,6776,6777,6778,6779,6780,6781,6782,6783,6784,6785,6786,6787,6788,0,0,0,0,0,0,0,0,0,0,0,0,0,0,0,0,0,0,0,0,0,0,0,0,0,0,0,0,0,0,0,0,0,0,0,0,0,0,0,0,0,0,0,0,0,0,0,0,0,0,0,0,0,0,0,0,0,0,0,0,
0,0,0,0,0,0,0,0,0,0,0,0,0,0,0,0,6833,6834,6835,6836,6837,6838,6839,6840,6841,6842,6843,6844,6845,6846,6847,6848,6849,6850,6851,6852,6853,6854,6855,6856,6857,6858,6339,6340,6341,6342,6343,0,0,0,0,0,0,0,0,0,0,0,0,0,0,0,0,0,0,0,0,0,0,0,0,0,0,0,0,0,0,0,0,0,0,0,0,0,0,0,0,0,0,0,0,0,0,0,0,0,0,0,0,0,0,0,0,0,
0,0,0,0,0,0,0,0,0,0,0,0,0,0,0,0,0,6906,6907,6908,6909,6910,6911,6912,6913,6914,6915,6916,6917,6918,6919,6920,6921,6922,6923,0,0,6926,6927,0,0,0,6411,6412,6413,6414,6415,0,0,0,0,0,0,0,0,0,0,0,0,0,0,0,0,0,0,0,0,0,0,0,0,0,0,0,0,0,0,0,0,0,0,0,0,0,0,0,0,0,0,0,0,0,0,0,0,0,0,0,0,0,0,0,0,0,
0,0,0,0,0,0,0,0,0,0,0,0,0,0,0,0,0,6978,6979,6980,6981,6982,6983,6984,6985,6986,6987,6988,6989,6990,6991,6992,6993,6994,6995,0,0,6998,6999,0,0,0,6483,6484,6485,6486,6487,0,0,0,0,0,0,0,0,0,0,0,0,0,0,0,0,0,0,0,0,0,0,0,0,0,0,0,0,0,0,0,0,0,0,0,0,0,0,0,0,0,0,0,0,0,0,0,0,0,0,0,0,0,0,0,0,0,
0,0,0,0,0,0,0,0,0,0,0,0,0,0,0,0,0,7050,7051,0,0,0,0,0,0,0,0,0,0,0,7063,7064,7065,0,0,0,0,0,0,0,0,0,0,0,0,0,0,0,0,0,0,0,0,0,0,0,0,0,0,0,0,0,0,0,0,0,0,0,0,0,0,0,0,0,0,0,0,0,0,0,0,0,0,0,0,0,0,0,0,0,0,0,0,0,0,0,0,0,0,0,0,0,0,0,
0,0,0,0,0,0,0,0,0,0,0,0,0,0,0,0,0,7122,7123,0,0,0,0,0,0,0,0,0,0,0,7135,7136,7137,0,0,0,0,0,0,0,0,0,0,0,0,0,0,0,0,0,0,0,0,0,0,0,0,0,0,0,0,0,0,0,0,0,0,0,0,0,0,0,0,0,0,0,0,0,0,0,0,0,0,0,0,0,0,0,0,0,0,0,0,0,0,0,0,0,0,0,0,0,0,0,
0,0,0,0,0,0,0,0,0,0,0,0,0,0,0,0,0,7194,7195,0,0,0,0,0,0,0,0,0,0,0,7207,7208,7209,7210,7211,7212,7213,7214,7215,7216,7217,7218,0,0,0,0,0,0,0,0,0,0,0,0,0,0,0,0,0,0,0,0,0,0,0,0,0,0,0,0,0,0,0,0,0,0,0,0,0,0,0,0,0,0,0,0,0,0,0,0,0,0,0,0,0,0,0,0,0,0,0,0,0,0,
0,0,0,0,0,0,0,0,0,0,0,0,0,0,0,0,0,0,0,0,0,0,0,0,0,0,0,0,0,0,0,0,0,0,0,0,0,0,0,0,0,0,0,0,0,0,0,0,0,0,0,0,0,0,0,0,0,0,0,0,0,0,0,0,0,0,0,0,0,0,0,0,0,0,0,0,0,0,0,0,0,0,0,0,0,0,0,0,0,0,0,0,0,0,0,0,0,0,0,0,0,0,0,0,
0,0,0,0,0,0,0,0,0,0,0,0,0,0,0,0,0,0,0,0,0,0,0,0,0,0,0,0,0,0,0,0,0,0,0,0,0,0,0,0,0,0,0,0,0,0,0,0,0,0,0,0,0,0,0,0,0,0,0,0,0,0,0,0,0,0,0,0,0,0,0,0,0,0,0,0,0,0,0,0,0,0,0,0,0,0,0,0,0,0,0,0,0,0,0,0,0,0,0,0,0,0,0,0,
0,0,0,0,0,0,0,0,0,0,0,0,0,0,0,0,0,0,0,0,0,0,0,0,0,0,0,0,0,0,0,0,0,0,0,0,0,0,0,0,0,0,0,0,0,0,0,0,0,0,0,0,0,0,0,0,0,0,0,0,0,0,0,0,0,0,0,0,0,0,0,0,0,0,0,0,0,0,0,0,0,0,0,0,0,0,0,0,0,0,0,0,0,0,0,0,0,0,0,0,0,0,0,0,
0,0,0,0,0,0,0,0,0,0,0,0,0,0,0,0,0,0,0,0,0,0,0,0,0,0,0,0,0,0,0,0,0,0,0,0,0,0,0,0,0,0,0,0,0,0,0,0,0,0,0,0,0,0,0,0,0,0,0,0,0,0,0,0,0,0,0,0,0,0,0,0,0,0,0,0,0,0,0,0,0,0,0,0,0,0,0,0,0,0,0,0,0,0,0,0,0,0,0,0,0,0,0,0,
0,0,0,0,0,0,0,0,0,0,0,0,0,0,0,0,0,0,0,0,0,0,0,0,0,0,0,0,0,0,0,0,0,0,0,0,0,0,0,0,0,0,0,0,0,0,0,0,0,0,0,0,0,0,0,0,0,0,0,0,0,0,0,0,0,0,0,0,0,0,0,0,0,0,0,0,0,0,0,0,0,0,0,0,0,0,0,0,0,0,0,0,0,0,0,0,0,0,0,0,0,0,0,0,
0,0,0,0,0,0,0,0,0,0,0,0,0,0,0,0,0,0,0,0,0,0,0,0,0,0,0,0,0,0,0,0,0,0,0,0,0,0,0,0,0,0,0,0,0,0,0,0,0,0,0,0,0,0,0,0,0,0,0,0,0,0,0,0,0,0,0,0,0,0,0,0,0,0,0,0,0,0,0,0,0,0,0,0,0,0,0,0,0,0,0,0,0,0,0,0,0,0,0,0,0,0,0,0,
0,0,0,0,0,0,0,0,0,0,0,0,0,0,0,0,0,0,0,0,0,0,0,0,0,0,0,0,0,0,0,0,0,0,0,0,0,0,0,0,0,0,0,0,0,0,0,0,0,0,0,0,0,0,0,0,0,0,0,0,0,0,0,0,0,0,0,0,0,0,0,0,0,0,0,0,0,0,0,0,0,0,0,0,0,0,0,0,0,0,0,0,0,0,0,0,0,0,0,0,0,0,0,0
</data>
 </layer>
 <layer id="9" name="AlwaysFront2" width="104" height="50">
  <properties>
   <property name="Draw" value="AlwaysFront"/>
  </properties>
  <data encoding="csv">
0,0,0,0,0,0,0,0,0,0,0,0,0,0,0,0,0,0,0,0,0,0,0,0,0,0,0,0,0,0,0,0,0,0,0,0,8442,6496,6497,6498,8442,0,0,0,0,0,0,0,0,0,0,0,0,0,0,0,0,0,0,0,0,0,0,0,0,0,0,0,0,0,0,0,0,0,0,0,0,0,0,0,0,0,0,0,0,0,0,0,0,0,0,0,0,0,0,0,0,0,0,0,0,0,0,0,
0,1073742493,0,0,0,0,0,0,0,0,0,0,0,0,0,0,0,0,0,0,0,0,0,0,0,0,0,0,0,3221226141,0,1073742493,0,0,0,0,6567,6568,6569,6570,6571,0,0,0,0,0,0,0,0,0,0,0,0,0,0,0,0,0,0,0,0,0,0,0,0,0,0,0,0,0,0,0,0,0,0,0,0,0,0,0,0,0,0,0,0,0,0,0,0,0,0,0,0,0,0,0,0,0,0,0,0,0,0,0,
0,0,0,0,0,0,0,0,0,0,0,0,3221226141,0,0,0,1073742493,0,0,0,0,0,0,0,0,0,0,0,0,0,0,0,0,0,0,0,0,0,0,0,0,0,0,0,0,0,0,0,0,0,0,0,0,0,0,0,0,0,0,0,0,0,0,0,0,0,0,0,0,0,0,0,0,0,1073742493,0,0,0,3758097053,0,0,0,0,0,0,0,0,0,0,0,0,0,0,0,0,0,0,0,0,0,0,0,0,0,
0,0,0,0,0,0,0,0,0,0,0,0,0,0,0,0,0,0,0,0,0,0,0,0,0,0,0,0,0,0,0,0,0,0,0,0,0,0,0,0,0,0,0,0,0,0,0,0,0,0,0,0,3221226141,0,1073742493,0,0,0,0,0,0,0,0,0,0,0,0,0,0,0,0,0,0,0,0,0,0,0,0,0,0,0,0,0,0,0,0,0,0,0,0,0,0,0,0,0,0,0,0,0,0,0,0,0,
0,0,0,0,0,0,0,0,0,0,0,0,0,0,0,0,0,0,0,0,0,0,0,0,0,0,0,0,0,0,0,0,0,0,0,0,0,0,0,0,0,0,0,0,0,0,0,0,0,0,0,0,0,0,0,0,0,0,0,0,0,0,0,0,0,0,0,0,0,0,0,0,0,0,0,0,0,0,0,0,0,0,0,0,0,0,0,0,0,0,0,0,0,0,0,0,0,0,0,0,0,0,0,0,
0,0,0,0,0,0,0,0,0,0,0,0,0,0,0,0,0,0,0,0,0,0,0,0,0,0,0,0,0,0,0,0,0,0,0,0,0,0,0,0,0,0,0,0,0,0,0,0,0,0,0,0,0,0,0,0,0,0,0,0,0,0,0,0,0,0,0,0,0,0,0,0,0,0,0,0,0,0,0,0,0,0,0,0,0,0,0,0,0,0,0,0,0,0,0,0,0,0,0,0,0,0,0,0,
0,0,0,0,0,0,0,0,0,0,0,0,0,0,0,0,0,0,0,0,0,0,0,0,0,0,0,0,0,0,0,0,0,0,0,0,0,0,0,0,0,0,0,0,0,0,0,0,0,0,0,0,0,0,0,0,0,0,0,0,0,0,0,0,0,0,0,0,0,0,0,0,0,0,0,0,0,0,0,0,0,0,0,0,0,0,0,0,0,0,0,0,0,0,0,0,0,0,0,0,0,0,0,0,
0,0,0,0,0,0,0,0,0,0,0,0,0,0,0,0,0,0,0,0,0,0,0,0,0,0,0,0,0,0,0,0,0,0,0,0,0,0,0,0,0,0,0,0,0,0,0,0,0,0,0,0,0,0,0,0,0,0,0,0,0,0,0,0,0,0,0,0,0,0,0,0,0,0,0,0,0,0,0,0,0,0,0,0,0,0,0,0,0,0,0,0,0,0,0,0,0,0,0,0,0,0,0,0,
0,0,0,0,0,0,0,0,0,0,0,0,0,0,0,0,0,0,0,0,0,0,0,0,0,0,0,0,0,0,0,0,0,0,0,0,0,0,0,0,0,0,0,0,0,0,0,0,0,0,0,0,0,0,0,0,0,0,0,0,0,0,0,0,0,0,0,0,0,0,0,0,0,0,0,0,0,0,0,0,0,0,0,0,0,0,0,0,0,0,0,0,0,0,0,0,0,0,0,0,0,0,0,0,
0,0,0,0,0,0,0,0,0,0,0,0,0,0,0,0,0,0,0,0,0,0,0,0,0,0,0,0,0,0,0,0,0,0,0,0,0,0,0,0,0,0,0,0,0,0,0,0,0,0,0,0,0,0,0,0,0,0,0,0,0,0,0,0,0,0,0,0,0,0,0,0,0,0,0,0,0,0,0,0,0,0,0,0,0,0,0,0,0,0,0,0,0,0,0,0,0,0,0,0,0,0,0,0,
0,0,0,0,0,0,0,0,0,0,0,0,0,0,0,0,0,0,0,0,0,0,0,0,0,0,0,0,0,0,0,0,0,0,0,0,0,0,0,0,0,0,0,0,0,0,0,0,0,0,0,0,0,0,0,0,0,0,0,0,0,0,0,0,0,0,0,0,0,0,0,0,0,0,0,0,0,0,0,0,0,0,0,0,0,0,0,0,0,0,0,0,0,0,0,0,0,0,0,0,0,0,0,0,
0,0,0,0,0,0,0,0,0,0,0,0,0,0,0,0,0,0,0,0,0,0,0,0,0,0,0,0,0,0,0,0,0,0,0,0,0,0,0,0,0,0,0,0,0,0,0,0,0,0,0,0,0,0,0,0,0,0,0,0,0,0,0,0,0,0,0,0,0,0,0,0,0,0,0,0,0,0,0,0,0,0,0,0,0,0,0,0,0,0,0,0,0,0,0,0,0,0,0,0,0,0,0,0,
0,0,0,0,0,0,0,0,0,0,0,0,0,0,0,0,0,0,0,0,0,0,0,0,0,0,0,0,0,0,0,0,0,0,0,0,0,0,0,0,0,0,0,0,0,0,0,0,0,0,0,0,0,0,0,0,0,0,0,0,0,0,0,0,0,0,0,0,0,0,0,0,0,0,0,0,0,0,0,0,0,0,0,0,0,0,0,0,0,0,0,0,0,0,0,0,0,0,0,0,0,0,0,0,
0,0,0,0,0,0,0,0,0,0,0,0,0,0,0,0,0,0,0,0,0,0,0,0,0,0,0,0,0,0,0,0,0,0,0,0,0,0,0,0,0,0,0,0,0,0,0,0,0,0,0,0,0,0,0,0,0,0,0,0,0,0,0,0,0,0,0,0,0,0,0,0,0,0,0,0,0,0,0,0,0,0,0,0,0,0,0,0,0,0,0,0,0,0,0,0,0,0,0,0,0,0,0,0,
0,0,0,0,0,0,0,0,0,0,0,0,0,0,0,0,0,0,0,0,0,0,0,0,0,0,0,0,0,0,0,0,0,0,0,0,0,0,0,0,0,0,0,0,0,0,0,0,0,0,0,0,0,0,0,0,0,0,0,0,0,0,0,0,0,0,0,0,0,0,0,0,0,0,0,0,0,0,0,0,0,0,0,0,0,0,0,0,0,0,0,0,0,0,0,0,0,0,0,0,0,0,0,0,
0,0,0,0,0,0,0,0,0,0,0,0,0,0,0,0,0,0,0,0,0,0,0,0,0,0,0,0,0,0,0,0,0,0,0,0,0,0,0,0,0,0,0,0,0,0,0,0,0,0,0,0,0,0,0,0,0,0,0,0,0,0,0,0,0,0,0,0,0,0,0,0,0,0,0,0,0,0,0,0,0,0,0,0,0,0,0,0,0,0,0,0,0,0,0,0,0,0,0,0,0,0,0,0,
0,0,0,0,0,0,0,0,0,0,0,0,0,0,0,0,0,0,0,0,0,0,0,0,0,0,0,0,0,0,0,0,0,0,0,0,0,0,0,0,0,0,0,0,0,0,0,0,0,0,0,0,0,0,0,0,0,0,0,0,0,0,0,0,0,0,0,0,0,0,0,0,0,0,0,0,0,0,0,0,0,0,0,0,0,0,0,0,0,0,0,0,0,0,0,0,0,0,0,0,0,0,0,0,
0,0,0,0,0,0,0,0,0,0,0,0,0,0,0,0,0,0,0,0,0,0,0,0,0,0,0,0,0,0,0,0,0,0,0,0,0,0,0,0,0,0,0,0,0,0,0,0,0,0,0,0,0,0,0,0,0,0,0,0,0,0,0,0,0,0,0,0,0,0,0,0,0,0,0,0,0,0,0,0,0,0,0,0,0,0,0,0,0,0,0,0,0,0,0,0,0,0,0,0,0,0,0,0,
0,0,0,0,0,0,0,0,0,0,0,0,0,0,0,0,0,0,0,0,0,0,0,0,0,0,0,0,0,0,0,0,0,0,0,0,0,0,0,0,0,0,0,0,0,0,0,0,0,0,0,0,0,0,0,0,0,0,0,0,0,0,0,0,0,0,0,0,0,0,0,0,0,0,0,0,0,0,0,0,0,0,0,0,0,0,0,0,0,0,0,0,0,0,0,0,0,0,0,0,0,0,0,0,
0,0,0,0,0,0,0,0,0,0,0,0,0,0,0,0,0,0,0,0,0,0,0,0,0,0,0,0,0,0,0,0,0,0,0,0,0,0,0,0,0,0,0,0,0,0,0,0,0,0,0,0,0,0,0,0,0,0,0,0,0,0,0,0,0,0,0,0,0,0,0,0,0,0,0,0,0,0,0,0,0,0,0,0,0,0,0,0,0,0,0,0,0,0,0,0,0,0,0,0,0,0,0,0,
0,0,0,0,0,0,0,0,0,0,0,0,0,0,0,0,0,0,0,0,0,0,0,0,0,0,0,0,0,0,0,0,0,0,0,0,0,0,0,0,0,0,0,0,0,0,0,0,0,0,0,0,0,0,0,0,0,0,0,0,0,0,0,0,0,0,0,0,0,0,0,0,0,0,0,0,0,0,0,0,0,0,0,0,0,0,0,0,0,0,0,0,0,0,0,0,0,0,0,0,0,0,0,0,
0,0,0,0,0,0,0,0,0,0,0,0,0,0,0,0,0,0,0,0,0,0,0,0,0,0,0,0,0,0,0,0,0,0,0,0,0,0,0,0,0,0,0,0,0,0,0,0,0,0,0,0,0,0,0,0,0,0,0,0,0,0,0,0,0,0,0,0,0,0,0,0,0,0,0,0,0,0,0,0,0,0,0,0,0,0,0,0,0,0,0,0,0,0,0,0,0,0,0,0,0,0,0,0,
0,0,0,0,0,0,0,0,0,0,0,0,0,0,0,0,0,0,0,0,0,0,0,0,0,0,0,0,0,0,0,0,0,0,0,0,0,0,0,0,0,0,0,0,0,0,0,0,0,0,0,0,0,0,0,0,0,0,0,0,0,0,0,0,0,0,0,0,0,0,0,0,0,0,0,0,0,0,0,0,0,0,0,0,0,0,0,0,0,0,0,0,0,0,0,0,0,0,0,0,0,0,0,0,
0,0,0,0,0,0,0,0,0,0,0,0,0,0,0,0,0,0,0,0,0,0,0,0,0,0,0,0,0,0,0,0,0,0,0,0,0,0,0,0,0,0,0,0,0,0,0,0,0,0,0,0,0,0,0,0,0,0,0,0,0,0,0,0,0,0,0,0,0,0,0,0,0,0,0,0,0,0,0,0,0,0,0,0,0,0,0,0,0,0,0,0,0,0,0,0,0,0,0,0,0,0,0,0,
0,0,0,0,0,0,0,0,0,0,0,0,0,0,0,0,0,0,0,0,0,0,0,0,0,0,0,0,0,0,0,0,0,0,0,0,0,0,0,0,0,0,0,0,0,0,0,0,0,0,0,0,0,0,0,0,0,0,0,0,0,0,0,0,0,0,0,0,0,0,0,0,0,0,0,0,0,0,0,0,0,0,0,0,0,0,0,0,0,0,0,0,0,0,0,0,0,0,0,0,0,0,0,0,
0,0,0,0,0,0,0,0,0,0,0,0,0,0,0,0,0,0,0,0,0,0,0,0,0,0,0,0,0,0,0,0,0,0,0,0,0,0,0,0,0,0,0,0,0,0,0,0,0,0,0,0,0,0,0,0,0,0,0,0,0,0,0,0,0,0,0,0,0,0,0,0,0,0,0,0,0,0,0,0,0,0,0,0,0,0,0,0,0,0,0,0,0,0,0,0,0,0,0,0,0,0,0,0,
0,0,0,0,0,0,0,0,0,0,0,0,0,0,0,0,0,0,0,0,0,0,0,0,0,0,0,0,0,0,0,0,0,0,0,0,0,0,0,0,0,0,0,0,0,0,0,0,0,0,0,0,0,0,0,0,0,0,0,0,0,0,0,0,0,0,0,0,0,0,0,0,0,0,0,0,0,0,0,0,0,0,0,0,0,0,0,0,0,0,0,0,0,0,0,0,0,0,0,0,0,0,0,0,
0,0,0,0,0,0,0,0,0,0,0,0,0,0,0,0,0,0,0,0,0,0,0,0,0,0,0,0,0,0,0,0,0,0,0,0,0,0,0,0,0,0,0,0,0,0,0,0,0,0,0,0,0,0,0,0,0,0,0,0,0,0,0,0,0,0,0,0,0,0,0,0,0,0,0,0,0,0,0,0,0,0,0,0,0,0,0,0,0,0,0,0,0,0,0,0,0,0,0,0,0,0,0,0,
0,0,0,0,0,0,0,0,0,0,0,0,0,0,0,0,0,0,0,0,0,0,0,0,0,0,0,0,0,0,0,0,0,0,0,0,0,0,0,0,0,0,0,0,0,0,0,0,0,0,0,0,0,0,0,0,0,0,0,0,0,0,0,0,0,0,0,0,0,0,0,0,0,0,0,0,0,0,0,0,0,0,0,0,0,0,0,0,0,0,0,0,0,0,0,0,0,0,0,0,0,0,0,0,
0,0,0,0,0,0,0,0,0,0,0,0,0,0,0,0,0,0,0,0,0,0,0,0,0,0,0,0,0,0,0,0,0,0,0,0,0,0,0,0,0,0,0,0,0,0,0,0,0,0,0,0,0,0,0,0,0,0,0,0,0,0,0,0,0,0,0,0,0,0,0,0,0,0,0,0,0,0,0,0,0,0,0,0,0,0,0,0,0,0,0,0,0,0,0,0,0,0,0,0,0,0,0,0,
0,0,0,0,0,0,0,0,0,0,0,0,0,0,0,0,0,0,0,0,0,0,0,0,0,0,0,0,0,0,0,0,0,0,0,0,0,0,0,0,0,0,0,0,0,0,0,0,0,0,0,0,0,0,0,0,0,0,0,0,0,0,0,0,0,0,0,0,0,0,0,0,0,0,0,0,0,0,0,0,0,0,0,0,0,0,0,0,0,0,0,0,0,0,0,0,0,0,0,0,0,0,0,0,
0,0,0,0,0,0,0,0,0,0,0,0,0,0,0,0,0,0,0,0,0,0,0,0,0,0,0,0,0,0,0,0,0,0,0,0,0,0,0,0,0,0,0,0,0,0,0,0,0,0,0,0,0,0,0,0,0,0,0,0,0,0,0,0,0,0,0,0,0,0,0,0,0,0,0,0,0,0,0,0,0,0,0,0,0,0,0,0,0,0,0,0,0,0,0,0,0,0,0,0,0,0,0,0,
0,0,0,0,0,0,0,0,0,0,0,0,0,0,0,0,0,0,0,0,0,0,0,0,0,0,0,0,0,0,0,0,0,0,0,0,0,0,0,0,0,0,0,0,0,0,0,0,0,0,0,0,0,0,0,0,0,0,0,0,0,0,0,0,0,0,0,0,0,0,0,0,0,0,0,0,0,0,0,0,0,0,0,0,0,0,0,0,0,0,0,0,0,0,0,0,0,0,0,0,0,0,0,0,
0,0,0,0,0,0,0,0,0,0,0,0,0,0,0,0,0,0,0,0,0,0,0,0,0,0,0,0,0,0,0,0,0,0,0,0,0,0,0,0,0,0,0,0,0,0,0,0,0,0,0,0,0,0,0,0,0,0,0,0,0,0,0,0,0,0,0,0,0,0,0,0,0,0,0,0,0,0,0,0,0,0,0,0,0,0,0,0,0,0,0,0,0,0,0,0,0,0,0,0,0,0,0,0,
0,0,0,0,0,0,0,0,0,0,0,0,0,0,0,0,0,0,0,0,0,0,0,0,0,0,0,0,0,0,0,0,0,0,0,0,0,0,0,0,0,0,0,0,0,0,0,0,0,0,0,0,0,0,0,0,0,0,0,0,0,0,0,0,0,0,0,0,0,0,0,0,0,0,0,0,0,0,0,0,0,0,0,0,0,0,0,0,0,0,0,0,0,0,0,0,0,0,0,0,0,0,0,0,
0,0,0,0,0,0,0,0,0,0,0,0,0,0,0,0,0,0,0,0,0,0,0,0,0,0,0,0,0,0,0,0,0,0,0,0,0,0,0,0,0,0,0,0,0,0,0,0,0,0,0,0,0,0,0,0,0,0,0,0,0,0,0,0,0,0,0,0,0,0,0,0,0,0,0,0,0,0,0,0,0,0,0,0,0,0,0,0,0,0,0,0,0,0,0,0,0,0,0,0,0,0,0,0,
0,0,0,0,0,0,0,0,0,0,0,0,0,0,0,0,0,0,0,0,0,0,0,0,0,0,0,0,0,0,0,0,0,0,0,0,0,0,0,0,0,0,0,0,0,0,0,0,0,0,0,0,0,0,0,0,0,0,0,0,0,0,0,0,0,0,0,0,0,0,0,0,0,0,0,0,0,0,0,0,0,0,0,0,0,0,0,0,0,0,0,0,0,0,0,0,0,0,0,0,0,0,0,0,
0,0,0,0,0,0,0,0,0,0,0,0,0,0,0,0,0,0,0,0,0,0,0,0,0,0,0,0,0,0,0,0,0,0,0,0,0,0,0,0,0,0,0,0,0,0,0,0,0,0,0,0,0,0,0,0,0,0,0,0,0,0,0,0,0,0,0,0,0,0,0,0,0,0,0,0,0,0,0,0,0,0,0,0,0,0,0,0,0,0,0,0,0,0,0,0,0,0,0,0,0,0,0,0,
0,0,0,0,0,0,0,0,0,0,0,0,0,0,0,0,0,0,0,0,0,0,0,0,0,0,0,0,0,0,0,0,0,0,0,0,0,0,0,0,0,0,0,0,0,0,0,0,0,0,0,0,0,0,0,0,0,0,0,0,0,0,0,0,0,0,0,0,0,0,0,0,0,0,0,0,0,0,0,0,0,0,0,0,0,0,0,0,0,0,0,0,0,0,0,0,0,0,0,0,0,0,0,0,
0,0,0,0,0,0,0,0,0,0,0,0,0,0,0,0,0,0,0,0,0,0,0,0,0,0,0,0,0,0,0,0,0,0,0,0,0,0,0,0,0,0,0,0,0,0,0,0,0,0,0,0,0,0,0,0,0,0,0,0,0,0,0,0,0,0,0,0,0,0,0,0,0,0,0,0,0,0,0,0,0,0,0,0,0,0,0,0,0,0,0,0,0,0,0,0,0,0,0,0,0,0,0,0,
0,0,0,0,0,0,0,0,0,0,0,0,0,0,0,0,0,0,0,0,0,0,0,0,0,0,0,0,0,0,0,0,0,0,0,0,0,0,0,0,0,0,0,0,0,0,0,0,0,0,0,0,0,0,0,0,0,0,0,0,0,0,0,0,0,0,0,0,0,0,0,0,0,0,0,0,0,0,0,0,0,0,0,0,0,0,0,0,0,0,0,0,0,0,0,0,0,0,0,0,0,0,0,0,
0,0,0,0,0,0,0,0,0,0,0,0,0,0,0,0,0,0,0,0,0,0,0,0,0,0,0,0,0,0,0,0,0,0,0,0,0,0,0,0,0,0,0,0,0,0,0,0,0,0,0,0,0,0,0,0,0,0,0,0,0,0,0,0,0,0,0,0,0,0,0,0,0,0,0,0,0,0,0,0,0,0,0,0,0,0,0,0,0,0,0,0,0,0,0,0,0,0,0,0,0,0,0,0,
0,0,0,0,0,0,0,0,0,0,0,0,0,0,0,0,0,0,0,0,0,0,0,0,0,0,0,0,0,0,0,0,0,0,0,0,0,0,0,0,0,0,0,0,0,0,0,0,0,0,0,0,0,0,0,0,0,0,0,0,0,0,0,0,0,0,0,0,0,0,0,0,0,0,0,0,0,0,0,0,0,0,0,0,0,0,0,0,0,0,0,0,0,0,0,0,0,0,0,0,0,0,0,0,
0,0,0,0,0,0,0,0,0,0,0,0,0,0,0,0,0,0,0,0,0,0,0,0,0,0,0,0,0,0,0,0,0,0,0,0,0,0,0,0,0,0,0,0,0,0,0,0,0,0,0,0,0,0,0,0,0,0,0,0,0,0,0,0,0,0,0,0,0,0,0,0,0,0,0,0,0,0,0,0,0,0,0,0,0,0,0,0,0,0,0,0,0,0,0,0,0,0,0,0,0,0,0,0,
0,0,0,0,0,0,0,0,0,0,0,0,0,0,0,0,0,0,0,0,0,0,0,0,0,0,0,0,0,0,0,0,0,0,0,0,0,0,0,0,0,0,0,0,0,0,0,0,0,0,0,0,0,0,0,0,0,0,0,0,0,0,0,0,0,0,0,0,0,0,0,0,0,0,0,0,0,0,0,0,0,0,0,0,0,0,0,0,0,0,0,0,0,0,0,0,0,0,0,0,0,0,0,0,
0,0,0,0,0,0,0,0,0,0,0,0,0,0,0,0,0,0,0,0,0,0,0,0,0,0,0,0,0,0,0,0,0,0,0,0,0,0,0,0,0,0,0,0,0,0,0,0,0,0,0,0,0,0,0,0,0,0,0,0,0,0,0,0,0,0,0,0,0,0,0,0,0,0,0,0,0,0,0,0,0,0,0,0,0,0,0,0,0,0,0,0,0,0,0,0,0,0,0,0,0,0,0,0,
0,0,0,0,0,0,0,0,0,0,0,0,0,0,0,0,0,0,0,0,0,0,0,0,0,0,0,0,0,0,0,0,0,0,0,0,0,0,0,0,0,0,0,0,0,0,0,0,0,0,0,0,0,0,0,0,0,0,0,0,0,0,0,0,0,0,0,0,0,0,0,0,0,0,0,0,0,0,0,0,0,0,0,0,0,0,0,0,0,0,0,0,0,0,0,0,0,0,0,0,0,0,0,0,
0,0,0,0,0,0,0,0,0,0,0,0,0,0,0,0,0,0,0,0,0,0,0,0,0,0,0,0,0,0,0,0,0,0,0,0,0,0,0,0,0,0,0,0,0,0,0,0,0,0,0,0,0,0,0,0,0,0,0,0,0,0,0,0,0,0,0,0,0,0,0,0,0,0,0,0,0,0,0,0,0,0,0,0,0,0,0,0,0,0,0,0,0,0,0,0,0,0,0,0,0,0,0,0,
0,0,0,0,0,0,0,0,0,0,0,0,0,0,0,0,0,0,0,0,0,0,0,0,0,0,0,0,0,0,0,0,0,0,0,0,0,0,0,0,0,0,0,0,0,0,0,0,0,0,0,0,0,0,0,0,0,0,0,0,0,0,0,0,0,0,0,0,0,0,0,0,0,0,0,0,0,0,0,0,0,0,0,0,0,0,0,0,0,0,0,0,0,0,0,0,0,0,0,0,0,0,0,0,
0,0,0,0,0,0,0,0,0,0,0,0,0,0,0,0,0,0,0,0,0,0,0,0,0,0,0,0,0,0,0,0,0,0,0,0,0,0,0,0,0,0,0,0,0,0,0,0,0,0,0,0,0,0,0,0,0,0,0,0,0,0,0,0,0,0,0,0,0,0,0,0,0,0,0,0,0,0,0,0,0,0,0,0,0,0,0,0,0,0,0,0,0,0,0,0,0,0,0,0,0,0,0,0
</data>
 </layer>
 <layer id="19" name="1" width="104" height="50" opacity="0.49">
  <data encoding="csv">
0,0,0,0,0,0,0,0,0,0,0,0,0,0,0,0,0,0,0,0,0,0,0,0,0,0,0,0,0,0,0,0,0,0,0,0,0,0,0,0,0,0,0,0,0,0,0,0,0,0,0,0,0,0,0,0,0,0,0,0,0,0,0,0,0,0,0,0,0,0,0,0,0,0,0,0,0,0,0,0,0,0,0,0,0,0,0,0,0,0,0,0,0,0,0,0,0,0,0,0,0,0,0,0,
0,0,0,0,0,0,0,0,0,0,0,0,0,0,0,0,0,0,0,0,0,0,0,0,0,0,0,0,0,0,0,0,0,0,0,0,0,0,0,0,0,0,0,0,0,0,0,0,0,0,0,0,0,0,0,0,0,0,0,0,0,0,0,0,0,0,0,0,0,0,0,0,0,0,0,0,0,0,0,0,0,0,0,0,0,0,0,0,0,0,0,0,0,0,0,0,0,0,0,0,0,0,0,0,
0,0,0,0,0,0,0,0,0,0,0,0,0,0,0,0,0,0,0,0,0,0,0,0,0,0,0,0,0,0,0,0,0,0,0,0,0,0,0,0,0,0,0,0,0,0,0,0,0,0,0,0,0,0,0,0,0,0,0,0,0,0,0,0,0,0,0,0,0,0,0,0,0,0,0,0,0,0,0,0,0,0,0,0,0,0,0,0,0,0,0,0,0,0,0,0,0,0,0,0,0,0,0,0,
0,0,0,0,0,0,0,0,0,0,0,0,0,0,0,0,0,0,0,0,0,0,0,0,0,0,0,0,0,0,0,0,0,0,0,0,0,0,0,0,0,0,0,0,0,0,0,0,0,0,0,0,0,0,0,0,0,0,0,0,0,0,0,0,0,0,0,0,0,0,0,0,0,0,0,0,0,0,0,0,0,0,0,0,0,0,0,0,0,0,0,0,0,0,0,0,0,0,0,0,0,0,0,0,
0,0,0,0,0,0,0,0,0,0,0,0,0,0,0,0,0,0,0,0,0,0,0,0,0,0,0,0,0,0,0,0,0,0,0,0,0,0,0,0,0,0,0,0,0,0,0,0,0,0,0,0,0,0,0,0,0,0,0,0,0,0,0,0,0,0,0,0,0,0,0,0,0,0,0,0,0,0,0,0,0,0,0,0,0,0,0,0,0,0,0,0,0,0,0,0,0,0,0,0,0,0,0,0,
0,0,0,0,0,0,0,0,0,0,0,0,0,0,0,0,0,0,0,0,0,0,0,0,0,0,0,0,0,0,0,0,0,0,0,0,0,0,0,0,0,0,0,0,0,0,0,0,0,0,0,0,0,0,0,0,0,0,0,0,0,0,0,0,0,0,0,0,0,0,0,0,0,0,0,0,0,0,0,0,0,0,0,0,0,0,0,0,0,0,0,0,0,0,0,0,0,0,0,0,0,0,0,0,
0,0,0,0,0,0,0,0,0,0,0,0,0,0,0,0,0,0,0,0,0,0,0,0,0,0,0,0,0,0,0,0,0,0,0,0,0,0,0,0,0,0,0,0,0,0,0,0,0,0,0,0,0,0,0,0,0,0,0,0,0,0,0,0,0,0,0,0,0,0,0,0,0,0,0,0,0,0,0,0,0,0,0,0,0,0,0,0,0,0,0,0,0,0,0,0,0,0,0,0,0,0,0,0,
0,0,0,0,0,0,0,0,0,0,0,0,0,0,0,0,0,0,0,0,0,0,0,0,0,0,0,0,0,0,0,0,0,0,0,0,0,0,0,0,0,0,0,0,0,0,0,0,0,0,0,0,0,0,0,0,0,0,0,0,0,0,0,0,0,0,0,0,0,0,0,0,0,0,0,0,0,0,0,0,0,0,0,0,0,0,0,0,0,0,0,0,0,0,0,0,0,0,0,0,0,0,0,0,
0,0,0,0,0,0,0,0,0,0,0,0,0,0,0,0,0,0,0,0,0,0,0,0,0,0,0,0,0,0,0,0,0,0,0,0,0,0,0,0,0,0,0,0,0,0,0,0,0,0,0,0,0,0,0,0,0,0,0,0,0,0,0,0,0,0,0,0,0,0,0,0,0,0,0,0,0,0,0,0,0,0,0,0,0,0,0,0,0,0,0,0,0,0,0,0,0,0,0,0,0,0,0,0,
0,0,0,0,0,0,0,0,0,0,0,0,0,0,0,0,0,0,0,0,0,0,0,0,0,0,0,0,0,0,0,0,0,0,0,0,0,0,0,0,0,0,0,0,0,0,0,0,0,0,0,0,0,0,0,0,0,0,0,0,0,0,0,0,0,0,0,0,0,0,0,0,0,0,0,0,0,0,0,0,0,0,0,0,0,0,0,0,0,0,0,0,0,0,0,0,0,0,0,0,0,0,0,0,
0,0,0,0,0,0,0,0,0,0,0,0,0,0,0,0,0,0,0,0,0,0,0,0,0,0,0,0,0,0,0,0,0,0,0,0,0,0,0,0,0,0,0,0,0,0,0,0,0,0,0,0,0,0,0,0,0,0,0,0,0,0,0,0,0,0,0,0,0,0,0,0,0,0,0,0,0,0,0,0,0,0,0,0,0,0,0,0,0,0,0,0,0,0,0,0,0,0,0,0,0,0,0,0,
0,0,0,0,0,0,0,0,0,0,0,0,0,0,0,0,0,0,0,0,0,0,0,0,0,0,0,0,0,0,0,0,0,0,0,0,0,0,0,0,0,0,0,0,0,0,0,0,0,0,0,0,0,0,0,0,0,0,0,0,0,0,0,0,0,0,0,0,0,0,0,0,0,0,0,0,0,0,0,0,0,0,0,0,0,0,0,0,0,0,0,0,0,0,0,0,0,0,0,0,0,0,0,0,
0,0,0,0,0,0,0,0,0,0,0,0,0,0,0,0,0,0,0,0,0,0,0,0,0,0,0,0,0,0,0,0,0,0,0,0,0,0,0,0,0,0,0,0,0,0,0,0,0,0,0,0,0,0,0,0,0,0,0,0,0,0,0,0,0,0,0,0,0,0,0,0,0,0,0,0,0,0,0,0,0,0,0,0,0,0,0,0,0,0,0,0,0,0,0,0,0,0,0,0,0,0,0,0,
0,0,0,0,0,0,0,0,0,0,0,0,0,0,0,0,0,0,0,0,0,0,0,0,0,0,0,0,0,0,0,0,0,0,0,0,0,0,0,0,0,0,0,0,0,0,0,0,0,0,0,0,0,0,0,0,0,0,0,0,0,0,0,0,0,0,0,0,0,0,0,0,0,0,0,0,0,0,0,0,0,0,0,0,0,0,0,0,0,0,0,0,0,0,0,0,0,0,0,0,0,0,0,0,
0,0,0,0,0,0,0,0,0,0,0,0,0,0,0,0,0,0,0,0,0,0,0,0,0,0,0,0,0,0,0,0,0,0,0,0,0,0,0,0,0,0,0,0,0,0,0,0,0,0,0,0,0,0,0,0,0,0,0,0,0,0,0,0,0,0,0,0,0,0,0,0,0,0,0,0,0,0,0,0,0,0,0,0,0,0,0,0,0,0,0,0,0,0,0,0,0,0,0,0,0,0,0,0,
0,0,0,0,0,0,0,0,0,0,0,0,0,0,0,0,0,0,0,0,0,0,0,0,0,0,0,0,0,0,0,0,0,0,0,0,0,0,0,0,0,0,0,0,0,0,0,0,0,0,0,0,0,0,0,0,0,0,0,0,0,0,0,0,0,0,0,0,0,0,0,0,0,0,0,0,0,0,0,0,0,0,0,0,0,0,0,0,0,0,0,0,0,0,0,0,0,0,0,0,0,0,0,0,
0,0,0,0,0,0,0,0,0,0,0,0,0,0,0,0,0,0,0,0,0,0,0,0,0,0,0,0,0,0,0,0,0,0,0,0,0,0,0,0,0,0,0,0,0,0,0,0,0,0,0,0,0,0,0,0,0,0,0,0,0,0,0,0,0,0,0,0,0,0,0,0,0,0,0,0,0,0,0,0,0,0,0,0,0,0,0,0,0,0,0,0,0,0,0,0,0,0,0,0,0,0,0,0,
0,0,0,0,0,0,0,0,0,0,0,0,0,0,0,0,0,0,0,0,0,0,0,0,0,0,0,0,0,0,0,0,0,0,0,0,0,0,0,0,0,0,0,0,0,0,0,0,0,0,0,0,0,0,0,0,0,0,0,0,0,0,0,0,0,0,0,0,0,0,0,0,0,0,0,0,0,0,0,0,0,0,0,0,0,0,0,0,0,0,0,0,0,0,0,0,0,0,0,0,0,0,0,0,
0,0,0,0,0,0,0,0,0,0,0,0,0,0,0,0,0,0,0,0,0,0,0,0,0,0,0,0,0,0,0,0,0,0,0,0,0,0,0,0,0,0,0,0,0,0,0,0,0,0,0,0,0,0,0,0,0,0,0,0,0,0,0,0,0,0,0,0,0,0,0,0,0,0,0,0,0,0,0,0,0,0,0,0,0,0,0,0,0,0,0,0,0,0,0,0,0,0,0,0,0,0,0,0,
0,0,0,0,0,0,0,0,0,0,0,0,0,0,0,0,0,0,0,0,0,0,0,0,0,0,0,0,0,0,0,0,0,0,0,0,0,0,0,0,0,0,0,0,0,0,0,0,0,0,0,0,0,0,0,0,0,0,0,0,0,0,0,0,0,0,0,0,0,0,0,0,0,0,0,0,0,0,0,0,0,0,0,0,0,0,0,0,0,0,0,0,0,0,0,0,0,0,0,0,0,0,0,0,
0,0,0,0,0,0,0,0,0,0,0,0,0,0,0,0,0,0,0,0,0,0,0,0,0,0,0,0,0,0,0,0,0,0,0,0,0,0,0,0,0,0,0,0,0,0,0,0,0,0,0,0,0,0,0,0,0,0,0,0,0,0,0,0,0,0,0,0,0,0,0,0,0,0,0,0,0,0,0,0,0,0,0,0,0,0,0,0,0,0,0,0,0,0,0,0,0,0,0,0,0,0,0,0,
6103,0,0,0,0,0,0,0,0,0,0,0,0,0,0,0,0,0,0,0,0,0,0,0,0,0,0,0,0,0,0,0,0,0,0,0,0,0,0,0,0,0,0,0,0,0,0,0,0,0,0,0,0,0,0,0,0,0,0,0,0,0,0,0,0,0,0,0,0,0,0,0,0,0,0,0,0,0,0,0,0,0,0,0,0,0,0,0,0,0,0,0,0,0,0,0,0,0,0,0,0,0,0,0,
0,0,0,0,0,0,0,0,0,0,0,0,0,0,0,0,0,0,0,0,0,0,0,0,0,0,0,0,0,0,0,0,0,0,0,0,0,0,0,0,0,0,0,0,0,0,0,0,0,0,0,0,0,0,0,0,0,0,0,0,0,0,0,0,0,0,0,0,0,0,0,0,0,0,0,0,0,0,0,0,0,0,0,0,0,0,0,0,0,0,0,0,0,0,0,0,0,0,0,0,0,0,0,0,
0,0,0,0,0,0,0,0,0,0,0,0,0,0,0,0,0,0,0,0,0,0,0,0,0,0,0,0,0,0,0,0,0,0,0,0,0,0,0,0,0,0,0,0,0,0,0,0,0,0,0,0,0,0,0,0,0,0,0,0,0,0,0,0,0,0,0,0,0,0,0,0,0,0,0,0,0,0,0,0,0,0,0,0,0,0,0,0,0,0,0,0,0,0,0,0,0,0,0,0,0,0,0,0,
0,0,0,0,0,0,0,0,0,0,0,0,0,0,0,0,0,0,0,0,0,0,0,0,0,0,0,0,0,0,0,0,0,0,0,0,0,0,0,0,0,0,0,0,0,0,0,0,0,0,0,0,0,0,0,0,0,0,0,0,0,0,0,0,0,0,0,0,0,0,0,0,0,0,0,0,0,0,0,0,0,0,0,0,0,0,0,0,0,0,0,0,0,0,0,0,0,0,0,0,0,0,0,0,
0,0,0,0,0,0,0,0,0,0,0,0,0,0,0,0,0,0,0,0,0,0,0,0,0,0,0,0,0,0,0,0,0,0,0,0,0,0,0,0,0,0,0,0,0,0,0,0,0,0,0,0,0,0,0,0,0,0,0,0,0,0,0,0,0,0,0,0,0,0,0,0,0,0,0,0,0,0,0,0,0,0,0,0,0,0,0,0,0,0,0,0,0,0,0,0,0,0,0,0,0,0,0,0,
0,0,0,0,0,0,0,0,0,0,0,0,0,0,0,0,0,0,0,0,0,0,0,0,0,0,0,0,0,0,0,0,0,0,0,0,0,0,0,0,0,0,0,0,0,0,0,0,0,0,0,0,0,0,0,0,0,0,0,0,0,0,0,0,0,0,0,0,0,0,0,0,0,0,0,0,0,0,0,0,0,0,0,0,0,0,0,0,0,0,0,0,0,0,0,0,0,0,0,0,0,0,0,0,
0,0,0,0,0,0,0,0,0,0,0,0,0,0,0,0,0,0,0,0,0,0,0,0,0,0,0,0,0,0,0,0,0,0,0,0,0,0,0,0,0,0,0,0,0,0,0,0,0,0,0,0,0,0,0,0,0,0,0,0,0,0,0,0,0,0,0,0,0,0,0,0,0,0,0,0,0,0,0,0,0,0,0,0,0,0,0,0,0,0,0,0,0,0,0,0,0,0,0,0,0,0,0,0,
0,0,0,0,0,0,0,0,0,0,0,0,0,0,0,0,0,0,0,0,0,0,0,0,0,0,0,0,0,0,0,0,0,0,0,0,0,0,0,0,0,0,0,0,0,0,0,0,0,0,0,0,0,0,0,0,0,0,0,0,0,0,0,0,0,0,0,0,0,0,0,0,0,0,0,0,0,0,0,0,0,0,0,0,0,0,0,0,0,0,0,0,0,0,0,0,0,0,0,0,0,0,0,0,
0,0,0,0,0,0,0,0,0,0,0,0,0,0,0,0,0,0,0,0,0,0,0,0,0,0,0,0,0,0,0,0,0,0,0,0,0,0,0,0,0,0,0,0,0,0,0,0,0,0,0,0,0,0,0,0,0,0,0,0,0,0,0,0,0,0,0,0,0,0,0,0,0,0,0,0,0,0,0,0,0,0,0,0,0,0,0,0,0,0,0,0,0,0,0,0,0,0,0,0,0,0,0,0,
0,0,0,0,0,0,0,0,0,0,0,0,0,0,0,0,0,0,0,0,0,0,0,0,0,0,0,0,0,0,0,0,0,0,0,0,0,0,0,0,0,0,0,0,0,0,0,0,0,0,0,0,0,0,0,0,0,0,0,0,0,0,0,0,0,0,0,0,0,0,0,0,0,0,0,0,0,0,0,0,0,0,0,0,0,0,0,0,0,0,0,0,0,0,0,0,0,0,0,0,0,0,0,0,
0,0,0,0,0,0,0,0,0,0,0,0,0,0,0,0,0,0,0,0,0,0,0,0,0,0,0,0,0,0,0,0,0,0,0,0,0,0,0,0,0,0,0,0,0,0,0,0,0,0,0,0,0,0,0,0,0,0,0,0,0,0,0,0,0,0,0,0,0,0,0,0,0,0,0,0,0,0,0,0,0,0,0,0,0,0,0,0,0,0,0,0,0,0,0,0,0,0,0,0,0,0,0,0,
0,0,0,0,0,0,0,0,0,0,0,0,0,0,0,0,0,0,0,0,0,0,0,0,0,0,0,0,0,0,0,0,0,0,0,0,0,0,0,0,0,0,0,0,0,0,0,0,0,0,0,0,0,0,0,0,0,0,0,0,0,0,0,0,0,0,0,0,0,0,0,0,0,0,0,0,0,0,0,0,0,0,0,0,0,0,0,0,0,0,0,0,0,0,0,0,0,0,0,0,0,0,0,0,
0,0,0,0,0,0,0,0,0,0,0,0,0,0,0,0,0,0,0,0,0,0,0,0,0,0,0,0,0,0,0,0,0,0,0,0,0,0,0,0,0,0,0,0,0,0,0,0,0,0,0,0,0,0,0,0,0,0,0,0,0,0,0,0,0,0,0,0,0,0,0,0,0,0,0,0,0,0,0,0,0,0,0,0,0,0,0,0,0,0,0,0,0,0,0,0,0,0,0,0,0,0,0,0,
0,0,0,0,0,0,0,0,0,0,0,0,0,0,0,0,0,0,0,0,0,0,0,0,0,0,0,0,0,0,0,0,0,0,0,0,0,0,0,0,0,0,0,0,0,0,0,0,0,0,0,0,0,0,0,0,0,0,0,0,0,0,0,0,0,0,0,0,0,0,0,0,0,0,0,0,0,0,0,0,0,0,0,0,0,0,0,0,0,0,0,0,0,0,0,0,0,0,0,0,0,0,0,0,
0,0,0,0,0,0,0,0,0,0,0,0,0,0,0,0,0,0,0,0,0,0,0,0,0,0,0,0,0,0,0,0,0,0,0,0,0,0,0,0,0,0,0,0,0,0,0,0,0,0,0,0,0,0,0,0,0,0,0,0,0,0,0,0,0,0,0,0,0,0,0,0,0,0,0,0,0,0,0,0,0,0,0,0,0,0,0,0,0,0,0,0,0,0,0,0,0,0,0,0,0,0,0,0,
0,0,0,0,0,0,0,0,0,0,0,0,0,0,0,0,0,0,0,0,0,0,0,0,0,0,0,0,0,0,0,0,0,0,0,0,0,0,0,0,0,0,0,0,0,0,0,0,0,0,0,0,0,0,0,0,0,0,0,0,0,0,0,0,0,0,0,0,0,0,0,0,0,0,0,0,0,0,0,0,0,0,0,0,0,0,0,0,0,0,0,0,0,0,0,0,0,0,0,0,0,0,0,0,
0,0,0,0,0,0,0,0,0,0,0,0,0,0,0,0,0,0,0,0,0,0,0,0,0,0,0,0,0,0,0,0,0,0,0,0,0,0,0,0,0,0,0,0,0,0,0,0,0,0,0,0,0,0,0,0,0,0,0,0,0,0,0,0,0,0,0,0,0,0,0,0,0,0,0,0,0,0,0,0,0,0,0,0,0,0,0,0,0,0,0,0,0,0,0,0,0,0,0,0,0,0,0,0,
0,0,0,0,0,0,0,0,0,0,0,0,0,0,0,0,0,0,0,0,0,0,0,0,0,0,0,0,0,0,0,0,0,0,0,0,0,0,0,0,0,0,0,0,0,0,0,0,0,0,0,0,0,0,0,0,0,0,0,0,0,0,0,0,0,0,0,0,0,0,0,0,0,0,0,0,0,0,0,0,0,0,0,0,0,0,0,0,0,0,0,0,0,0,0,0,0,0,0,0,0,0,0,0,
0,0,0,0,0,0,0,0,0,0,0,0,0,0,0,0,0,0,0,0,0,0,0,0,0,0,0,0,0,0,0,0,0,0,0,0,0,0,0,0,0,0,0,0,0,0,0,0,0,0,0,0,0,0,0,0,0,0,0,0,0,0,0,0,0,0,0,0,0,0,0,0,0,0,0,0,0,0,0,0,0,0,0,0,0,0,0,0,0,0,0,0,0,0,0,0,0,0,0,0,0,0,0,0,
0,0,0,0,0,0,0,0,0,0,0,0,0,0,0,0,0,0,0,0,0,0,0,0,0,0,0,0,0,0,0,0,0,0,0,0,0,0,0,0,0,0,0,0,0,0,0,0,0,0,0,0,0,0,0,0,0,0,0,0,0,0,0,0,0,0,0,0,0,0,0,0,0,0,0,0,0,0,0,0,0,0,0,0,0,0,0,0,0,0,0,0,0,0,0,0,0,0,0,0,0,0,0,0,
0,0,0,0,0,0,0,0,0,0,0,0,0,0,0,0,0,0,0,0,0,0,0,0,0,0,0,0,0,0,0,0,0,0,0,0,0,0,0,0,0,0,0,0,0,0,0,0,0,0,0,0,0,0,0,0,0,0,0,0,0,0,0,0,0,0,0,0,0,0,0,0,0,0,0,0,0,0,0,0,0,0,0,0,0,0,0,0,0,0,0,0,0,0,0,0,0,0,0,0,0,0,0,0,
0,0,0,0,0,0,0,0,0,0,0,0,0,0,0,0,0,0,0,0,0,0,0,0,0,0,0,0,0,0,0,0,0,0,0,0,0,0,0,0,0,0,0,0,0,0,0,0,0,0,0,0,0,0,0,0,0,0,0,0,0,0,0,0,0,0,0,0,0,0,0,0,0,0,0,0,0,0,0,0,0,0,0,0,0,0,0,0,0,0,0,0,0,0,0,0,0,0,0,0,0,0,0,0,
0,0,0,0,0,0,0,0,0,0,0,0,0,0,0,0,0,0,0,0,0,0,0,0,0,0,0,0,0,0,0,0,0,0,0,0,0,0,0,0,0,0,0,0,0,0,0,0,0,0,0,0,0,0,0,0,0,0,0,0,0,0,0,0,0,0,0,0,0,0,0,0,0,0,0,0,0,0,0,0,0,0,0,0,0,0,0,0,0,0,0,0,0,0,0,0,0,0,0,0,0,0,0,0,
0,0,0,0,0,0,0,0,0,0,0,0,0,0,0,0,0,0,0,0,0,0,0,0,0,0,0,0,0,0,0,0,0,0,0,0,0,0,0,0,0,0,0,0,0,0,0,0,0,0,0,0,0,0,0,0,0,0,0,0,0,0,0,0,0,0,0,0,0,0,0,0,0,0,0,0,0,0,0,0,0,0,0,0,0,0,0,0,0,0,0,0,0,0,0,0,0,0,0,0,0,0,0,0,
0,0,0,0,0,0,0,0,0,0,0,0,0,0,0,0,0,0,0,0,0,0,0,0,0,0,0,0,0,0,0,0,0,0,0,0,0,0,0,0,0,0,0,0,0,0,0,0,0,0,0,0,0,0,0,0,0,0,0,0,0,0,0,0,0,0,0,0,0,0,0,0,0,0,0,0,0,0,0,0,0,0,0,0,0,0,0,0,0,0,0,0,0,0,0,0,0,0,0,0,0,0,0,0,
0,0,0,0,0,0,0,0,0,0,0,0,0,0,0,0,0,0,0,0,0,0,0,0,0,0,0,0,0,0,0,0,0,0,0,0,0,0,0,0,0,0,0,0,0,0,0,0,0,0,0,0,0,0,0,0,0,0,0,0,0,0,0,0,0,0,0,0,0,0,0,0,0,0,0,0,0,0,0,0,0,0,0,0,0,0,0,0,0,0,0,0,0,0,0,0,0,0,0,0,0,0,0,0,
0,0,0,0,0,0,0,0,0,0,0,0,0,0,0,0,0,0,0,0,0,0,0,0,0,0,0,0,0,0,0,0,0,0,0,0,0,0,0,0,0,0,0,0,0,0,0,0,0,0,0,0,0,0,0,0,0,0,0,0,0,0,0,0,0,0,0,0,0,0,0,0,0,0,0,0,0,0,0,0,0,0,0,0,0,0,0,0,0,0,0,0,0,0,0,0,0,0,0,0,0,0,0,0,
0,0,0,0,0,0,0,0,0,0,0,0,0,0,0,0,0,0,0,0,0,0,0,0,0,0,0,0,0,0,0,0,0,0,0,0,0,0,0,0,0,0,0,0,0,0,0,0,0,0,0,0,0,0,0,0,0,0,0,0,0,0,0,0,0,0,0,0,0,0,0,0,0,0,0,0,0,0,0,0,0,0,0,0,0,0,0,0,0,0,0,0,0,0,0,0,0,0,0,0,0,0,0,0,
0,0,0,0,0,0,0,0,0,0,0,0,0,0,0,0,0,0,0,0,0,0,0,0,0,0,0,0,0,0,0,0,0,0,0,0,0,0,0,0,0,0,0,0,0,0,0,0,0,0,0,0,0,0,0,0,0,0,0,0,0,0,0,0,0,0,0,0,0,0,0,0,0,0,0,0,0,0,0,0,0,0,0,0,0,0,0,0,0,0,0,0,0,0,0,0,0,0,0,0,0,0,0,0
</data>
 </layer>
 <objectgroup id="10" name="Back">
  <object id="48" name="TileData" x="320" y="64" width="16" height="16">
   <properties>
    <property name="NoSpawn" value="All"/>
   </properties>
  </object>
  <object id="153" name="TileData" x="1184" y="208" width="96" height="48">
   <properties>
    <property name="NPCBarrier" value="T"/>
   </properties>
  </object>
  <object id="154" name="TileData" x="1184" y="192" width="64" height="16">
   <properties>
    <property name="NPCBarrier" value="T"/>
   </properties>
  </object>
  <object id="155" name="TileData" x="1216" y="176" width="32" height="16">
   <properties>
    <property name="NPCBarrier" value="T"/>
   </properties>
  </object>
  <object id="156" name="TileData" x="1072" y="240" width="32" height="32">
   <properties>
    <property name="NPCBarrier" value="T"/>
   </properties>
  </object>
  <object id="157" name="TileData" x="1136" y="304" width="64" height="48">
   <properties>
    <property name="NPCBarrier" value="T"/>
   </properties>
  </object>
  <object id="158" name="TileData" x="1264" y="288" width="80" height="64">
   <properties>
    <property name="NPCBarrier" value="T"/>
   </properties>
  </object>
  <object id="159" name="TileData" x="1328" y="256" width="64" height="32">
   <properties>
    <property name="NPCBarrier" value="T"/>
   </properties>
  </object>
  <object id="160" name="TileData" x="1344" y="288" width="32" height="32">
   <properties>
    <property name="NPCBarrier" value="T"/>
   </properties>
  </object>
  <object id="161" name="TileData" x="1344" y="320" width="16" height="16">
   <properties>
    <property name="NPCBarrier" value="T"/>
   </properties>
  </object>
  <object id="162" name="TileData" x="1392" y="160" width="32" height="16">
   <properties>
    <property name="NPCBarrier" value="T"/>
   </properties>
  </object>
  <object id="163" name="TileData" x="1360" y="176" width="80" height="32">
   <properties>
    <property name="NPCBarrier" value="T"/>
   </properties>
  </object>
  <object id="164" name="TileData" x="1360" y="208" width="32" height="16">
   <properties>
    <property name="NPCBarrier" value="T"/>
   </properties>
  </object>
  <object id="165" name="TileData" x="1392" y="208" width="48" height="16">
   <properties>
    <property name="NPCBarrier" value="T"/>
   </properties>
  </object>
  <object id="173" name="TileData" x="912" y="0" width="16" height="16">
   <properties>
    <property name="NoPath" value="T"/>
   </properties>
  </object>
  <object id="174" name="TileData" x="928" y="0" width="16" height="16">
   <properties>
    <property name="NoPath" value="T"/>
   </properties>
  </object>
  <object id="175" name="TileData" x="944" y="0" width="16" height="16">
   <properties>
    <property name="NoPath" value="T"/>
   </properties>
  </object>
  <object id="176" name="TileData" x="960" y="0" width="16" height="16">
   <properties>
    <property name="NoPath" value="T"/>
   </properties>
  </object>
  <object id="177" name="TileData" x="992" y="0" width="16" height="16">
   <properties>
    <property name="NoPath" value="T"/>
   </properties>
  </object>
  <object id="178" name="TileData" x="976" y="0" width="16" height="16">
   <properties>
    <property name="NoPath" value="T"/>
   </properties>
  </object>
  <object id="179" name="TileData" x="896" y="0" width="16" height="16">
   <properties>
    <property name="NoPath" value="T"/>
   </properties>
  </object>
  <object id="187" name="TileData" x="1648" y="64" width="16" height="16">
   <properties>
    <property name="NoPath" value="T"/>
    <property name="NoSpawn" value="All"/>
    <property name="Passable" value="T"/>
   </properties>
  </object>
  <object id="192" name="TileData" x="1648" y="144" width="16" height="16">
   <properties>
    <property name="NoSpawn" value="All"/>
    <property name="Passable" value="T"/>
   </properties>
  </object>
  <object id="193" name="TileData" x="1648" y="160" width="16" height="16">
   <properties>
    <property name="NoSpawn" value="All"/>
   </properties>
  </object>
  <object id="195" name="TileData" x="1648" y="128" width="16" height="16">
   <properties>
    <property name="NoSpawn" value="All"/>
    <property name="Passable" value="T"/>
   </properties>
  </object>
  <object id="196" name="TileData" x="1648" y="112" width="16" height="16">
   <properties>
    <property name="NoSpawn" value="All"/>
    <property name="Passable" value="T"/>
   </properties>
  </object>
  <object id="197" name="TileData" x="1648" y="96" width="16" height="16">
   <properties>
    <property name="NoSpawn" value="All"/>
    <property name="Passable" value="T"/>
   </properties>
  </object>
  <object id="198" name="TileData" x="1648" y="80" width="16" height="16">
   <properties>
    <property name="NoSpawn" value="All"/>
    <property name="Passable" value="T"/>
   </properties>
  </object>
  <object id="199" name="TileData" x="1648" y="48" width="16" height="16">
   <properties>
    <property name="NoPath" value="T"/>
    <property name="NoSpawn" value="All"/>
    <property name="Passable" value="T"/>
   </properties>
  </object>
  <object id="200" name="TileData" x="1648" y="16" width="16" height="16">
   <properties>
    <property name="NoPath" value="T"/>
    <property name="NoSpawn" value="All"/>
    <property name="Passable" value="T"/>
   </properties>
  </object>
  <object id="201" name="TileData" x="1648" y="32" width="16" height="16">
   <properties>
    <property name="NoPath" value="T"/>
    <property name="NoSpawn" value="All"/>
    <property name="Passable" value="T"/>
   </properties>
  </object>
  <object id="202" name="TileData" x="1648" y="0" width="16" height="16">
   <properties>
    <property name="NoPath" value="T"/>
    <property name="NoSpawn" value="All"/>
    <property name="Passable" value="T"/>
   </properties>
  </object>
  <object id="203" name="TileData" x="0" y="48" width="16" height="16">
   <properties>
    <property name="NoPath" value="T"/>
    <property name="NoSpawn" value="All"/>
    <property name="Passable" value="T"/>
   </properties>
  </object>
  <object id="204" name="TileData" x="0" y="32" width="16" height="16">
   <properties>
    <property name="NoPath" value="T"/>
    <property name="NoSpawn" value="All"/>
    <property name="Passable" value="T"/>
   </properties>
  </object>
  <object id="205" name="TileData" x="0" y="16" width="16" height="16">
   <properties>
    <property name="NoPath" value="T"/>
    <property name="NoSpawn" value="All"/>
    <property name="Passable" value="T"/>
   </properties>
  </object>
  <object id="206" name="TileData" x="0" y="0" width="16" height="16">
   <properties>
    <property name="NoPath" value="T"/>
    <property name="NoSpawn" value="All"/>
    <property name="Passable" value="T"/>
   </properties>
  </object>
  <object id="207" name="TileData" x="0" y="64" width="16" height="16">
   <properties>
    <property name="NoPath" value="T"/>
    <property name="NoSpawn" value="All"/>
    <property name="Passable" value="T"/>
   </properties>
  </object>
  <object id="208" name="TileData" x="0" y="80" width="16" height="16">
   <properties>
    <property name="NoSpawn" value="All"/>
   </properties>
  </object>
  <object id="209" name="TileData" x="0" y="96" width="16" height="16">
   <properties>
    <property name="NoSpawn" value="All"/>
   </properties>
  </object>
  <object id="210" name="TileData" x="0" y="112" width="16" height="16">
   <properties>
    <property name="NoSpawn" value="All"/>
   </properties>
  </object>
  <object id="211" name="TileData" x="0" y="128" width="16" height="16">
   <properties>
    <property name="NoSpawn" value="All"/>
   </properties>
  </object>
  <object id="229" name="TileData" x="128" y="368" width="16" height="16">
   <properties>
    <property name="NoFishing" value="T"/>
   </properties>
  </object>
  <object id="230" name="TileData" x="688" y="448" width="16" height="16">
   <properties>
    <property name="NoFishing" value="T"/>
   </properties>
  </object>
  <object id="231" name="TileData" x="704" y="448" width="16" height="16">
   <properties>
    <property name="NoFishing" value="T"/>
   </properties>
  </object>
  <object id="232" name="TileData" x="720" y="448" width="16" height="16">
   <properties>
    <property name="NoFishing" value="T"/>
   </properties>
  </object>
  <object id="233" name="TileData" x="576" y="464" width="16" height="16">
   <properties>
    <property name="NoFishing" value="T"/>
   </properties>
  </object>
  <object id="234" name="TileData" x="592" y="464" width="16" height="16">
   <properties>
    <property name="NoFishing" value="T"/>
   </properties>
  </object>
  <object id="235" name="TileData" x="608" y="464" width="16" height="16">
   <properties>
    <property name="NoFishing" value="T"/>
   </properties>
  </object>
  <object id="236" name="TileData" x="624" y="464" width="16" height="16">
   <properties>
    <property name="NoFishing" value="T"/>
   </properties>
  </object>
  <object id="237" name="TileData" x="640" y="464" width="16" height="16">
   <properties>
    <property name="NoFishing" value="T"/>
   </properties>
  </object>
  <object id="238" name="TileData" x="656" y="464" width="16" height="16">
   <properties>
    <property name="NoFishing" value="T"/>
   </properties>
  </object>
  <object id="239" name="TileData" x="672" y="464" width="16" height="16">
   <properties>
    <property name="NoFishing" value="T"/>
   </properties>
  </object>
  <object id="240" name="TileData" x="688" y="464" width="16" height="16">
   <properties>
    <property name="NoFishing" value="T"/>
   </properties>
  </object>
  <object id="241" name="TileData" x="704" y="464" width="16" height="16">
   <properties>
    <property name="NoFishing" value="T"/>
   </properties>
  </object>
  <object id="242" name="TileData" x="720" y="464" width="16" height="16">
   <properties>
    <property name="NoFishing" value="T"/>
   </properties>
  </object>
  <object id="243" name="TileData" x="880" y="464" width="16" height="16">
   <properties>
    <property name="NoFishing" value="T"/>
   </properties>
  </object>
  <object id="244" name="TileData" x="896" y="464" width="16" height="16">
   <properties>
    <property name="NoFishing" value="T"/>
   </properties>
  </object>
  <object id="245" name="TileData" x="912" y="464" width="16" height="16">
   <properties>
    <property name="NoFishing" value="T"/>
   </properties>
  </object>
  <object id="246" name="TileData" x="928" y="464" width="16" height="16">
   <properties>
    <property name="NoFishing" value="T"/>
   </properties>
  </object>
  <object id="247" name="TileData" x="944" y="464" width="16" height="16">
   <properties>
    <property name="NoFishing" value="T"/>
   </properties>
  </object>
  <object id="248" name="TileData" x="960" y="464" width="16" height="16">
   <properties>
    <property name="NoFishing" value="T"/>
   </properties>
  </object>
  <object id="249" name="TileData" x="976" y="464" width="16" height="16">
   <properties>
    <property name="NoFishing" value="T"/>
   </properties>
  </object>
  <object id="250" name="TileData" x="992" y="464" width="16" height="16">
   <properties>
    <property name="NoFishing" value="T"/>
   </properties>
  </object>
  <object id="251" name="TileData" x="1008" y="464" width="16" height="16">
   <properties>
    <property name="NoFishing" value="T"/>
   </properties>
  </object>
  <object id="252" name="TileData" x="1024" y="464" width="16" height="16">
   <properties>
    <property name="NoFishing" value="T"/>
   </properties>
  </object>
  <object id="253" name="TileData" x="1040" y="464" width="16" height="16">
   <properties>
    <property name="NoFishing" value="T"/>
   </properties>
  </object>
  <object id="254" name="TileData" x="1056" y="464" width="16" height="16">
   <properties>
    <property name="NoFishing" value="T"/>
   </properties>
  </object>
  <object id="255" name="TileData" x="1072" y="464" width="16" height="16">
   <properties>
    <property name="NoFishing" value="T"/>
   </properties>
  </object>
  <object id="256" name="TileData" x="1088" y="464" width="16" height="16">
   <properties>
    <property name="NoFishing" value="T"/>
   </properties>
  </object>
  <object id="257" name="TileData" x="1104" y="464" width="16" height="16">
   <properties>
    <property name="NoFishing" value="T"/>
   </properties>
  </object>
  <object id="258" name="TileData" x="1120" y="464" width="16" height="16">
   <properties>
    <property name="NoFishing" value="T"/>
   </properties>
  </object>
  <object id="259" name="TileData" x="1136" y="464" width="16" height="16">
   <properties>
    <property name="NoFishing" value="T"/>
   </properties>
  </object>
  <object id="260" name="TileData" x="1152" y="464" width="16" height="16">
   <properties>
    <property name="NoFishing" value="T"/>
   </properties>
  </object>
  <object id="261" name="TileData" x="288" y="480" width="16" height="16">
   <properties>
    <property name="NoFishing" value="T"/>
   </properties>
  </object>
  <object id="262" name="TileData" x="304" y="480" width="16" height="16">
   <properties>
    <property name="NoFishing" value="T"/>
   </properties>
  </object>
  <object id="263" name="TileData" x="320" y="480" width="16" height="16">
   <properties>
    <property name="NoFishing" value="T"/>
   </properties>
  </object>
  <object id="264" name="TileData" x="576" y="480" width="16" height="16">
   <properties>
    <property name="NoFishing" value="T"/>
   </properties>
  </object>
  <object id="265" name="TileData" x="592" y="480" width="16" height="16">
   <properties>
    <property name="NoFishing" value="T"/>
   </properties>
  </object>
  <object id="266" name="TileData" x="608" y="480" width="16" height="16">
   <properties>
    <property name="NoFishing" value="T"/>
   </properties>
  </object>
  <object id="267" name="TileData" x="624" y="480" width="16" height="16">
   <properties>
    <property name="NoFishing" value="T"/>
   </properties>
  </object>
  <object id="268" name="TileData" x="640" y="480" width="16" height="16">
   <properties>
    <property name="NoFishing" value="T"/>
   </properties>
  </object>
  <object id="269" name="TileData" x="656" y="480" width="16" height="16">
   <properties>
    <property name="NoFishing" value="T"/>
   </properties>
  </object>
  <object id="270" name="TileData" x="672" y="480" width="16" height="16">
   <properties>
    <property name="NoFishing" value="T"/>
   </properties>
  </object>
  <object id="271" name="TileData" x="704" y="480" width="16" height="16">
   <properties>
    <property name="NoFishing" value="T"/>
   </properties>
  </object>
  <object id="272" name="TileData" x="720" y="480" width="16" height="16">
   <properties>
    <property name="NoFishing" value="T"/>
   </properties>
  </object>
  <object id="273" name="TileData" x="880" y="480" width="16" height="16">
   <properties>
    <property name="NoFishing" value="T"/>
   </properties>
  </object>
  <object id="274" name="TileData" x="896" y="480" width="16" height="16">
   <properties>
    <property name="NoFishing" value="T"/>
   </properties>
  </object>
  <object id="275" name="TileData" x="928" y="480" width="16" height="16">
   <properties>
    <property name="NoFishing" value="T"/>
   </properties>
  </object>
  <object id="276" name="TileData" x="944" y="480" width="16" height="16">
   <properties>
    <property name="NoFishing" value="T"/>
   </properties>
  </object>
  <object id="277" name="TileData" x="960" y="480" width="16" height="16">
   <properties>
    <property name="NoFishing" value="T"/>
   </properties>
  </object>
  <object id="278" name="TileData" x="976" y="480" width="16" height="16">
   <properties>
    <property name="NoFishing" value="T"/>
   </properties>
  </object>
  <object id="279" name="TileData" x="992" y="480" width="16" height="16">
   <properties>
    <property name="NoFishing" value="T"/>
   </properties>
  </object>
  <object id="280" name="TileData" x="1008" y="480" width="16" height="16">
   <properties>
    <property name="NoFishing" value="T"/>
   </properties>
  </object>
  <object id="281" name="TileData" x="1024" y="480" width="16" height="16">
   <properties>
    <property name="NoFishing" value="T"/>
   </properties>
  </object>
  <object id="282" name="TileData" x="1040" y="480" width="16" height="16">
   <properties>
    <property name="NoFishing" value="T"/>
   </properties>
  </object>
  <object id="283" name="TileData" x="1056" y="480" width="16" height="16">
   <properties>
    <property name="NoFishing" value="T"/>
   </properties>
  </object>
  <object id="284" name="TileData" x="1072" y="480" width="16" height="16">
   <properties>
    <property name="NoFishing" value="T"/>
   </properties>
  </object>
  <object id="285" name="TileData" x="288" y="496" width="16" height="16">
   <properties>
    <property name="NoFishing" value="T"/>
   </properties>
  </object>
  <object id="286" name="TileData" x="304" y="496" width="16" height="16">
   <properties>
    <property name="NoFishing" value="T"/>
   </properties>
  </object>
  <object id="287" name="TileData" x="320" y="496" width="16" height="16">
   <properties>
    <property name="NoFishing" value="T"/>
   </properties>
  </object>
  <object id="288" name="TileData" x="336" y="496" width="16" height="16">
   <properties>
    <property name="NoFishing" value="T"/>
   </properties>
  </object>
  <object id="289" name="TileData" x="752" y="496" width="16" height="16">
   <properties>
    <property name="NoFishing" value="T"/>
   </properties>
  </object>
  <object id="290" name="TileData" x="768" y="496" width="16" height="16">
   <properties>
    <property name="NoFishing" value="T"/>
   </properties>
  </object>
  <object id="291" name="TileData" x="880" y="496" width="16" height="16">
   <properties>
    <property name="NoFishing" value="T"/>
   </properties>
  </object>
  <object id="292" name="TileData" x="896" y="496" width="16" height="16">
   <properties>
    <property name="NoFishing" value="T"/>
   </properties>
  </object>
  <object id="293" name="TileData" x="912" y="496" width="16" height="16">
   <properties>
    <property name="NoFishing" value="T"/>
   </properties>
  </object>
  <object id="294" name="TileData" x="944" y="496" width="16" height="16">
   <properties>
    <property name="NoFishing" value="T"/>
   </properties>
  </object>
  <object id="295" name="TileData" x="960" y="496" width="16" height="16">
   <properties>
    <property name="NoFishing" value="T"/>
   </properties>
  </object>
  <object id="296" name="TileData" x="976" y="496" width="16" height="16">
   <properties>
    <property name="NoFishing" value="T"/>
   </properties>
  </object>
  <object id="297" name="TileData" x="992" y="496" width="16" height="16">
   <properties>
    <property name="NoFishing" value="T"/>
   </properties>
  </object>
  <object id="298" name="TileData" x="1008" y="496" width="16" height="16">
   <properties>
    <property name="NoFishing" value="T"/>
   </properties>
  </object>
  <object id="299" name="TileData" x="1024" y="496" width="16" height="16">
   <properties>
    <property name="NoFishing" value="T"/>
   </properties>
  </object>
  <object id="300" name="TileData" x="1040" y="496" width="16" height="16">
   <properties>
    <property name="NoFishing" value="T"/>
   </properties>
  </object>
  <object id="301" name="TileData" x="1056" y="496" width="16" height="16">
   <properties>
    <property name="NoFishing" value="T"/>
   </properties>
  </object>
  <object id="302" name="TileData" x="1072" y="496" width="16" height="16">
   <properties>
    <property name="NoFishing" value="T"/>
   </properties>
  </object>
  <object id="303" name="TileData" x="1088" y="496" width="16" height="16">
   <properties>
    <property name="NoFishing" value="T"/>
   </properties>
  </object>
  <object id="304" name="TileData" x="1104" y="496" width="16" height="16">
   <properties>
    <property name="NoFishing" value="T"/>
   </properties>
  </object>
  <object id="305" name="TileData" x="1120" y="496" width="16" height="16">
   <properties>
    <property name="NoFishing" value="T"/>
   </properties>
  </object>
  <object id="306" name="TileData" x="240" y="512" width="16" height="16">
   <properties>
    <property name="NoFishing" value="T"/>
   </properties>
  </object>
  <object id="307" name="TileData" x="256" y="512" width="16" height="16">
   <properties>
    <property name="NoFishing" value="T"/>
   </properties>
  </object>
  <object id="308" name="TileData" x="272" y="512" width="16" height="16">
   <properties>
    <property name="NoFishing" value="T"/>
   </properties>
  </object>
  <object id="309" name="TileData" x="288" y="512" width="16" height="16">
   <properties>
    <property name="NoFishing" value="T"/>
   </properties>
  </object>
  <object id="310" name="TileData" x="304" y="512" width="16" height="16">
   <properties>
    <property name="NoFishing" value="T"/>
   </properties>
  </object>
  <object id="311" name="TileData" x="320" y="512" width="16" height="16">
   <properties>
    <property name="NoFishing" value="T"/>
   </properties>
  </object>
  <object id="312" name="TileData" x="336" y="512" width="16" height="16">
   <properties>
    <property name="NoFishing" value="T"/>
   </properties>
  </object>
  <object id="313" name="TileData" x="352" y="512" width="16" height="16">
   <properties>
    <property name="NoFishing" value="T"/>
   </properties>
  </object>
  <object id="314" name="TileData" x="736" y="512" width="16" height="16">
   <properties>
    <property name="NoFishing" value="T"/>
   </properties>
  </object>
  <object id="315" name="TileData" x="752" y="512" width="16" height="16">
   <properties>
    <property name="NoFishing" value="T"/>
   </properties>
  </object>
  <object id="316" name="TileData" x="768" y="512" width="16" height="16">
   <properties>
    <property name="NoFishing" value="T"/>
   </properties>
  </object>
  <object id="317" name="TileData" x="784" y="512" width="16" height="16">
   <properties>
    <property name="NoFishing" value="T"/>
   </properties>
  </object>
  <object id="318" name="TileData" x="800" y="512" width="16" height="16">
   <properties>
    <property name="NoFishing" value="T"/>
   </properties>
  </object>
  <object id="319" name="TileData" x="816" y="512" width="16" height="16">
   <properties>
    <property name="NoFishing" value="T"/>
   </properties>
  </object>
  <object id="320" name="TileData" x="832" y="512" width="16" height="16">
   <properties>
    <property name="NoFishing" value="T"/>
   </properties>
  </object>
  <object id="321" name="TileData" x="848" y="512" width="16" height="16">
   <properties>
    <property name="NoFishing" value="T"/>
   </properties>
  </object>
  <object id="322" name="TileData" x="880" y="512" width="16" height="16">
   <properties>
    <property name="NoFishing" value="T"/>
   </properties>
  </object>
  <object id="323" name="TileData" x="896" y="512" width="16" height="16">
   <properties>
    <property name="NoFishing" value="T"/>
   </properties>
  </object>
  <object id="324" name="TileData" x="912" y="512" width="16" height="16">
   <properties>
    <property name="NoFishing" value="T"/>
   </properties>
  </object>
  <object id="325" name="TileData" x="944" y="512" width="16" height="16">
   <properties>
    <property name="NoFishing" value="T"/>
   </properties>
  </object>
  <object id="326" name="TileData" x="960" y="512" width="16" height="16">
   <properties>
    <property name="NoFishing" value="T"/>
   </properties>
  </object>
  <object id="327" name="TileData" x="976" y="512" width="16" height="16">
   <properties>
    <property name="NoFishing" value="T"/>
   </properties>
  </object>
  <object id="328" name="TileData" x="992" y="512" width="16" height="16">
   <properties>
    <property name="NoFishing" value="T"/>
   </properties>
  </object>
  <object id="329" name="TileData" x="1008" y="512" width="16" height="16">
   <properties>
    <property name="NoFishing" value="T"/>
   </properties>
  </object>
  <object id="330" name="TileData" x="1024" y="512" width="16" height="16">
   <properties>
    <property name="NoFishing" value="T"/>
   </properties>
  </object>
  <object id="331" name="TileData" x="1040" y="512" width="16" height="16">
   <properties>
    <property name="NoFishing" value="T"/>
   </properties>
  </object>
  <object id="332" name="TileData" x="1056" y="512" width="16" height="16">
   <properties>
    <property name="NoFishing" value="T"/>
   </properties>
  </object>
  <object id="333" name="TileData" x="1072" y="512" width="16" height="16">
   <properties>
    <property name="NoFishing" value="T"/>
   </properties>
  </object>
  <object id="334" name="TileData" x="1088" y="512" width="16" height="16">
   <properties>
    <property name="NoFishing" value="T"/>
   </properties>
  </object>
  <object id="335" name="TileData" x="1104" y="512" width="16" height="16">
   <properties>
    <property name="NoFishing" value="T"/>
   </properties>
  </object>
  <object id="336" name="TileData" x="1120" y="512" width="16" height="16">
   <properties>
    <property name="NoFishing" value="T"/>
   </properties>
  </object>
  <object id="337" name="TileData" x="0" y="528" width="16" height="16">
   <properties>
    <property name="NoFishing" value="T"/>
   </properties>
  </object>
  <object id="338" name="TileData" x="16" y="528" width="16" height="16">
   <properties>
    <property name="NoFishing" value="T"/>
   </properties>
  </object>
  <object id="339" name="TileData" x="32" y="528" width="16" height="16">
   <properties>
    <property name="NoFishing" value="T"/>
   </properties>
  </object>
  <object id="340" name="TileData" x="48" y="528" width="16" height="16">
   <properties>
    <property name="NoFishing" value="T"/>
   </properties>
  </object>
  <object id="341" name="TileData" x="64" y="528" width="16" height="16">
   <properties>
    <property name="NoFishing" value="T"/>
   </properties>
  </object>
  <object id="342" name="TileData" x="80" y="528" width="16" height="16">
   <properties>
    <property name="NoFishing" value="T"/>
   </properties>
  </object>
  <object id="343" name="TileData" x="96" y="528" width="16" height="16">
   <properties>
    <property name="NoFishing" value="T"/>
   </properties>
  </object>
  <object id="344" name="TileData" x="112" y="528" width="16" height="16">
   <properties>
    <property name="NoFishing" value="T"/>
   </properties>
  </object>
  <object id="345" name="TileData" x="128" y="528" width="16" height="16">
   <properties>
    <property name="NoFishing" value="T"/>
   </properties>
  </object>
  <object id="346" name="TileData" x="144" y="528" width="16" height="16">
   <properties>
    <property name="NoFishing" value="T"/>
   </properties>
  </object>
  <object id="347" name="TileData" x="160" y="528" width="16" height="16">
   <properties>
    <property name="NoFishing" value="T"/>
   </properties>
  </object>
  <object id="348" name="TileData" x="240" y="528" width="16" height="16">
   <properties>
    <property name="NoFishing" value="T"/>
   </properties>
  </object>
  <object id="349" name="TileData" x="256" y="528" width="16" height="16">
   <properties>
    <property name="NoFishing" value="T"/>
   </properties>
  </object>
  <object id="350" name="TileData" x="272" y="528" width="16" height="16">
   <properties>
    <property name="NoFishing" value="T"/>
   </properties>
  </object>
  <object id="351" name="TileData" x="288" y="528" width="16" height="16">
   <properties>
    <property name="NoFishing" value="T"/>
   </properties>
  </object>
  <object id="352" name="TileData" x="304" y="528" width="16" height="16">
   <properties>
    <property name="NoFishing" value="T"/>
   </properties>
  </object>
  <object id="353" name="TileData" x="320" y="528" width="16" height="16">
   <properties>
    <property name="NoFishing" value="T"/>
   </properties>
  </object>
  <object id="354" name="TileData" x="336" y="528" width="16" height="16">
   <properties>
    <property name="NoFishing" value="T"/>
   </properties>
  </object>
  <object id="355" name="TileData" x="352" y="528" width="16" height="16">
   <properties>
    <property name="NoFishing" value="T"/>
   </properties>
  </object>
  <object id="356" name="TileData" x="736" y="528" width="16" height="16">
   <properties>
    <property name="NoFishing" value="T"/>
   </properties>
  </object>
  <object id="357" name="TileData" x="752" y="528" width="16" height="16">
   <properties>
    <property name="NoFishing" value="T"/>
   </properties>
  </object>
  <object id="358" name="TileData" x="768" y="528" width="16" height="16">
   <properties>
    <property name="NoFishing" value="T"/>
   </properties>
  </object>
  <object id="359" name="TileData" x="800" y="528" width="16" height="16">
   <properties>
    <property name="NoFishing" value="T"/>
   </properties>
  </object>
  <object id="360" name="TileData" x="816" y="528" width="16" height="16">
   <properties>
    <property name="NoFishing" value="T"/>
   </properties>
  </object>
  <object id="361" name="TileData" x="832" y="528" width="16" height="16">
   <properties>
    <property name="NoFishing" value="T"/>
   </properties>
  </object>
  <object id="362" name="TileData" x="848" y="528" width="16" height="16">
   <properties>
    <property name="NoFishing" value="T"/>
   </properties>
  </object>
  <object id="363" name="TileData" x="880" y="528" width="16" height="16">
   <properties>
    <property name="NoFishing" value="T"/>
   </properties>
  </object>
  <object id="364" name="TileData" x="896" y="528" width="16" height="16">
   <properties>
    <property name="NoFishing" value="T"/>
   </properties>
  </object>
  <object id="365" name="TileData" x="912" y="528" width="16" height="16">
   <properties>
    <property name="NoFishing" value="T"/>
   </properties>
  </object>
  <object id="366" name="TileData" x="944" y="528" width="16" height="16">
   <properties>
    <property name="NoFishing" value="T"/>
   </properties>
  </object>
  <object id="367" name="TileData" x="960" y="528" width="16" height="16">
   <properties>
    <property name="NoFishing" value="T"/>
   </properties>
  </object>
  <object id="368" name="TileData" x="976" y="528" width="16" height="16">
   <properties>
    <property name="NoFishing" value="T"/>
   </properties>
  </object>
  <object id="369" name="TileData" x="992" y="528" width="16" height="16">
   <properties>
    <property name="NoFishing" value="T"/>
   </properties>
  </object>
  <object id="370" name="TileData" x="1008" y="528" width="16" height="16">
   <properties>
    <property name="NoFishing" value="T"/>
   </properties>
  </object>
  <object id="371" name="TileData" x="1024" y="528" width="16" height="16">
   <properties>
    <property name="NoFishing" value="T"/>
   </properties>
  </object>
  <object id="372" name="TileData" x="1040" y="528" width="16" height="16">
   <properties>
    <property name="NoFishing" value="T"/>
   </properties>
  </object>
  <object id="373" name="TileData" x="1056" y="528" width="16" height="16">
   <properties>
    <property name="NoFishing" value="T"/>
   </properties>
  </object>
  <object id="374" name="TileData" x="1072" y="528" width="16" height="16">
   <properties>
    <property name="NoFishing" value="T"/>
   </properties>
  </object>
  <object id="375" name="TileData" x="1088" y="528" width="16" height="16">
   <properties>
    <property name="NoFishing" value="T"/>
   </properties>
  </object>
  <object id="376" name="TileData" x="1104" y="528" width="16" height="16">
   <properties>
    <property name="NoFishing" value="T"/>
   </properties>
  </object>
  <object id="377" name="TileData" x="1120" y="528" width="16" height="16">
   <properties>
    <property name="NoFishing" value="T"/>
   </properties>
  </object>
  <object id="378" name="TileData" x="0" y="544" width="16" height="16">
   <properties>
    <property name="NoFishing" value="T"/>
   </properties>
  </object>
  <object id="379" name="TileData" x="16" y="544" width="16" height="16">
   <properties>
    <property name="NoFishing" value="T"/>
   </properties>
  </object>
  <object id="380" name="TileData" x="32" y="544" width="16" height="16">
   <properties>
    <property name="NoFishing" value="T"/>
   </properties>
  </object>
  <object id="381" name="TileData" x="48" y="544" width="16" height="16">
   <properties>
    <property name="NoFishing" value="T"/>
   </properties>
  </object>
  <object id="382" name="TileData" x="64" y="544" width="16" height="16">
   <properties>
    <property name="NoFishing" value="T"/>
   </properties>
  </object>
  <object id="383" name="TileData" x="80" y="544" width="16" height="16">
   <properties>
    <property name="NoFishing" value="T"/>
   </properties>
  </object>
  <object id="384" name="TileData" x="96" y="544" width="16" height="16">
   <properties>
    <property name="NoFishing" value="T"/>
   </properties>
  </object>
  <object id="385" name="TileData" x="112" y="544" width="16" height="16">
   <properties>
    <property name="NoFishing" value="T"/>
   </properties>
  </object>
  <object id="386" name="TileData" x="128" y="544" width="16" height="16">
   <properties>
    <property name="NoFishing" value="T"/>
   </properties>
  </object>
  <object id="387" name="TileData" x="144" y="544" width="16" height="16">
   <properties>
    <property name="NoFishing" value="T"/>
   </properties>
  </object>
  <object id="388" name="TileData" x="160" y="544" width="16" height="16">
   <properties>
    <property name="NoFishing" value="T"/>
   </properties>
  </object>
  <object id="389" name="TileData" x="240" y="544" width="16" height="16">
   <properties>
    <property name="NoFishing" value="T"/>
   </properties>
  </object>
  <object id="390" name="TileData" x="256" y="544" width="16" height="16">
   <properties>
    <property name="NoFishing" value="T"/>
   </properties>
  </object>
  <object id="391" name="TileData" x="272" y="544" width="16" height="16">
   <properties>
    <property name="NoFishing" value="T"/>
   </properties>
  </object>
  <object id="392" name="TileData" x="288" y="544" width="16" height="16">
   <properties>
    <property name="NoFishing" value="T"/>
   </properties>
  </object>
  <object id="393" name="TileData" x="320" y="544" width="16" height="16">
   <properties>
    <property name="NoFishing" value="T"/>
   </properties>
  </object>
  <object id="394" name="TileData" x="336" y="544" width="16" height="16">
   <properties>
    <property name="NoFishing" value="T"/>
   </properties>
  </object>
  <object id="395" name="TileData" x="352" y="544" width="16" height="16">
   <properties>
    <property name="NoFishing" value="T"/>
   </properties>
  </object>
  <object id="396" name="TileData" x="736" y="544" width="16" height="16">
   <properties>
    <property name="NoFishing" value="T"/>
   </properties>
  </object>
  <object id="397" name="TileData" x="784" y="544" width="16" height="16">
   <properties>
    <property name="NoFishing" value="T"/>
   </properties>
  </object>
  <object id="398" name="TileData" x="800" y="544" width="16" height="16">
   <properties>
    <property name="NoFishing" value="T"/>
   </properties>
  </object>
  <object id="399" name="TileData" x="816" y="544" width="16" height="16">
   <properties>
    <property name="NoFishing" value="T"/>
   </properties>
  </object>
  <object id="400" name="TileData" x="832" y="544" width="16" height="16">
   <properties>
    <property name="NoFishing" value="T"/>
   </properties>
  </object>
  <object id="401" name="TileData" x="848" y="544" width="16" height="16">
   <properties>
    <property name="NoFishing" value="T"/>
   </properties>
  </object>
  <object id="402" name="TileData" x="880" y="544" width="16" height="16">
   <properties>
    <property name="NoFishing" value="T"/>
   </properties>
  </object>
  <object id="403" name="TileData" x="896" y="544" width="16" height="16">
   <properties>
    <property name="NoFishing" value="T"/>
   </properties>
  </object>
  <object id="404" name="TileData" x="912" y="544" width="16" height="16">
   <properties>
    <property name="NoFishing" value="T"/>
   </properties>
  </object>
  <object id="405" name="TileData" x="976" y="544" width="16" height="16">
   <properties>
    <property name="NoFishing" value="T"/>
   </properties>
  </object>
  <object id="406" name="TileData" x="992" y="544" width="16" height="16">
   <properties>
    <property name="NoFishing" value="T"/>
   </properties>
  </object>
  <object id="407" name="TileData" x="1008" y="544" width="16" height="16">
   <properties>
    <property name="NoFishing" value="T"/>
   </properties>
  </object>
  <object id="408" name="TileData" x="1024" y="544" width="16" height="16">
   <properties>
    <property name="NoFishing" value="T"/>
   </properties>
  </object>
  <object id="409" name="TileData" x="1040" y="544" width="16" height="16">
   <properties>
    <property name="NoFishing" value="T"/>
   </properties>
  </object>
  <object id="410" name="TileData" x="1056" y="544" width="16" height="16">
   <properties>
    <property name="NoFishing" value="T"/>
   </properties>
  </object>
  <object id="411" name="TileData" x="1072" y="544" width="16" height="16">
   <properties>
    <property name="NoFishing" value="T"/>
   </properties>
  </object>
  <object id="412" name="TileData" x="1088" y="544" width="16" height="16">
   <properties>
    <property name="NoFishing" value="T"/>
   </properties>
  </object>
  <object id="413" name="TileData" x="1104" y="544" width="16" height="16">
   <properties>
    <property name="NoFishing" value="T"/>
   </properties>
  </object>
  <object id="414" name="TileData" x="0" y="560" width="16" height="16">
   <properties>
    <property name="NoFishing" value="T"/>
   </properties>
  </object>
  <object id="415" name="TileData" x="16" y="560" width="16" height="16">
   <properties>
    <property name="NoFishing" value="T"/>
   </properties>
  </object>
  <object id="416" name="TileData" x="32" y="560" width="16" height="16">
   <properties>
    <property name="NoFishing" value="T"/>
   </properties>
  </object>
  <object id="417" name="TileData" x="48" y="560" width="16" height="16">
   <properties>
    <property name="NoFishing" value="T"/>
   </properties>
  </object>
  <object id="418" name="TileData" x="64" y="560" width="16" height="16">
   <properties>
    <property name="NoFishing" value="T"/>
   </properties>
  </object>
  <object id="419" name="TileData" x="96" y="560" width="16" height="16">
   <properties>
    <property name="NoFishing" value="T"/>
   </properties>
  </object>
  <object id="420" name="TileData" x="112" y="560" width="16" height="16">
   <properties>
    <property name="NoFishing" value="T"/>
   </properties>
  </object>
  <object id="421" name="TileData" x="128" y="560" width="16" height="16">
   <properties>
    <property name="NoFishing" value="T"/>
   </properties>
  </object>
  <object id="422" name="TileData" x="144" y="560" width="16" height="16">
   <properties>
    <property name="NoFishing" value="T"/>
   </properties>
  </object>
  <object id="423" name="TileData" x="160" y="560" width="16" height="16">
   <properties>
    <property name="NoFishing" value="T"/>
   </properties>
  </object>
  <object id="424" name="TileData" x="784" y="560" width="16" height="16">
   <properties>
    <property name="NoFishing" value="T"/>
   </properties>
  </object>
  <object id="425" name="TileData" x="800" y="560" width="16" height="16">
   <properties>
    <property name="NoFishing" value="T"/>
   </properties>
  </object>
  <object id="426" name="TileData" x="816" y="560" width="16" height="16">
   <properties>
    <property name="NoFishing" value="T"/>
   </properties>
  </object>
  <object id="427" name="TileData" x="832" y="560" width="16" height="16">
   <properties>
    <property name="NoFishing" value="T"/>
   </properties>
  </object>
  <object id="428" name="TileData" x="848" y="560" width="16" height="16">
   <properties>
    <property name="NoFishing" value="T"/>
   </properties>
  </object>
  <object id="429" name="TileData" x="1056" y="560" width="16" height="16">
   <properties>
    <property name="NoFishing" value="T"/>
   </properties>
  </object>
  <object id="430" name="TileData" x="1072" y="560" width="16" height="16">
   <properties>
    <property name="NoFishing" value="T"/>
   </properties>
  </object>
  <object id="431" name="TileData" x="1088" y="560" width="16" height="16">
   <properties>
    <property name="NoFishing" value="T"/>
   </properties>
  </object>
  <object id="432" name="TileData" x="1104" y="560" width="16" height="16">
   <properties>
    <property name="NoFishing" value="T"/>
   </properties>
  </object>
  <object id="433" name="TileData" x="752" y="576" width="16" height="16">
   <properties>
    <property name="NoFishing" value="T"/>
   </properties>
  </object>
  <object id="434" name="TileData" x="768" y="576" width="16" height="16">
   <properties>
    <property name="NoFishing" value="T"/>
   </properties>
  </object>
  <object id="435" name="TileData" x="784" y="576" width="16" height="16">
   <properties>
    <property name="NoFishing" value="T"/>
   </properties>
  </object>
  <object id="436" name="TileData" x="800" y="576" width="16" height="16">
   <properties>
    <property name="NoFishing" value="T"/>
   </properties>
  </object>
  <object id="437" name="TileData" x="816" y="576" width="16" height="16">
   <properties>
    <property name="NoFishing" value="T"/>
   </properties>
  </object>
  <object id="438" name="TileData" x="832" y="576" width="16" height="16">
   <properties>
    <property name="NoFishing" value="T"/>
   </properties>
  </object>
  <object id="439" name="TileData" x="848" y="576" width="16" height="16">
   <properties>
    <property name="NoFishing" value="T"/>
   </properties>
  </object>
  <object id="440" name="TileData" x="864" y="576" width="16" height="16">
   <properties>
    <property name="NoFishing" value="T"/>
   </properties>
  </object>
  <object id="441" name="TileData" x="880" y="576" width="16" height="16">
   <properties>
    <property name="NoFishing" value="T"/>
   </properties>
  </object>
  <object id="442" name="TileData" x="752" y="592" width="16" height="16">
   <properties>
    <property name="NoFishing" value="T"/>
   </properties>
  </object>
  <object id="443" name="TileData" x="768" y="592" width="16" height="16">
   <properties>
    <property name="NoFishing" value="T"/>
   </properties>
  </object>
  <object id="444" name="TileData" x="784" y="592" width="16" height="16">
   <properties>
    <property name="NoFishing" value="T"/>
   </properties>
  </object>
  <object id="445" name="TileData" x="800" y="592" width="16" height="16">
   <properties>
    <property name="NoFishing" value="T"/>
   </properties>
  </object>
  <object id="446" name="TileData" x="816" y="592" width="16" height="16">
   <properties>
    <property name="NoFishing" value="T"/>
   </properties>
  </object>
  <object id="447" name="TileData" x="832" y="592" width="16" height="16">
   <properties>
    <property name="NoFishing" value="T"/>
   </properties>
  </object>
  <object id="448" name="TileData" x="848" y="592" width="16" height="16">
   <properties>
    <property name="NoFishing" value="T"/>
   </properties>
  </object>
  <object id="449" name="TileData" x="864" y="592" width="16" height="16">
   <properties>
    <property name="NoFishing" value="T"/>
   </properties>
  </object>
  <object id="450" name="TileData" x="880" y="592" width="16" height="16">
   <properties>
    <property name="NoFishing" value="T"/>
   </properties>
  </object>
  <object id="451" name="TileData" x="352" y="608" width="16" height="16">
   <properties>
    <property name="NoFishing" value="T"/>
   </properties>
  </object>
  <object id="452" name="TileData" x="368" y="608" width="16" height="16">
   <properties>
    <property name="NoFishing" value="T"/>
   </properties>
  </object>
  <object id="453" name="TileData" x="384" y="608" width="16" height="16">
   <properties>
    <property name="NoFishing" value="T"/>
   </properties>
  </object>
  <object id="454" name="TileData" x="400" y="608" width="16" height="16">
   <properties>
    <property name="NoFishing" value="T"/>
   </properties>
  </object>
  <object id="455" name="TileData" x="416" y="608" width="16" height="16">
   <properties>
    <property name="NoFishing" value="T"/>
   </properties>
  </object>
  <object id="456" name="TileData" x="432" y="608" width="16" height="16">
   <properties>
    <property name="NoFishing" value="T"/>
   </properties>
  </object>
  <object id="457" name="TileData" x="448" y="608" width="16" height="16">
   <properties>
    <property name="NoFishing" value="T"/>
   </properties>
  </object>
  <object id="458" name="TileData" x="464" y="608" width="16" height="16">
   <properties>
    <property name="NoFishing" value="T"/>
   </properties>
  </object>
  <object id="459" name="TileData" x="480" y="608" width="16" height="16">
   <properties>
    <property name="NoFishing" value="T"/>
   </properties>
  </object>
  <object id="460" name="TileData" x="704" y="608" width="16" height="16">
   <properties>
    <property name="NoFishing" value="T"/>
   </properties>
  </object>
  <object id="461" name="TileData" x="720" y="608" width="16" height="16">
   <properties>
    <property name="NoFishing" value="T"/>
   </properties>
  </object>
  <object id="462" name="TileData" x="736" y="608" width="16" height="16">
   <properties>
    <property name="NoFishing" value="T"/>
   </properties>
  </object>
  <object id="463" name="TileData" x="752" y="608" width="16" height="16">
   <properties>
    <property name="NoFishing" value="T"/>
   </properties>
  </object>
  <object id="464" name="TileData" x="768" y="608" width="16" height="16">
   <properties>
    <property name="NoFishing" value="T"/>
   </properties>
  </object>
  <object id="465" name="TileData" x="784" y="608" width="16" height="16">
   <properties>
    <property name="NoFishing" value="T"/>
   </properties>
  </object>
  <object id="466" name="TileData" x="800" y="608" width="16" height="16">
   <properties>
    <property name="NoFishing" value="T"/>
   </properties>
  </object>
  <object id="467" name="TileData" x="816" y="608" width="16" height="16">
   <properties>
    <property name="NoFishing" value="T"/>
   </properties>
  </object>
  <object id="468" name="TileData" x="832" y="608" width="16" height="16">
   <properties>
    <property name="NoFishing" value="T"/>
   </properties>
  </object>
  <object id="469" name="TileData" x="848" y="608" width="16" height="16">
   <properties>
    <property name="NoFishing" value="T"/>
   </properties>
  </object>
  <object id="470" name="TileData" x="864" y="608" width="16" height="16">
   <properties>
    <property name="NoFishing" value="T"/>
   </properties>
  </object>
  <object id="471" name="TileData" x="880" y="608" width="16" height="16">
   <properties>
    <property name="NoFishing" value="T"/>
   </properties>
  </object>
  <object id="472" name="TileData" x="80" y="624" width="16" height="16">
   <properties>
    <property name="NoFishing" value="T"/>
   </properties>
  </object>
  <object id="473" name="TileData" x="304" y="624" width="16" height="16">
   <properties>
    <property name="NoFishing" value="T"/>
   </properties>
  </object>
  <object id="474" name="TileData" x="320" y="624" width="16" height="16">
   <properties>
    <property name="NoFishing" value="T"/>
   </properties>
  </object>
  <object id="475" name="TileData" x="336" y="624" width="16" height="16">
   <properties>
    <property name="NoFishing" value="T"/>
   </properties>
  </object>
  <object id="476" name="TileData" x="352" y="624" width="16" height="16">
   <properties>
    <property name="NoFishing" value="T"/>
   </properties>
  </object>
  <object id="477" name="TileData" x="368" y="624" width="16" height="16">
   <properties>
    <property name="NoFishing" value="T"/>
   </properties>
  </object>
  <object id="478" name="TileData" x="384" y="624" width="16" height="16">
   <properties>
    <property name="NoFishing" value="T"/>
   </properties>
  </object>
  <object id="479" name="TileData" x="400" y="624" width="16" height="16">
   <properties>
    <property name="NoFishing" value="T"/>
   </properties>
  </object>
  <object id="480" name="TileData" x="416" y="624" width="16" height="16">
   <properties>
    <property name="NoFishing" value="T"/>
   </properties>
  </object>
  <object id="481" name="TileData" x="432" y="624" width="16" height="16">
   <properties>
    <property name="NoFishing" value="T"/>
   </properties>
  </object>
  <object id="482" name="TileData" x="448" y="624" width="16" height="16">
   <properties>
    <property name="NoFishing" value="T"/>
   </properties>
  </object>
  <object id="483" name="TileData" x="464" y="624" width="16" height="16">
   <properties>
    <property name="NoFishing" value="T"/>
   </properties>
  </object>
  <object id="484" name="TileData" x="480" y="624" width="16" height="16">
   <properties>
    <property name="NoFishing" value="T"/>
   </properties>
  </object>
  <object id="485" name="TileData" x="528" y="624" width="16" height="16">
   <properties>
    <property name="NoFishing" value="T"/>
   </properties>
  </object>
  <object id="486" name="TileData" x="544" y="624" width="16" height="16">
   <properties>
    <property name="NoFishing" value="T"/>
   </properties>
  </object>
  <object id="487" name="TileData" x="560" y="624" width="16" height="16">
   <properties>
    <property name="NoFishing" value="T"/>
   </properties>
  </object>
  <object id="488" name="TileData" x="576" y="624" width="16" height="16">
   <properties>
    <property name="NoFishing" value="T"/>
   </properties>
  </object>
  <object id="489" name="TileData" x="592" y="624" width="16" height="16">
   <properties>
    <property name="NoFishing" value="T"/>
   </properties>
  </object>
  <object id="490" name="TileData" x="608" y="624" width="16" height="16">
   <properties>
    <property name="NoFishing" value="T"/>
   </properties>
  </object>
  <object id="491" name="TileData" x="624" y="624" width="16" height="16">
   <properties>
    <property name="NoFishing" value="T"/>
   </properties>
  </object>
  <object id="492" name="TileData" x="640" y="624" width="16" height="16">
   <properties>
    <property name="NoFishing" value="T"/>
   </properties>
  </object>
  <object id="493" name="TileData" x="656" y="624" width="16" height="16">
   <properties>
    <property name="NoFishing" value="T"/>
   </properties>
  </object>
  <object id="494" name="TileData" x="672" y="624" width="16" height="16">
   <properties>
    <property name="NoFishing" value="T"/>
   </properties>
  </object>
  <object id="495" name="TileData" x="704" y="624" width="16" height="16">
   <properties>
    <property name="NoFishing" value="T"/>
   </properties>
  </object>
  <object id="496" name="TileData" x="720" y="624" width="16" height="16">
   <properties>
    <property name="NoFishing" value="T"/>
   </properties>
  </object>
  <object id="497" name="TileData" x="736" y="624" width="16" height="16">
   <properties>
    <property name="NoFishing" value="T"/>
   </properties>
  </object>
  <object id="498" name="TileData" x="800" y="624" width="16" height="16">
   <properties>
    <property name="NoFishing" value="T"/>
   </properties>
  </object>
  <object id="499" name="TileData" x="304" y="640" width="16" height="16">
   <properties>
    <property name="NoFishing" value="T"/>
   </properties>
  </object>
  <object id="500" name="TileData" x="320" y="640" width="16" height="16">
   <properties>
    <property name="NoFishing" value="T"/>
   </properties>
  </object>
  <object id="501" name="TileData" x="336" y="640" width="16" height="16">
   <properties>
    <property name="NoFishing" value="T"/>
   </properties>
  </object>
  <object id="502" name="TileData" x="352" y="640" width="16" height="16">
   <properties>
    <property name="NoFishing" value="T"/>
   </properties>
  </object>
  <object id="503" name="TileData" x="368" y="640" width="16" height="16">
   <properties>
    <property name="NoFishing" value="T"/>
   </properties>
  </object>
  <object id="504" name="TileData" x="384" y="640" width="16" height="16">
   <properties>
    <property name="NoFishing" value="T"/>
   </properties>
  </object>
  <object id="505" name="TileData" x="400" y="640" width="16" height="16">
   <properties>
    <property name="NoFishing" value="T"/>
   </properties>
  </object>
  <object id="506" name="TileData" x="416" y="640" width="16" height="16">
   <properties>
    <property name="NoFishing" value="T"/>
   </properties>
  </object>
  <object id="507" name="TileData" x="432" y="640" width="16" height="16">
   <properties>
    <property name="NoFishing" value="T"/>
   </properties>
  </object>
  <object id="508" name="TileData" x="448" y="640" width="16" height="16">
   <properties>
    <property name="NoFishing" value="T"/>
   </properties>
  </object>
  <object id="509" name="TileData" x="464" y="640" width="16" height="16">
   <properties>
    <property name="NoFishing" value="T"/>
   </properties>
  </object>
  <object id="510" name="TileData" x="480" y="640" width="16" height="16">
   <properties>
    <property name="NoFishing" value="T"/>
   </properties>
  </object>
  <object id="511" name="TileData" x="528" y="640" width="16" height="16">
   <properties>
    <property name="NoFishing" value="T"/>
   </properties>
  </object>
  <object id="512" name="TileData" x="544" y="640" width="16" height="16">
   <properties>
    <property name="NoFishing" value="T"/>
   </properties>
  </object>
  <object id="513" name="TileData" x="560" y="640" width="16" height="16">
   <properties>
    <property name="NoFishing" value="T"/>
   </properties>
  </object>
  <object id="514" name="TileData" x="576" y="640" width="16" height="16">
   <properties>
    <property name="NoFishing" value="T"/>
   </properties>
  </object>
  <object id="515" name="TileData" x="592" y="640" width="16" height="16">
   <properties>
    <property name="NoFishing" value="T"/>
   </properties>
  </object>
  <object id="516" name="TileData" x="608" y="640" width="16" height="16">
   <properties>
    <property name="NoFishing" value="T"/>
   </properties>
  </object>
  <object id="517" name="TileData" x="624" y="640" width="16" height="16">
   <properties>
    <property name="NoFishing" value="T"/>
   </properties>
  </object>
  <object id="518" name="TileData" x="640" y="640" width="16" height="16">
   <properties>
    <property name="NoFishing" value="T"/>
   </properties>
  </object>
  <object id="519" name="TileData" x="656" y="640" width="16" height="16">
   <properties>
    <property name="NoFishing" value="T"/>
   </properties>
  </object>
  <object id="520" name="TileData" x="672" y="640" width="16" height="16">
   <properties>
    <property name="NoFishing" value="T"/>
   </properties>
  </object>
  <object id="521" name="TileData" x="704" y="640" width="16" height="16">
   <properties>
    <property name="NoFishing" value="T"/>
   </properties>
  </object>
  <object id="522" name="TileData" x="720" y="640" width="16" height="16">
   <properties>
    <property name="NoFishing" value="T"/>
   </properties>
  </object>
  <object id="523" name="TileData" x="736" y="640" width="16" height="16">
   <properties>
    <property name="NoFishing" value="T"/>
   </properties>
  </object>
  <object id="524" name="TileData" x="992" y="640" width="16" height="16">
   <properties>
    <property name="NoFishing" value="T"/>
   </properties>
  </object>
  <object id="525" name="TileData" x="112" y="656" width="16" height="16">
   <properties>
    <property name="NoFishing" value="T"/>
   </properties>
  </object>
  <object id="526" name="TileData" x="304" y="656" width="16" height="16">
   <properties>
    <property name="NoFishing" value="T"/>
   </properties>
  </object>
  <object id="527" name="TileData" x="320" y="656" width="16" height="16">
   <properties>
    <property name="NoFishing" value="T"/>
   </properties>
  </object>
  <object id="528" name="TileData" x="336" y="656" width="16" height="16">
   <properties>
    <property name="NoFishing" value="T"/>
   </properties>
  </object>
  <object id="529" name="TileData" x="352" y="656" width="16" height="16">
   <properties>
    <property name="NoFishing" value="T"/>
   </properties>
  </object>
  <object id="530" name="TileData" x="368" y="656" width="16" height="16">
   <properties>
    <property name="NoFishing" value="T"/>
   </properties>
  </object>
  <object id="531" name="TileData" x="384" y="656" width="16" height="16">
   <properties>
    <property name="NoFishing" value="T"/>
   </properties>
  </object>
  <object id="532" name="TileData" x="400" y="656" width="16" height="16">
   <properties>
    <property name="NoFishing" value="T"/>
   </properties>
  </object>
  <object id="533" name="TileData" x="416" y="656" width="16" height="16">
   <properties>
    <property name="NoFishing" value="T"/>
   </properties>
  </object>
  <object id="534" name="TileData" x="432" y="656" width="16" height="16">
   <properties>
    <property name="NoFishing" value="T"/>
   </properties>
  </object>
  <object id="535" name="TileData" x="448" y="656" width="16" height="16">
   <properties>
    <property name="NoFishing" value="T"/>
   </properties>
  </object>
  <object id="536" name="TileData" x="464" y="656" width="16" height="16">
   <properties>
    <property name="NoFishing" value="T"/>
   </properties>
  </object>
  <object id="537" name="TileData" x="528" y="656" width="16" height="16">
   <properties>
    <property name="NoFishing" value="T"/>
   </properties>
  </object>
  <object id="538" name="TileData" x="544" y="656" width="16" height="16">
   <properties>
    <property name="NoFishing" value="T"/>
   </properties>
  </object>
  <object id="539" name="TileData" x="560" y="656" width="16" height="16">
   <properties>
    <property name="NoFishing" value="T"/>
   </properties>
  </object>
  <object id="540" name="TileData" x="576" y="656" width="16" height="16">
   <properties>
    <property name="NoFishing" value="T"/>
   </properties>
  </object>
  <object id="541" name="TileData" x="592" y="656" width="16" height="16">
   <properties>
    <property name="NoFishing" value="T"/>
   </properties>
  </object>
  <object id="542" name="TileData" x="608" y="656" width="16" height="16">
   <properties>
    <property name="NoFishing" value="T"/>
   </properties>
  </object>
  <object id="543" name="TileData" x="624" y="656" width="16" height="16">
   <properties>
    <property name="NoFishing" value="T"/>
   </properties>
  </object>
  <object id="544" name="TileData" x="640" y="656" width="16" height="16">
   <properties>
    <property name="NoFishing" value="T"/>
   </properties>
  </object>
  <object id="545" name="TileData" x="656" y="656" width="16" height="16">
   <properties>
    <property name="NoFishing" value="T"/>
   </properties>
  </object>
  <object id="546" name="TileData" x="672" y="656" width="16" height="16">
   <properties>
    <property name="NoFishing" value="T"/>
   </properties>
  </object>
  <object id="547" name="TileData" x="48" y="672" width="16" height="16">
   <properties>
    <property name="NoFishing" value="T"/>
   </properties>
  </object>
  <object id="548" name="TileData" x="272" y="672" width="16" height="16">
   <properties>
    <property name="NoFishing" value="T"/>
   </properties>
  </object>
  <object id="549" name="TileData" x="320" y="672" width="16" height="16">
   <properties>
    <property name="NoFishing" value="T"/>
   </properties>
  </object>
  <object id="550" name="TileData" x="336" y="672" width="16" height="16">
   <properties>
    <property name="NoFishing" value="T"/>
   </properties>
  </object>
  <object id="551" name="TileData" x="352" y="672" width="16" height="16">
   <properties>
    <property name="NoFishing" value="T"/>
   </properties>
  </object>
  <object id="552" name="TileData" x="368" y="672" width="16" height="16">
   <properties>
    <property name="NoFishing" value="T"/>
   </properties>
  </object>
  <object id="553" name="TileData" x="384" y="672" width="16" height="16">
   <properties>
    <property name="NoFishing" value="T"/>
   </properties>
  </object>
  <object id="554" name="TileData" x="400" y="672" width="16" height="16">
   <properties>
    <property name="NoFishing" value="T"/>
   </properties>
  </object>
  <object id="555" name="TileData" x="416" y="672" width="16" height="16">
   <properties>
    <property name="NoFishing" value="T"/>
   </properties>
  </object>
  <object id="556" name="TileData" x="432" y="672" width="16" height="16">
   <properties>
    <property name="NoFishing" value="T"/>
   </properties>
  </object>
  <object id="557" name="TileData" x="448" y="672" width="16" height="16">
   <properties>
    <property name="NoFishing" value="T"/>
   </properties>
  </object>
  <object id="558" name="TileData" x="464" y="672" width="16" height="16">
   <properties>
    <property name="NoFishing" value="T"/>
   </properties>
  </object>
  <object id="559" name="TileData" x="512" y="672" width="16" height="16">
   <properties>
    <property name="NoFishing" value="T"/>
   </properties>
  </object>
  <object id="560" name="TileData" x="944" y="704" width="16" height="16">
   <properties>
    <property name="NoFishing" value="T"/>
   </properties>
  </object>
  <object id="561" name="TileData" x="384" y="720" width="16" height="16">
   <properties>
    <property name="NoFishing" value="T"/>
   </properties>
  </object>
  <object id="562" name="TileData" x="752" y="720" width="16" height="16">
   <properties>
    <property name="NoFishing" value="T"/>
   </properties>
  </object>
  <object id="563" name="TileData" x="496" y="736" width="16" height="16">
   <properties>
    <property name="NoFishing" value="T"/>
   </properties>
  </object>
  <object id="565" name="TileData" x="912" y="208" width="96" height="16">
   <properties>
    <property name="Type" value="Wood"/>
   </properties>
  </object>
 </objectgroup>
 <objectgroup id="13" name="Buildings" visible="0">
  <object id="51" name="TileData" x="784" y="160" width="16" height="16">
   <properties>
    <property name="Action" value="LockedDoorWarp 3 9 ElliottHouse 1000 1800 Elliott 500"/>
   </properties>
  </object>
  <object id="53" name="TileData" x="480" y="528" width="16" height="16">
   <properties>
    <property name="Action" value="LockedDoorWarp 5 9 FishShop 900 1700"/>
   </properties>
  </object>
  <object id="54" name="TileData" x="592" y="528" width="16" height="16">
   <properties>
    <property name="Action" value="DropBox WillyBarrel"/>
   </properties>
  </object>
  <object id="220" name="TileData" x="896" y="464" width="16" height="16">
   <properties>
    <property name="Action" value="LockedDoorWarp 4 10 MermaidHouse 1700 2430"/>
   </properties>
  </object>
  <object id="221" name="TileData" x="544" y="480" width="16" height="16">
   <properties>
    <property name="Action" value="DropBox WillyBarrel"/>
   </properties>
  </object>
  <object id="222" name="TileData" x="448" y="496" width="16" height="16">
   <properties>
    <property name="Action" value="LockedDoorWarp 5 9 FishShop 900 1700"/>
   </properties>
  </object>
  <object id="223" name="TileData" x="48" y="512" width="16" height="16">
   <properties>
    <property name="Action" value="LockedDoorWarp 14 15 Submarine 1700 2300"/>
   </properties>
  </object>
  <object id="225" name="TileData" x="928" y="496" width="16" height="16">
   <properties>
    <property name="Action" value="LockedDoorWarp 4 10 MermaidHouse 1700 2430"/>
   </properties>
  </object>
  <object id="226" name="TileData" x="576" y="512" width="16" height="16">
   <properties>
    <property name="Action" value="DropBox WillyBarrel"/>
   </properties>
  </object>
  <object id="227" name="TileData" x="480" y="528" width="16" height="16">
   <properties>
    <property name="Action" value="LockedDoorWarp 5 9 FishShop 900 1700"/>
   </properties>
  </object>
  <object id="228" name="TileData" x="80" y="544" width="16" height="16">
   <properties>
    <property name="Action" value="LockedDoorWarp 14 15 Submarine 1700 2300"/>
   </properties>
  </object>
  <object id="564" name="TileData" x="912" y="208" width="96" height="16">
   <properties>
    <property name="Passable" value="T"/>
   </properties>
  </object>
 </objectgroup>
 <objectgroup id="15" name="Paths"/>
 <objectgroup id="16" name="Front"/>
 <objectgroup id="17" name="AlwaysFront"/>
 <objectgroup id="18" name="AlwaysFront2"/>
</map>
