<?xml version="1.0" encoding="UTF-8"?>
<map version="1.8" tiledversion="1.8.4" orientation="orthogonal" renderorder="right-down" compressionlevel="0" width="30" height="25" tilewidth="16" tileheight="16" infinite="0" nextlayerid="15" nextobjectid="39">
 <editorsettings>
  <export format="tmx"/>
 </editorsettings>
 <properties>
  <property name="DayTiles" value="Front 4 5 256 Front 4 6 288 Front 5 5 256 Front 5 7 288 Front 12 1 256 Front 12 2 288 Front 13 1 256 Front 13 2 288 Front 20 1 256 Front 20 2 288 Front 21 1 256 Front 21 2 288 Front 25 1 256 Front 25 2 288 Front 2 1 1344 Front 7 1 1344 Front 15 1 1344 Front 19 1 1344 Front 23 1 1344 Front 13 10 1344 Front 19 10 1344 Front 7 15 1344 Front 14 15 1344 Front 18 15 1344"/>
  <property name="Doors" value="5 16 1 120 11 11 1 120 21 11 1 120"/>
  <property name="NightTiles" value="Front 4 5 1253 Front 4 6 1285 Front 5 5 1253 Front 5 6 1285 Front 12 1 1253 Front 12 2 1285 Front 13 1 1253 Front 13 2 1285 Front 20 1 1253 Front 20 2 1285 Front 21 1 1253 Front 21 2 1285 Front 25 1 1253 Front 25 2 1285 Front 15 1 1345 Front 19 1 1345 Front 23 1 1345 Front 13 10 1345 Front 19 10 1345 Front 7 15 1345 Front 14 15 1345 Front 18 15 1345"/>
  <property name="Warp" value="10 25 EastScarp_Village 16 49"/>
 </properties>
 <tileset firstgid="1" name="1" tilewidth="16" tileheight="16" tilecount="2176" columns="32">
  <image source="townInterior" width="512" height="1088"/>
 </tileset>
 <tileset firstgid="2177" name="p" tilewidth="16" tileheight="16" tilecount="36" columns="4">
  <image source="paths" width="64" height="144"/>
 </tileset>
 <tileset firstgid="2213" name="lemurfurniture" tilewidth="16" tileheight="16" tilecount="3392" columns="32">
  <image source="lemurfurniture.png" width="512" height="1696"/>
  <tile id="1618">
   <properties>
    <property name="Passable" value="T"/>
   </properties>
  </tile>
  <tile id="1619">
   <properties>
    <property name="Passable" value="T"/>
   </properties>
  </tile>
  <tile id="1620">
   <properties>
    <property name="Passable" value="T"/>
   </properties>
  </tile>
  <tile id="1650">
   <properties>
    <property name="Passable" value="T"/>
   </properties>
  </tile>
  <tile id="1651">
   <properties>
    <property name="Passable" value="T"/>
   </properties>
  </tile>
  <tile id="1652">
   <properties>
    <property name="Passable" value="T"/>
   </properties>
  </tile>
 </tileset>
 <tileset firstgid="5605" name="walls_and_floors" tilewidth="16" tileheight="16" tilecount="560" columns="16">
  <image source="walls_and_floors.png" width="256" height="560"/>
 </tileset>
 <tileset firstgid="6165" name="lumi_towninterior" tilewidth="16" tileheight="16" tilecount="3050" columns="25">
  <image source="lumi_towninterior.png" width="400" height="1952"/>
 </tileset>
 <tileset firstgid="9215" name="2" tilewidth="16" tileheight="16" tilecount="1312" columns="32">
  <image source="townInterior_2" width="512" height="656"/>
 </tileset>
 <layer id="1" name="Back" width="30" height="25">
  <data encoding="csv">
0,0,0,0,0,0,0,0,0,1,1,1,1,1,1,1,1,1,1,1,1,1,1,1,1,1,1,1,0,0,
0,0,0,0,0,0,0,0,0,174,174,174,174,174,174,175,174,39,205,206,206,206,206,206,206,206,207,1,0,0,
0,0,0,0,0,0,0,0,0,174,174,174,174,174,174,175,175,71,205,206,206,206,206,206,206,206,207,207,0,0,
0,0,0,0,0,0,0,0,0,104,113,113,104,113,113,113,175,103,205,104,104,104,113,113,113,113,207,207,0,0,
0,0,5801,0,0,0,0,1,1,229,200,201,200,201,200,201,200,201,201,200,200,201,201,200,201,200,201,1,0,0,
0,5896,5896,5896,5896,5896,5896,5896,174,264,232,233,232,233,232,233,232,233,232,233,232,233,232,233,232,232,233,1,0,0,
0,5896,5896,5896,5896,5896,5896,5896,174,265,264,264,232,233,232,232,233,6052,264,265,232,233,232,232,233,265,265,1,0,0,
5973,5896,107,107,5975,107,107,107,173,233,232,232,264,265,264,264,265,6068,232,233,264,265,264,264,265,233,233,1,0,0,
5985,5975,5975,5975,5975,5975,5975,5975,5974,265,264,264,265,265,264,265,265,0,264,265,232,233,232,233,232,233,265,1,0,0,
6001,5975,5975,5975,5975,5975,5975,5975,5990,232,233,233,233,232,233,265,264,0,232,40,40,233,264,265,264,265,264,265,0,0,
5973,5975,5975,5975,5975,5975,5975,5975,264,0,0,265,40,40,40,40,40,40,40,72,40,265,0,0,0,0,0,0,0,0,
5989,5975,5975,5975,5975,5975,5975,5975,1,0,0,233,72,72,72,72,72,72,72,72,72,233,0,0,0,0,0,0,0,0,
5973,5975,5975,5975,5975,5975,5975,5975,5986,0,0,329,0,0,0,0,0,0,0,0,0,329,0,0,0,0,0,0,0,0,
5989,5975,5975,5975,5975,5975,5975,5975,6002,0,0,265,200,201,201,200,201,200,201,200,201,265,0,0,0,0,0,0,0,0,
264,265,264,265,264,5975,264,265,264,265,1,1,1,264,265,1,233,1,1,1,1,1,1,1,1,0,0,0,0,0,
1,39,40,40,40,5975,40,40,40,40,40,40,40,40,40,40,1044,40,40,40,40,40,40,41,1,0,0,0,0,0,
1,71,72,72,72,5973,72,72,72,72,72,72,72,72,72,72,1076,72,72,72,72,72,72,73,1,0,0,0,0,0,
1,103,113,104,104,329,104,104,113,113,104,104,104,104,104,104,1309,104,113,113,113,113,113,105,1,0,0,0,0,0,
1,199,201,200,201,265,509,200,201,200,201,200,201,200,201,200,1247,295,0,0,0,0,0,297,1,0,0,0,0,0,
1,232,233,232,233,232,233,232,233,232,233,232,233,232,233,232,1247,263,295,295,295,295,295,328,0,0,0,0,0,0,
1,232,233,232,233,264,265,264,265,264,265,264,265,264,265,264,1247,263,263,263,263,263,263,328,1,0,0,0,0,0,
1,264,265,264,265,232,233,232,233,232,233,232,232,233,233,232,233,263,263,263,263,263,263,328,1,0,0,0,0,0,
1,264,265,264,265,264,265,264,265,264,265,264,264,265,265,264,265,263,263,263,263,263,263,328,1,0,0,0,0,0,
0,232,233,232,233,232,233,232,233,232,233,232,232,233,233,232,233,263,263,263,263,263,263,328,0,0,0,0,0,0,
0,0,0,0,0,0,0,0,0,232,293,0,264,265,0,264,265,0,0,0,0,0,0,0,0,0,0,0,0,0
</data>
 </layer>
 <objectgroup id="2" name="Back"/>
 <layer id="11" name="Back2" width="30" height="25">
  <properties>
   <property name="Draw" value="Back"/>
  </properties>
  <data encoding="csv">
0,0,0,0,0,0,0,0,0,0,0,0,0,0,0,0,0,0,0,0,0,0,0,0,0,0,0,0,0,0,
0,0,0,0,0,0,0,0,0,0,0,0,0,0,0,0,0,0,0,0,0,0,0,0,0,0,0,0,0,0,
0,0,0,0,0,0,0,0,0,0,0,0,0,0,0,0,0,0,0,0,0,0,0,0,0,0,0,0,0,0,
0,0,0,0,0,0,0,0,0,0,0,0,0,0,0,0,0,0,0,0,0,0,0,0,0,0,0,0,0,0,
0,0,0,0,0,0,0,0,0,0,0,6271,0,0,0,0,0,0,0,0,0,0,0,0,0,0,146,0,0,0,
0,0,0,0,0,0,0,0,0,0,0,0,0,0,0,0,0,0,0,0,0,0,0,0,0,0,0,0,0,0,
0,0,0,0,0,75,75,75,0,0,0,0,6385,6386,6387,0,0,0,0,0,0,0,6385,6386,6387,0,0,0,0,0,
0,0,0,0,0,107,107,107,0,0,0,0,6410,6411,6412,0,0,0,0,0,0,0,6410,6411,6412,0,0,0,0,0,
0,0,0,0,0,0,0,0,0,0,0,0,0,0,0,0,0,0,0,0,0,0,0,0,0,0,0,0,0,0,
0,0,0,0,0,0,0,0,0,0,0,0,0,0,0,0,0,0,0,0,0,0,0,0,0,0,0,0,0,0,
0,0,0,0,0,6385,6386,6387,0,0,0,0,0,0,0,0,0,0,0,0,0,0,0,0,0,0,0,0,0,0,
0,0,0,0,0,6410,6411,6412,0,0,0,0,0,0,0,0,0,0,0,0,0,0,0,0,0,0,0,0,0,0,
0,0,0,0,0,0,0,0,0,0,0,0,0,0,0,0,0,0,0,0,0,0,0,0,0,0,0,0,0,0,
0,0,0,0,0,0,0,0,0,0,0,0,0,0,0,0,0,0,0,0,0,0,0,0,0,0,0,0,0,0,
0,0,0,0,0,0,0,0,0,0,0,0,0,0,0,0,0,0,0,0,0,0,0,0,0,0,0,0,0,0,
0,0,0,0,0,0,0,0,0,0,0,0,0,0,0,0,0,0,0,0,0,0,0,0,0,0,0,0,0,0,
0,0,0,0,0,0,0,0,0,0,0,0,0,0,0,0,0,0,0,0,0,0,0,0,0,0,0,0,0,0,
0,0,0,0,0,0,0,0,107,107,0,0,0,0,0,0,0,0,0,107,107,107,107,0,0,0,0,0,0,0,
0,138,0,0,0,0,6271,0,0,0,0,0,0,0,0,0,0,0,0,0,0,0,0,0,0,0,0,0,0,0,
0,0,0,0,0,0,0,0,0,0,0,0,0,0,0,0,0,0,0,0,0,0,0,0,0,0,0,0,0,0,
0,0,0,0,0,0,0,0,0,0,0,0,0,0,0,0,0,0,0,0,0,0,0,0,0,0,0,0,0,0,
0,0,0,0,0,0,0,0,0,0,0,6385,6386,6387,0,0,0,0,0,0,0,0,0,0,0,0,0,0,0,0,
0,0,0,0,0,0,0,0,0,0,0,6410,6411,6412,0,0,0,0,0,0,0,0,0,0,0,0,0,0,0,0,
0,0,0,0,0,0,0,0,0,0,0,0,0,0,0,0,0,0,0,0,0,0,0,0,0,0,0,0,0,0,
0,0,0,0,0,0,0,0,0,0,0,0,0,0,0,0,0,0,0,0,0,0,0,0,0,0,0,0,0,0
</data>
 </layer>
 <objectgroup id="12" name="Back2"/>
 <layer id="3" name="Buildings" width="30" height="25">
  <data encoding="csv">
0,0,0,0,0,0,0,0,0,1,1,1,1,1,1,1,1,12,1,1,1,1,1,1,1,1,1,1,0,0,
0,0,0,0,0,0,0,0,0,65,1427,1427,1427,1427,1427,1427,1427,1,1,1427,1427,1427,1427,1427,1427,1427,1429,1,0,0,
0,0,0,0,0,0,0,0,0,65,81,81,81,81,81,81,81,1,1,81,81,81,81,81,81,81,82,1,0,0,
0,0,0,0,0,0,0,0,0,65,113,113,113,113,7437,7439,113,1,1,113,113,113,7437,7438,7439,113,114,1,0,0,
1,1,1,1,1,1,1,1,1,65,2829,0,2830,0,0,0,0,69,1,8235,8236,0,0,0,0,0,6181,1,0,0,
1,1427,1427,1427,1427,1427,1427,1427,1,65,2897,0,0,0,321,322,0,1,1,0,0,0,868,869,870,0,6206,69,0,0,
1,74,75,75,75,740,741,742,1,65,0,0,0,0,0,0,0,1,1,6395,6396,0,0,0,0,0,6231,1,0,0,
1,106,6182,6183,107,7437,7438,7439,1,65,6270,0,0,0,0,0,6254,1,1,6420,6421,0,0,0,0,6400,6401,1,0,0,
1,138,6207,6208,0,0,0,0,1,65,0,0,0,0,0,0,0,1,1,3720,0,0,0,0,0,6425,6426,1,0,0,
1,0,780,0,0,868,869,870,1,1,195,0,194,3,3,3,3,3,3,3,195,0,194,1,1,1,1,1,0,0,
1,7174,0,0,0,0,0,0,1,1,1,0,155,1427,1427,1427,1427,1427,1427,1427,156,0,1,1,1,1,1,1,1,1,
1,0,554,0,0,0,0,0,0,1,1,121,187,81,81,81,81,81,81,81,188,121,1,1,1,1,1,1,1,1,
1,2463,2464,2465,2466,0,0,714,0,1,1,0,219,113,113,113,113,113,113,113,220,0,1,1,1,1,1,1,1,1,
1,2495,2496,2497,2498,0,0,746,0,1,1,0,0,0,0,0,0,0,0,0,0,0,1,1,1,1,0,0,0,0,
1,1,1,1,1,0,1,1,1,1,1,3,3,1,1,1,0,1,1,1,1,1,1,1,1,1,0,0,0,0,
1,42,1427,1427,56,0,55,1427,1427,1427,1427,1427,1427,1427,1427,56,0,55,1427,1427,1427,1427,1427,0,1,1,0,0,0,0,
1,74,75,75,88,121,87,75,75,75,75,4073,4074,75,9254,88,0,87,81,75,75,81,81,76,1,1,0,0,0,0,
1,106,107,107,120,0,119,107,6179,6180,107,4105,4106,107,9286,120,0,119,7541,7542,7543,7544,7545,108,1,1,0,0,0,0,
1,1455,6427,6428,7180,0,0,6270,6204,6205,3294,4137,4138,898,0,2877,0,496,7566,7567,7568,7569,7570,140,1,1,0,0,0,0,
1,584,0,0,0,0,0,0,0,0,0,0,0,0,0,0,0,0,0,0,0,0,0,7223,1,1,0,0,0,0,
1,6395,6396,6190,6191,0,0,6407,6408,6409,0,0,0,0,0,0,0,0,0,0,0,0,0,0,1,1,0,0,0,0,
1,6420,6421,6215,6216,0,6270,6432,6433,6434,0,0,0,0,0,6799,6212,0,6201,429,430,431,6203,0,1,1,0,0,0,0,
1,2881,0,0,0,0,0,0,0,0,0,0,0,0,6400,6401,6212,0,0,461,462,463,0,0,1,1,0,0,0,0,
1,0,6799,6397,6398,6399,0,0,0,0,0,0,0,0,6425,6426,6237,0,0,0,0,0,0,0,1,1,0,0,0,0,
1,1,1,1,1,1,1,1,1,65,0,69,1,1,1,1,1,1,1,1,1,1,1,1,1,1,0,0,0,0
</data>
 </layer>
 <objectgroup id="4" name="Buildings">
  <object id="13" name="TileData" x="336" y="176" width="16" height="16">
   <properties>
    <property name="Action" value="Door"/>
   </properties>
  </object>
  <object id="26" name="TileData" x="176" y="176" width="16" height="16">
   <properties>
    <property name="Action" value="Door"/>
   </properties>
  </object>
  <object id="31" name="TileData" x="80" y="256" width="16" height="16">
   <properties>
    <property name="Action" value="Door Aideen"/>
   </properties>
  </object>
  <object id="37" name="TileData" x="368" y="304" width="16" height="16">
   <properties>
    <property name="Action" value="DropBox AideenVase"/>
   </properties>
  </object>
  <object id="38" name="TileData" x="224" y="272" width="16" height="16">
   <properties>
    <property name="Action" value="Message &quot;AideenHouse.1&quot;"/>
   </properties>
  </object>
 </objectgroup>
 <layer id="5" name="Front" width="30" height="25">
  <data encoding="csv">
0,0,0,0,0,0,0,0,0,3,2122,3,2122,3,3,3,3,12,10,11,3,2122,3,3,3,2122,4,1,0,0,
0,0,0,0,0,0,0,0,0,0,0,0,257,257,0,1345,7194,69,65,1345,257,257,0,1345,0,257,44,37,0,0,
0,0,0,0,0,0,0,0,0,0,0,0,289,289,0,0,7219,69,65,0,289,289,740,741,742,289,0,69,0,0,
0,0,0,0,0,0,0,0,0,0,2797,0,2798,0,7462,7464,0,69,65,8210,8211,0,7462,7463,7464,0,0,69,0,0,
0,2,3,3,3,3,3,3,12,0,2865,0,0,0,7487,7489,0,69,65,0,0,0,7487,7488,7489,0,7156,69,0,0,
33,42,1345,7193,257,257,7195,1345,69,0,0,0,0,0,0,0,0,69,65,6370,6371,0,0,0,0,0,7181,69,0,0,
65,0,0,7218,289,289,0,326,69,0,6245,0,0,0,0,0,6229,69,65,3656,0,0,0,0,0,6375,6376,69,0,0,
65,7150,0,6963,0,0,7463,7464,69,0,0,0,0,0,0,0,0,69,65,3688,0,0,0,0,0,0,0,69,0,0,
65,7175,748,0,0,7487,7488,7489,69,0,163,0,164,2121,197,166,167,168,161,162,163,0,164,166,166,2121,167,168,0,0,
65,7149,0,0,0,0,0,0,69,0,65,57,0,0,0,0,0,0,0,0,0,57,69,0,0,0,0,0,0,0,
65,0,0,0,0,0,0,0,69,0,65,89,1427,1345,0,6348,0,153,154,1345,1427,89,69,0,0,0,0,0,0,0,
65,0,7156,7151,0,0,0,682,69,0,65,0,0,0,0,0,0,185,186,0,0,0,69,0,0,0,0,0,0,0,
65,7143,7181,7176,7167,0,0,7168,69,0,65,0,0,0,0,0,0,0,0,0,0,0,69,0,0,0,0,0,0,0,
97,196,197,198,163,0,164,166,131,0,161,162,196,197,198,163,0,164,196,197,198,167,168,0,0,0,0,0,0,0,
1,2,2122,3,195,0,194,3,3,3,3,4009,4010,3,3,195,0,194,3,2122,3,3,11,4,1,0,0,0,0,0,
33,0,0,0,1427,89,1427,1345,0,6255,3198,4041,4042,7196,1345,1427,0,1427,1345,7196,411,0,0,44,37,0,0,0,0,0,
65,0,6377,6378,0,0,0,0,350,351,3230,0,0,7221,0,0,0,0,7515,7221,7518,7519,7520,0,69,0,0,0,0,0,
65,0,6402,6403,7155,0,0,6245,382,383,3262,0,0,866,0,2845,0,464,7540,0,7543,7544,7545,0,69,0,0,0,0,0,
65,0,0,0,0,0,0,0,0,0,0,0,0,0,0,0,0,0,0,0,0,0,0,7198,69,0,0,0,0,0,
65,6370,6371,6165,6166,0,0,6382,6383,6384,0,0,0,0,0,6749,0,0,0,0,0,0,0,0,2154,0,0,0,0,0,
65,0,0,650,0,0,6245,0,835,652,0,0,0,0,0,6774,6187,0,6176,397,398,399,6178,0,69,0,0,0,0,0,
2153,2849,6749,0,0,0,0,0,0,0,0,0,0,0,6375,6376,7215,0,0,0,400,334,0,0,69,0,0,0,0,0,
65,0,6774,6372,6373,6374,0,0,0,0,0,0,0,0,0,0,7143,0,0,0,0,0,0,0,69,0,0,0,0,0,
97,197,197,197,197,197,197,197,197,163,0,164,197,197,197,197,197,197,197,197,197,197,197,0,131,0,0,0,0,0,
0,0,0,0,0,0,0,0,0,65,0,69,0,0,0,0,0,0,0,0,0,0,0,0,0,0,0,0,0,0
</data>
 </layer>
 <objectgroup id="6" name="Front"/>
 <layer id="13" name="Front1" width="30" height="25">
  <data encoding="csv">
0,0,0,0,0,0,0,0,0,0,0,0,0,0,0,0,0,0,0,0,0,0,0,0,0,0,0,0,0,0,
0,0,0,0,0,0,0,0,0,0,0,0,0,0,0,0,0,0,0,0,0,0,0,0,0,0,0,0,0,0,
0,0,0,0,0,0,0,0,0,0,0,0,0,0,0,0,0,0,0,0,0,0,0,0,0,0,0,0,0,0,
0,0,0,0,0,0,0,0,0,0,0,0,0,0,0,0,0,0,0,0,0,0,0,0,0,0,0,0,0,0,
0,0,0,0,0,0,0,0,0,0,0,0,0,0,0,0,0,0,0,0,0,0,0,0,0,0,0,0,0,0,
0,0,0,0,0,0,0,0,0,0,0,0,0,0,0,0,0,0,0,0,0,0,0,0,0,0,0,0,0,0,
0,0,0,0,0,0,0,0,0,0,0,0,0,0,0,0,0,0,0,0,0,0,0,0,0,0,0,0,0,0,
0,0,0,0,0,7462,0,0,0,0,0,0,0,0,0,0,0,0,0,0,0,0,0,0,0,0,0,0,0,0,
0,0,0,0,0,0,0,0,0,0,0,0,0,0,0,0,0,0,0,0,0,0,0,0,0,0,0,0,0,0,
0,0,0,0,0,0,0,0,0,0,0,0,0,0,0,0,0,0,0,0,0,0,0,0,0,0,0,0,0,0,
0,0,0,0,0,0,0,0,0,0,0,0,0,0,0,0,0,0,0,0,0,0,0,0,0,0,0,0,0,0,
0,0,0,0,0,0,0,0,0,0,0,0,0,0,0,0,0,0,0,0,0,0,0,0,0,0,0,0,0,0,
0,0,0,0,0,0,0,0,0,0,0,0,0,0,0,0,0,0,0,0,0,0,0,0,0,0,0,0,0,0,
0,0,0,0,0,0,0,0,0,0,0,0,0,0,0,0,0,0,0,0,0,0,0,0,0,0,0,0,0,0,
0,0,0,0,0,0,0,0,0,0,0,0,0,0,0,0,0,0,0,0,0,0,0,0,0,0,0,0,0,0,
0,0,0,0,0,0,0,0,0,0,0,0,0,0,0,0,0,0,0,0,0,0,0,0,0,0,0,0,0,0,
0,0,0,0,0,0,0,0,0,0,0,0,0,0,0,0,0,0,0,0,0,0,0,0,0,0,0,0,0,0,
0,0,0,0,0,0,0,0,0,0,0,0,0,0,0,0,0,0,0,0,0,0,0,0,0,0,0,0,0,0,
0,0,0,0,0,0,0,0,0,0,0,0,0,0,0,0,0,0,0,0,0,0,0,0,0,0,0,0,0,0,
0,0,0,0,0,0,0,0,0,0,0,0,0,0,0,0,0,0,0,0,0,0,0,0,0,0,0,0,0,0,
0,0,0,0,0,0,0,0,0,0,0,0,0,0,0,0,0,0,0,0,0,0,0,0,0,0,0,0,0,0,
0,0,0,0,0,0,0,0,0,0,0,0,0,0,0,0,0,0,0,0,0,0,0,0,0,0,0,0,0,0,
0,0,0,0,0,0,0,0,0,0,0,0,0,0,0,0,0,0,0,0,0,0,0,0,0,0,0,0,0,0,
0,0,0,0,0,0,0,0,0,0,0,0,0,0,0,0,0,0,0,0,0,0,0,0,0,0,0,0,0,0,
0,0,0,0,0,0,0,0,0,0,0,0,0,0,0,0,0,0,0,0,0,0,0,0,0,0,0,0,0,0
</data>
 </layer>
 <objectgroup id="14" name="Front1"/>
 <layer id="7" name="Paths" width="30" height="25">
  <data encoding="csv">
0,0,0,0,0,0,0,0,0,0,0,0,0,0,0,0,0,0,0,0,0,0,0,0,0,0,0,0,0,0,
0,0,0,0,0,0,0,0,0,0,0,0,0,0,0,0,0,0,0,0,0,0,0,0,0,0,0,0,0,0,
0,0,0,0,0,0,0,0,0,0,0,0,0,0,0,0,0,0,0,0,0,0,0,0,0,0,0,0,0,0,
0,0,0,0,0,0,0,0,0,0,0,0,0,0,0,0,0,0,0,0,0,0,0,0,0,0,0,0,0,0,
0,0,0,0,0,0,0,0,0,0,0,0,0,0,0,0,0,0,0,0,0,0,0,0,0,0,0,0,0,0,
0,0,2185,0,0,0,0,2185,0,2185,0,0,0,0,2185,0,0,0,0,0,0,0,2185,0,0,0,0,0,0,0,
0,0,0,0,0,0,0,0,0,0,0,0,0,0,0,0,0,0,0,0,0,0,0,0,0,0,0,0,0,0,
0,0,0,0,0,0,0,0,0,0,0,0,0,0,0,0,0,0,0,0,0,0,0,0,0,0,0,0,0,0,
0,0,0,0,0,0,0,0,0,0,0,0,0,0,0,0,2185,0,0,0,0,0,0,0,0,0,0,0,0,0,
0,0,0,0,0,0,0,0,0,0,0,0,0,0,0,0,0,0,0,0,0,0,0,0,0,0,0,0,0,0,
0,0,0,0,0,0,0,0,0,0,0,0,0,0,0,0,0,0,0,0,0,0,0,0,0,0,0,0,0,0,
0,0,0,0,0,0,0,0,0,0,0,0,0,0,0,0,0,0,0,0,0,0,0,0,0,0,0,0,0,0,
0,0,0,0,0,0,0,0,0,0,0,0,0,0,0,0,0,0,0,0,0,0,0,0,0,0,0,0,0,0,
0,0,0,0,0,0,0,0,0,0,0,0,0,0,0,0,0,0,0,0,0,0,0,0,0,0,0,0,0,0,
0,0,0,0,0,0,0,0,0,0,0,0,0,0,0,0,0,0,0,0,0,0,0,0,0,0,0,0,0,0,
0,0,0,0,0,0,0,2185,0,0,0,0,0,0,2185,0,0,0,2185,0,0,0,0,0,0,0,0,0,0,0,
0,0,0,0,0,0,0,0,0,0,0,0,0,0,0,0,0,0,0,0,0,0,0,0,0,0,0,0,0,0,
0,0,0,0,0,0,0,0,0,0,0,0,0,0,0,0,0,0,0,0,0,0,0,0,0,0,0,0,0,0,
0,0,0,0,0,0,0,0,0,0,0,0,0,0,0,0,0,0,0,0,0,0,0,0,0,0,0,0,0,0,
0,0,0,0,0,0,0,0,2185,0,0,0,2185,0,0,0,0,0,0,0,0,0,0,0,0,0,0,0,0,0,
0,0,0,0,0,2185,0,0,0,0,0,0,0,0,0,2185,0,0,0,0,2185,0,0,0,0,0,0,0,0,0,
0,0,0,0,0,0,0,0,0,0,0,0,0,0,0,0,0,0,0,0,0,0,0,0,0,0,0,0,0,0,
0,0,2185,0,0,0,0,0,0,0,0,0,0,0,0,0,0,0,0,0,0,0,0,0,0,0,0,0,0,0,
0,0,0,0,0,0,0,0,0,0,0,0,0,0,0,0,0,0,0,0,0,0,0,0,0,0,0,0,0,0,
0,0,0,0,0,0,0,0,0,0,0,0,0,0,0,0,0,0,0,0,0,0,0,0,0,0,0,0,0,0
</data>
 </layer>
 <objectgroup id="8" name="Paths"/>
 <layer id="9" name="AlwaysFront" width="30" height="25">
  <data encoding="csv">
0,0,0,0,0,0,0,0,0,10,0,0,0,0,0,0,0,0,0,0,0,0,0,0,0,0,0,0,0,0,
0,0,0,0,0,0,0,0,0,65,0,0,0,0,0,0,0,0,0,0,0,0,0,0,0,0,0,0,0,0,
0,0,0,0,0,0,0,0,0,65,0,0,0,0,325,326,0,0,0,0,0,0,0,0,0,0,0,0,0,0,
0,0,0,0,0,0,0,0,0,65,0,0,0,0,0,0,0,0,0,0,0,0,0,0,0,0,0,0,0,0,
0,0,0,0,0,0,0,0,0,65,0,0,0,0,0,0,0,0,0,0,0,0,0,0,0,0,0,0,0,0,
0,0,0,0,0,0,0,0,0,65,0,0,0,0,0,0,0,0,0,0,0,0,0,0,0,0,0,0,0,0,
0,0,0,6938,0,0,7220,0,0,65,0,0,0,0,0,0,0,0,0,0,0,0,0,0,0,0,0,0,0,0,
0,0,0,0,0,0,0,0,0,65,0,0,0,0,0,0,0,0,0,0,0,0,0,0,0,0,0,0,0,0,
0,0,0,0,0,0,0,0,0,97,0,0,0,0,0,0,0,0,0,0,0,0,0,0,0,0,0,0,0,0,
0,0,0,0,0,0,0,0,0,0,0,0,0,0,0,0,0,0,0,0,0,0,0,0,0,0,0,0,0,0,
0,0,0,0,0,0,0,0,0,0,0,0,0,0,0,0,0,0,0,0,0,0,0,0,0,0,0,0,0,0,
0,0,0,0,0,0,0,0,0,0,0,0,0,0,0,0,0,0,0,0,0,0,0,0,0,0,0,0,0,0,
0,0,0,0,0,0,0,0,0,0,0,0,0,0,0,0,0,0,0,0,0,0,0,0,0,0,0,0,0,0,
0,0,0,0,0,0,0,0,0,0,0,0,0,0,0,0,0,0,0,0,0,0,0,0,0,0,0,0,0,0,
0,0,0,0,0,0,0,0,0,0,0,0,0,0,0,0,0,0,0,0,0,0,0,0,0,0,0,0,0,0,
0,0,0,0,0,0,0,0,0,0,0,0,0,0,0,0,0,0,0,0,0,0,0,0,0,0,0,0,0,0,
0,0,0,0,0,0,0,0,0,0,0,0,0,0,0,0,0,0,0,0,0,0,0,0,0,0,0,0,0,0,
0,0,0,0,0,0,0,0,0,0,0,0,0,0,0,0,0,0,0,0,0,0,0,0,0,0,0,0,0,0,
0,0,0,0,0,0,0,0,0,0,0,0,0,0,0,0,0,0,0,0,0,0,0,0,0,0,0,0,0,0,
0,0,0,0,0,0,0,0,0,0,0,0,0,0,0,0,0,0,0,0,0,0,0,0,0,0,0,0,0,0,
0,0,0,0,0,0,0,0,0,0,0,0,0,0,0,0,7190,0,0,0,0,0,0,0,0,0,0,0,0,0,
0,0,0,0,0,0,0,0,0,0,0,0,0,0,0,0,0,0,0,0,0,0,0,0,0,0,0,0,0,0,
0,0,0,0,0,0,0,0,0,0,0,0,0,0,0,0,0,0,0,0,0,0,0,0,0,0,0,0,0,0,
0,0,0,0,0,0,0,0,0,0,0,0,0,0,0,0,0,0,0,0,0,0,0,166,0,0,0,0,0,0,
0,0,0,0,0,0,0,0,0,0,0,0,0,0,0,0,0,0,0,0,0,0,0,0,0,0,0,0,0,0
</data>
 </layer>
 <objectgroup id="10" name="AlwaysFront"/>
</map>
