<?xml version="1.0" encoding="UTF-8"?>
<map version="1.10" tiledversion="1.10.2" orientation="orthogonal" renderorder="right-down" compressionlevel="0" width="3" height="4" tilewidth="16" tileheight="16" infinite="0" nextlayerid="15" nextobjectid="12">
 <tileset firstgid="1" name="cave" tilewidth="16" tileheight="16" tilecount="288" columns="16">
  <image source="Mines/mine_frost_dangerous.png" width="256" height="288"/>
  <tile id="165">
   <properties>
    <property name="Diggable" value="T"/>
    <property name="Type" value="Dirt"/>
   </properties>
  </tile>
  <tile id="181">
   <properties>
    <property name="Diggable" value="T"/>
    <property name="Type" value="Dirt"/>
   </properties>
  </tile>
  <tile id="183">
   <properties>
    <property name="Diggable" value="T"/>
    <property name="Type" value="Dirt"/>
   </properties>
  </tile>
  <tile id="240">
   <properties>
    <property name="Type" value="Wood"/>
   </properties>
  </tile>
  <tile id="241">
   <properties>
    <property name="Type" value="Wood"/>
   </properties>
  </tile>
  <tile id="242">
   <properties>
    <property name="Type" value="Wood"/>
   </properties>
  </tile>
  <tile id="256">
   <properties>
    <property name="Type" value="Wood"/>
   </properties>
  </tile>
  <tile id="257">
   <properties>
    <property name="Type" value="Wood"/>
   </properties>
  </tile>
  <tile id="258">
   <properties>
    <property name="Type" value="Wood"/>
   </properties>
  </tile>
  <tile id="272">
   <properties>
    <property name="Type" value="Wood"/>
   </properties>
  </tile>
  <tile id="273">
   <properties>
    <property name="Type" value="Wood"/>
   </properties>
  </tile>
  <tile id="274">
   <properties>
    <property name="Type" value="Wood"/>
   </properties>
  </tile>
 </tileset>
 <tileset firstgid="289" name="paths" tilewidth="16" tileheight="16" tilecount="64" columns="4">
  <image source="paths" width="64" height="256"/>
 </tileset>
 <tileset firstgid="353" name="z_AdditionalFarmCave" tilewidth="16" tileheight="16" tilecount="480" columns="20">
  <image source="z_AdditionalFarmCave.png" width="320" height="384"/>
  <tile id="120">
   <animation>
    <frame tileid="120" duration="100"/>
    <frame tileid="121" duration="100"/>
    <frame tileid="122" duration="100"/>
    <frame tileid="123" duration="100"/>
    <frame tileid="124" duration="100"/>
    <frame tileid="125" duration="100"/>
    <frame tileid="126" duration="100"/>
    <frame tileid="127" duration="100"/>
    <frame tileid="127" duration="100"/>
    <frame tileid="120" duration="100"/>
   </animation>
  </tile>
 </tileset>
 <tileset firstgid="833" name="z_spring_outdoorsTileSheet" tilewidth="16" tileheight="16" tilecount="1975" columns="25">
  <image source="spring_outdoorsTileSheet.png" width="400" height="1264"/>
  <tile id="606">
   <properties>
    <property name="Diggable" value="T"/>
    <property name="Type" value="Dirt"/>
   </properties>
  </tile>
  <tile id="607">
   <properties>
    <property name="Diggable" value="T"/>
    <property name="Type" value="Dirt"/>
   </properties>
  </tile>
  <tile id="680">
   <properties>
    <property name="Diggable" value="T"/>
    <property name="Type" value="Dirt"/>
   </properties>
  </tile>
  <tile id="685">
   <properties>
    <property name="Diggable" value="T"/>
    <property name="Type" value="Dirt"/>
   </properties>
  </tile>
 </tileset>
 <layer id="1" name="Back" width="3" height="4">
  <data encoding="csv">
0,0,0,
219,219,219,
219,219,219,
219,219,219
</data>
 </layer>
 <layer id="13" name="Back2" width="3" height="4">
  <data encoding="csv">
0,0,0,
619,619,619,
639,639,639,
659,659,659
</data>
 </layer>
 <layer id="2" name="Buildings" width="3" height="4">
  <data encoding="csv">
143,0,143,
159,0,159,
104,0,105,
120,433,121
</data>
 </layer>
 <layer id="11" name="Buildings2" width="3" height="4">
  <data encoding="csv">
72,0,73,
133,0,144,
0,0,0,
0,0,0
</data>
 </layer>
 <layer id="3" name="Paths" width="3" height="4">
  <data encoding="csv">
0,0,0,
0,0,0,
0,0,0,
0,0,0
</data>
 </layer>
 <layer id="4" name="Front" width="3" height="4">
  <data encoding="csv">
0,71,0,
0,159,0,
0,0,0,
0,0,0
</data>
 </layer>
 <layer id="9" name="AlwaysFront" width="3" height="4">
  <data encoding="csv">
0,0,0,
0,0,0,
0,0,0,
0,0,0
</data>
 </layer>
 <objectgroup id="5" name="Back"/>
 <objectgroup id="14" name="Back2"/>
 <objectgroup id="6" name="Buildings">
  <object id="11" name="TileData" x="16" y="48" width="16" height="16">
   <properties>
    <property name="Action" value="Message &quot;AdFCms02&quot;"/>
   </properties>
  </object>
 </objectgroup>
 <objectgroup id="12" name="Buildings2"/>
 <objectgroup id="7" name="Paths"/>
 <objectgroup id="8" name="Front"/>
 <objectgroup id="10" name="AlwaysFront"/>
</map>
