<?xml version="1.0" encoding="UTF-8"?>
<map version="1.10" tiledversion="1.10.2" orientation="orthogonal" renderorder="right-down" compressionlevel="0" width="19" height="16" tilewidth="16" tileheight="16" infinite="0" nextlayerid="15" nextobjectid="11">
 <properties>
  <property name="AmbientLight" value="90 90 35"/>
  <property name="IsGreenhouse" value="T"/>
  <property name="Warp" value="9 15 FarmCave 6 3 9 4 Custom_AdditionalFarmCave_2ndArea 9 14"/>
 </properties>
 <tileset firstgid="1" name="cave" tilewidth="16" tileheight="16" tilecount="288" columns="16">
  <image source="Mines/mine_frost_dangerous.png" width="256" height="288"/>
  <tile id="165">
   <properties>
    <property name="Diggable" value="T"/>
    <property name="Type" value="Dirt"/>
   </properties>
  </tile>
  <tile id="181">
   <properties>
    <property name="Diggable" value="T"/>
    <property name="Type" value="Dirt"/>
   </properties>
  </tile>
  <tile id="183">
   <properties>
    <property name="Diggable" value="T"/>
    <property name="Type" value="Dirt"/>
   </properties>
  </tile>
  <tile id="240">
   <properties>
    <property name="Type" value="Wood"/>
   </properties>
  </tile>
  <tile id="241">
   <properties>
    <property name="Type" value="Wood"/>
   </properties>
  </tile>
  <tile id="242">
   <properties>
    <property name="Type" value="Wood"/>
   </properties>
  </tile>
  <tile id="256">
   <properties>
    <property name="Type" value="Wood"/>
   </properties>
  </tile>
  <tile id="257">
   <properties>
    <property name="Type" value="Wood"/>
   </properties>
  </tile>
  <tile id="258">
   <properties>
    <property name="Type" value="Wood"/>
   </properties>
  </tile>
  <tile id="272">
   <properties>
    <property name="Type" value="Wood"/>
   </properties>
  </tile>
  <tile id="273">
   <properties>
    <property name="Type" value="Wood"/>
   </properties>
  </tile>
  <tile id="274">
   <properties>
    <property name="Type" value="Wood"/>
   </properties>
  </tile>
 </tileset>
 <tileset firstgid="289" name="paths" tilewidth="16" tileheight="16" tilecount="64" columns="4">
  <image source="paths" width="64" height="256"/>
 </tileset>
 <tileset firstgid="353" name="z_AdditionalFarmCave" tilewidth="16" tileheight="16" tilecount="480" columns="20">
  <image source="z_AdditionalFarmCave.png" width="320" height="384"/>
  <tile id="120">
   <animation>
    <frame tileid="120" duration="100"/>
    <frame tileid="121" duration="100"/>
    <frame tileid="122" duration="100"/>
    <frame tileid="123" duration="100"/>
    <frame tileid="124" duration="100"/>
    <frame tileid="125" duration="100"/>
    <frame tileid="126" duration="100"/>
    <frame tileid="127" duration="100"/>
    <frame tileid="127" duration="100"/>
    <frame tileid="120" duration="100"/>
   </animation>
  </tile>
 </tileset>
 <tileset firstgid="833" name="z_spring_outdoorsTileSheet" tilewidth="16" tileheight="16" tilecount="1975" columns="25">
  <image source="spring_outdoorsTileSheet.png" width="400" height="1264"/>
  <tile id="606">
   <properties>
    <property name="Diggable" value="T"/>
    <property name="Type" value="Dirt"/>
   </properties>
  </tile>
  <tile id="607">
   <properties>
    <property name="Diggable" value="T"/>
    <property name="Type" value="Dirt"/>
   </properties>
  </tile>
  <tile id="680">
   <properties>
    <property name="Diggable" value="T"/>
    <property name="Type" value="Dirt"/>
   </properties>
  </tile>
  <tile id="685">
   <properties>
    <property name="Diggable" value="T"/>
    <property name="Type" value="Dirt"/>
   </properties>
  </tile>
 </tileset>
 <layer id="1" name="Back" width="19" height="16">
  <data encoding="csv">
0,0,0,0,0,0,0,0,0,0,0,0,0,0,0,0,0,0,0,
0,0,0,0,0,0,0,0,0,0,0,0,0,0,0,0,0,0,0,
0,0,0,0,0,0,0,0,0,0,0,0,0,0,0,0,0,0,0,
0,0,0,0,0,0,0,0,219,219,219,0,0,0,0,0,0,0,0,
0,0,0,0,0,0,0,0,219,219,219,0,0,0,0,0,0,0,0,
0,0,202,189,219,219,219,219,219,219,219,219,219,219,219,188,203,0,0,
0,0,218,219,187,235,235,235,235,235,235,235,235,186,219,219,219,0,0,
0,0,234,235,138,138,138,167,168,168,168,169,156,234,235,186,219,0,0,
0,0,139,139,494,495,496,183,184,184,182,185,171,172,139,218,219,0,0,
0,0,139,139,241,242,243,183,182,184,184,185,139,155,154,218,219,0,0,
0,0,139,139,257,258,259,183,184,166,184,185,154,139,139,218,219,0,0,
0,0,139,139,273,274,275,199,200,200,200,201,139,139,170,218,219,0,0,
0,0,139,139,139,139,139,141,155,3,139,202,203,204,139,234,235,0,0,
0,0,139,139,139,139,139,139,139,19,139,218,219,220,139,139,139,0,0,
0,0,139,139,139,139,139,139,139,19,139,234,235,236,139,139,139,0,0,
0,0,0,0,0,0,0,0,0,19,0,0,0,0,0,0,0,0,0
</data>
 </layer>
 <layer id="13" name="Back2" width="19" height="16">
  <data encoding="csv">
0,0,0,0,0,0,0,0,0,0,0,0,0,0,0,0,0,0,0,
0,0,0,0,0,0,0,0,0,0,0,0,0,0,0,0,0,0,0,
0,0,0,0,0,0,0,0,0,0,0,0,0,0,0,0,0,0,0,
0,0,0,0,0,0,0,0,619,619,619,0,0,0,0,0,0,0,0,
0,0,0,0,0,0,0,0,639,639,639,0,0,0,0,0,0,0,0,
0,0,0,0,0,0,0,0,659,659,659,0,0,0,0,0,0,0,0,
0,0,0,0,0,0,0,0,0,0,0,0,0,0,0,0,0,0,0,
0,0,0,0,0,0,0,0,0,0,0,0,0,0,0,0,0,0,0,
0,0,0,0,0,0,0,0,0,0,0,0,0,0,0,0,0,0,0,
0,0,0,0,0,0,0,0,0,0,0,0,0,0,0,0,0,0,0,
0,0,0,0,0,0,0,0,0,0,0,0,0,0,0,0,0,0,0,
0,0,0,0,0,0,0,0,0,0,0,0,0,0,0,0,0,0,0,
0,0,0,0,0,0,0,0,0,0,0,0,0,0,0,0,0,0,0,
0,0,0,0,0,0,0,0,0,0,0,0,0,0,0,0,0,0,0,
0,0,0,0,0,0,0,0,0,0,0,0,0,0,0,0,0,0,0,
0,0,0,0,0,0,0,0,0,0,0,0,0,0,0,0,0,0,0
</data>
 </layer>
 <layer id="2" name="Buildings" width="19" height="16">
  <data encoding="csv">
0,0,0,0,0,0,0,0,0,0,0,0,0,0,0,0,0,0,0,
0,0,0,0,0,0,0,0,0,0,0,0,0,0,0,0,0,0,0,
0,0,0,70,71,8,75,8,143,0,143,75,74,75,94,95,0,0,0,
0,0,69,86,87,24,91,24,159,0,159,99,131,132,110,111,112,0,0,
0,0,85,102,103,40,107,40,104,0,105,115,147,148,126,127,128,0,0,
0,0,101,118,119,56,123,56,120,0,121,122,163,164,142,143,144,0,0,
0,0,117,134,397,398,399,433,0,0,0,0,0,0,158,159,160,0,0,
0,0,133,433,417,418,419,0,0,0,0,0,0,0,0,0,176,0,0,
0,0,149,0,0,0,0,0,0,0,0,0,0,0,0,0,192,0,0,
0,0,165,0,0,0,0,0,0,0,0,0,0,0,0,0,208,0,0,
0,0,197,0,0,0,0,0,0,0,0,0,0,0,0,0,224,0,0,
0,0,0,233,0,0,0,0,0,0,0,0,0,0,0,0,207,0,0,
0,0,0,214,0,0,0,0,0,0,0,0,0,0,0,78,0,0,0,
0,0,0,0,78,78,78,0,0,0,0,0,78,78,78,0,0,0,0,
0,0,0,0,0,0,0,78,78,0,80,78,78,0,0,0,0,0,0,
0,0,0,0,0,0,0,0,0,0,0,0,0,0,0,0,0,0,0
</data>
 </layer>
 <layer id="11" name="Buildings2" width="19" height="16">
  <data encoding="csv">
0,0,0,0,0,0,0,0,0,0,0,0,0,0,0,0,0,0,0,
0,0,0,0,0,0,0,0,0,0,0,0,0,0,0,0,0,0,0,
0,0,0,0,0,0,0,0,72,0,73,0,0,0,0,0,0,0,0,
0,0,0,0,0,0,0,0,133,0,144,0,0,0,0,0,0,0,0,
0,0,0,0,0,0,0,0,0,0,0,0,0,0,0,0,0,0,0,
0,0,0,0,0,0,0,0,0,0,0,0,0,0,0,0,0,0,0,
0,0,0,0,0,0,0,0,0,0,0,0,0,0,0,0,0,0,0,
0,0,0,0,0,394,0,0,0,0,0,0,0,0,0,0,0,0,0,
0,0,0,0,0,0,0,0,0,0,0,0,0,0,0,0,0,0,0,
0,0,0,0,0,0,0,0,0,0,0,0,0,0,0,0,0,0,0,
0,0,0,0,0,0,0,0,0,0,0,0,0,0,0,0,0,0,0,
0,0,0,0,0,0,0,0,0,0,0,0,0,0,0,0,0,0,0,
0,0,0,0,0,0,0,0,0,0,0,0,0,0,0,0,0,0,0,
0,0,0,0,0,0,0,0,0,0,0,0,0,0,0,0,0,0,0,
0,0,0,0,0,0,0,0,0,0,0,0,0,0,0,0,0,0,0,
0,0,0,0,0,0,0,0,0,0,0,0,0,0,0,0,0,0,0
</data>
 </layer>
 <layer id="3" name="Paths" width="19" height="16">
  <data encoding="csv">
0,0,0,0,0,0,0,0,0,0,0,0,0,0,0,0,0,0,0,
0,0,0,0,0,0,0,0,0,0,0,0,0,0,0,0,0,0,0,
0,0,0,0,0,0,0,0,0,0,0,0,0,0,0,0,0,0,0,
0,0,0,0,0,0,0,0,0,0,0,0,0,0,0,0,0,0,0,
0,0,0,0,0,0,0,0,0,0,0,0,0,0,0,0,0,0,0,
0,0,0,0,0,0,0,0,0,0,0,0,0,0,0,0,0,0,0,
0,0,0,0,0,0,0,0,0,0,0,0,0,0,0,0,0,0,0,
0,0,0,0,0,0,0,0,0,0,0,0,0,0,0,0,0,0,0,
0,0,0,0,0,0,0,0,0,0,0,0,0,0,0,0,0,0,0,
0,0,0,0,0,0,0,0,0,297,0,0,0,0,0,0,0,0,0,
0,0,0,0,0,0,0,0,0,0,0,0,0,0,0,0,0,0,0,
0,0,0,0,0,0,0,0,0,0,0,0,0,0,0,0,0,0,0,
0,0,0,0,0,0,0,0,0,0,0,0,0,0,0,0,0,0,0,
0,0,0,0,0,0,0,0,0,0,0,0,0,0,0,0,0,0,0,
0,0,0,0,0,0,0,0,0,297,0,0,0,0,0,0,0,0,0,
0,0,0,0,0,0,0,0,0,0,0,0,0,0,0,0,0,0,0
</data>
 </layer>
 <layer id="4" name="Front" width="19" height="16">
  <data encoding="csv">
78,78,78,78,78,78,78,78,78,78,78,78,78,78,78,78,78,78,78,
78,78,78,78,78,78,78,78,78,78,78,78,78,78,78,78,78,78,78,
78,78,78,0,0,0,0,0,0,71,0,0,0,0,0,0,78,78,78,
78,78,0,0,0,0,0,0,0,159,0,0,0,0,0,0,0,78,78,
78,78,0,0,357,358,359,0,0,0,0,0,0,0,0,0,0,78,78,
78,78,0,0,377,378,379,0,0,0,0,0,0,0,0,0,0,78,78,
78,78,0,0,0,0,0,0,0,0,0,0,0,0,0,0,0,78,78,
78,78,0,0,0,0,0,0,0,0,0,0,0,0,0,0,0,78,78,
78,78,0,0,0,0,0,0,0,0,0,0,0,0,0,0,0,78,78,
78,78,0,0,0,0,0,0,0,0,0,0,0,0,0,0,0,78,78,
78,78,214,217,0,0,0,0,0,0,0,0,0,0,0,0,0,78,78,
78,78,78,233,0,0,0,0,0,0,0,0,0,0,0,206,207,78,78,
78,78,78,214,216,215,198,0,0,0,0,0,206,215,216,222,78,78,78,
78,78,78,78,78,78,214,215,198,0,206,216,222,78,78,78,78,78,78,
78,78,78,78,78,78,78,78,197,0,207,78,78,78,78,78,78,78,78,
78,78,78,78,78,78,78,78,80,80,80,78,78,78,78,78,78,78,78
</data>
 </layer>
 <layer id="9" name="AlwaysFront" width="19" height="16">
  <data encoding="csv">
0,0,0,0,0,0,0,0,0,0,0,0,0,0,0,0,0,0,0,
0,0,0,0,0,0,0,0,0,0,0,0,0,0,0,0,0,0,0,
0,0,0,0,0,0,0,0,0,0,0,0,0,0,0,0,0,0,0,
0,0,0,0,0,0,0,0,0,0,0,0,0,0,0,0,0,0,0,
0,0,0,0,0,0,0,0,0,0,0,0,0,0,0,0,0,0,0,
0,0,0,0,0,0,0,0,0,0,0,0,0,0,0,0,0,0,0,
0,0,0,0,0,0,0,0,0,0,0,0,0,0,0,0,0,0,0,
0,0,0,0,0,0,0,0,0,0,0,0,0,0,0,0,0,0,0,
0,0,0,0,0,0,0,0,0,0,0,0,0,0,0,0,0,0,0,
0,0,0,0,0,0,0,0,0,0,0,0,0,0,0,0,0,0,0,
0,0,0,0,0,0,0,0,0,0,0,0,0,0,0,0,0,0,0,
0,0,0,0,0,0,0,0,0,0,0,0,0,0,0,0,0,0,0,
0,0,0,0,0,0,0,0,0,0,0,0,0,0,0,0,0,0,0,
0,0,0,0,0,0,0,0,0,0,0,0,0,0,0,0,0,0,0,
0,0,0,0,0,0,0,0,0,216,0,0,0,0,0,0,0,0,0,
0,0,0,0,0,0,0,0,0,0,0,0,0,0,0,0,0,0,0
</data>
 </layer>
 <objectgroup id="5" name="Back">
  <object id="1" name="TileData" x="80" y="128" width="16" height="16">
   <properties>
    <property name="Placeable" value="T"/>
   </properties>
  </object>
 </objectgroup>
 <objectgroup id="14" name="Back2"/>
 <objectgroup id="6" name="Buildings">
  <object id="3" name="TileData" x="80" y="112" width="16" height="16">
   <properties>
    <property name="Action" value="Message &quot;AdFCms01&quot;"/>
   </properties>
  </object>
  <object id="4" name="TileData" x="64" y="112" width="16" height="16">
   <properties>
    <property name="Action" value="Message &quot;AdFCms01&quot;"/>
   </properties>
  </object>
  <object id="5" name="TileData" x="96" y="112" width="16" height="16">
   <properties>
    <property name="Action" value="Message &quot;AdFCms01&quot;"/>
   </properties>
  </object>
  <object id="6" name="TileData" x="112" y="96" width="16" height="16">
   <properties>
    <property name="Action" value="Message &quot;AdFCms02&quot;"/>
   </properties>
  </object>
  <object id="7" name="TileData" x="48" y="112" width="16" height="16">
   <properties>
    <property name="Action" value="Message &quot;AdFCms02&quot;"/>
   </properties>
  </object>
 </objectgroup>
 <objectgroup id="12" name="Buildings2"/>
 <objectgroup id="7" name="Paths"/>
 <objectgroup id="8" name="Front"/>
 <objectgroup id="10" name="AlwaysFront"/>
</map>
