<?xml version="1.0" encoding="UTF-8"?>
<map version="1.8" tiledversion="1.8.4" orientation="orthogonal" renderorder="right-down" width="2" height="5" tilewidth="16" tileheight="16" infinite="0" nextlayerid="11" nextobjectid="2">
 <tileset firstgid="1" name="Paths" tilewidth="16" tileheight="16" tilecount="36" columns="4">
  <image source="paths.png" width="64" height="144"/>
 </tileset>
 <tileset firstgid="37" name="untitled tile sheet" tilewidth="16" tileheight="16" tilecount="2176" columns="32">
  <image source="townInterior" width="512" height="1088"/>
 </tileset>
 <tileset firstgid="2213" name="lemurfurniture" tilewidth="16" tileheight="16" tilecount="3392" columns="32">
  <image source="lemurfurniture.png" width="512" height="1696"/>
 </tileset>
 <layer id="1" name="Back" width="2" height="5">
  <data encoding="csv">
0,1960,
1992,1993,
2024,2025,
1991,1991,
1926,1926
</data>
 </layer>
 <objectgroup id="2" name="Back"/>
 <layer id="3" name="Buildings" width="2" height="5">
  <data encoding="csv">
5219,5220,
5251,5252,
5283,5284,
0,0,
0,0
</data>
 </layer>
 <objectgroup id="4" name="Buildings">
  <object id="1" name="TileData" x="0" y="32" width="16" height="16">
   <properties>
    <property name="Action" value="Warp 2 10 EastScarp_JojaBreakroom"/>
   </properties>
  </object>
 </objectgroup>
 <layer id="5" name="Paths" width="2" height="5">
  <data encoding="csv">
0,0,
0,0,
0,0,
0,0,
0,0
</data>
 </layer>
 <objectgroup id="6" name="Paths"/>
 <layer id="7" name="Front" width="2" height="5">
  <data encoding="csv">
0,0,
0,0,
0,0,
0,0,
0,0
</data>
 </layer>
 <objectgroup id="8" name="Front"/>
 <layer id="9" name="AlwaysFront" width="2" height="5">
  <data encoding="csv">
0,0,
0,0,
0,0,
0,0,
0,0
</data>
 </layer>
 <objectgroup id="10" name="AlwaysFront"/>
</map>
