<?xml version="1.0" encoding="UTF-8"?>
<map version="1.8" tiledversion="1.8.4" orientation="orthogonal" renderorder="right-down" width="1" height="1" tilewidth="16" tileheight="16" infinite="0" nextlayerid="11" nextobjectid="1">
 <tileset firstgid="1" name="Paths" tilewidth="16" tileheight="16" tilecount="36" columns="4">
  <image source="paths.png" width="64" height="144"/>
 </tileset>
 <tileset firstgid="37" name="untitled tile sheet" tilewidth="16" tileheight="16" tilecount="2176" columns="32">
  <image source="townInterior" width="512" height="1088"/>
 </tileset>
 <tileset firstgid="2213" name="z_lemurfurniture" tilewidth="16" tileheight="16" tilecount="3392" columns="32">
  <image source="lemurfurniture.png" width="512" height="1696"/>
 </tileset>
 <layer id="1" name="Back" width="1" height="1">
  <data encoding="csv">
1926
</data>
 </layer>
 <objectgroup id="2" name="Back"/>
 <layer id="3" name="Buildings" width="1" height="1">
  <data encoding="csv">
0
</data>
 </layer>
 <objectgroup id="4" name="Buildings"/>
 <layer id="5" name="Paths" width="1" height="1">
  <data encoding="csv">
6
</data>
 </layer>
 <objectgroup id="6" name="Paths"/>
 <layer id="7" name="Front" width="1" height="1">
  <data encoding="csv">
5409
</data>
 </layer>
 <objectgroup id="8" name="Front"/>
 <layer id="9" name="AlwaysFront" width="1" height="1">
  <data encoding="csv">
0
</data>
 </layer>
 <objectgroup id="10" name="AlwaysFront"/>
</map>
