<?xml version="1.0" encoding="UTF-8"?>
<map version="1.10" tiledversion="1.11.0" orientation="orthogonal" renderorder="right-down" compressionlevel="0" width="2" height="4" tilewidth="16" tileheight="16" infinite="0" nextlayerid="9" nextobjectid="14">
 <properties>
  <property name="DayTiles" value="Back 2 2 1090 Back 3 2 1091 Buildings 2 0 1026 Buildings 3 0 1027 Back 2 5 1186"/>
  <property name="NightTiles" value="Back 2 2 1122 Back 3 2 1184 Buildings 2 0 1188 Buildings 3 0 1189 Back 2 5 1154"/>
  <property name="Warp" value="2 6 Mountain 29 7"/>
 </properties>
 <tileset firstgid="1" name="p" tilewidth="16" tileheight="16" tilecount="64" columns="4">
  <image source="paths.png" width="64" height="256"/>
 </tileset>
 <tileset firstgid="65" source="Z_TinselShop.tsx"/>
 <layer id="1" name="Back" width="2" height="4">
  <data encoding="csv">
0,0,
0,0,
0,0,
0,0
</data>
 </layer>
 <layer id="2" name="Buildings" width="2" height="4">
  <data encoding="csv">
0,0,
0,0,
113,114,
121,122
</data>
 </layer>
 <layer id="3" name="Front" width="2" height="4">
  <data encoding="csv">
97,98,
105,106,
0,0,
0,0
</data>
 </layer>
 <layer id="4" name="Paths" width="2" height="4">
  <data encoding="csv">
0,9,
0,0,
0,0,
0,0
</data>
 </layer>
 <objectgroup id="5" name="Back"/>
 <objectgroup id="6" name="Buildings">
  <object id="1" name="TileData" x="0" y="32" width="16" height="16">
   <properties>
    <property name="Action" value="OpenShop appleseed.BCP.NMTinselShop"/>
   </properties>
  </object>
  <object id="11" name="TileData" x="0" y="48" width="16" height="16">
   <properties>
    <property name="Passable" value="T"/>
   </properties>
  </object>
  <object id="12" name="TileData" x="16" y="48" width="16" height="16">
   <properties>
    <property name="Passable" value="T"/>
   </properties>
  </object>
  <object id="13" name="TileData" x="16" y="32" width="16" height="16">
   <properties>
    <property name="Action" value="OpenShop appleseed.BCP.NMTinselShop"/>
   </properties>
  </object>
 </objectgroup>
 <objectgroup id="7" name="Front"/>
 <objectgroup id="8" name="Paths"/>
</map>
