<?xml version="1.0" encoding="UTF-8"?>
<map version="1.10" tiledversion="1.11.2" orientation="orthogonal" renderorder="right-down" compressionlevel="0" width="9" height="13" tilewidth="16" tileheight="16" infinite="0" nextlayerid="19" nextobjectid="24">
 <properties>
  <property name="CanCaskHere" value="T"/>
  <property name="DayTiles" value="Front 4 1 256 Front 4 2 288"/>
  <property name="FloorIDs" value="MainRoom, Floor2 30"/>
  <property name="IsFarm" value="T"/>
  <property name="IsGreenhouse" value="T"/>
  <property name="Music" value="Majestic"/>
  <property name="NightTiles" value="Front 4 1 1253 Front 4 2 1285"/>
  <property name="WallIDs" value="MainRoom 11"/>
  <property name="Warp" value="5 12 Custom_CapeStardew 6 5"/>
  <property name="WindowLight" value="4 2 2"/>
 </properties>
 <tileset firstgid="1" name="townInterior_2" tilewidth="16" tileheight="16" tilecount="1312" columns="32">
  <image source="townInterior_2.png" trans="000000" width="512" height="656"/>
 </tileset>
 <tileset firstgid="1313" name="townInterior" tilewidth="16" tileheight="16" tilecount="2176" columns="32">
  <image source="townInterior.png" trans="000000" width="512" height="1088"/>
  <tile id="998">
   <properties>
    <property name="Diggable" value="T"/>
   </properties>
  </tile>
  <tile id="1625">
   <properties>
    <property name="Diggable" value="T"/>
   </properties>
  </tile>
  <tile id="1657">
   <properties>
    <property name="Diggable" value="T"/>
   </properties>
  </tile>
  <tile id="1690">
   <properties>
    <property name="Diggable" value="T"/>
   </properties>
  </tile>
  <tile id="1691">
   <properties>
    <property name="Diggable" value="T"/>
   </properties>
  </tile>
  <tile id="1822">
   <properties>
    <property name="Diggable" value="T"/>
   </properties>
  </tile>
  <tile id="1854">
   <properties>
    <property name="Diggable" value="T"/>
   </properties>
  </tile>
 </tileset>
 <tileset firstgid="3489" name="spring_outdoorsTileSheet" tilewidth="16" tileheight="16" tilecount="1975" columns="25">
  <image source="spring_outdoorsTileSheet.png" trans="000000" width="400" height="1264"/>
  <tile id="1498">
   <properties>
    <property name="Passable" value="T"/>
   </properties>
  </tile>
  <tile id="1499">
   <properties>
    <property name="Passable" value="T"/>
   </properties>
  </tile>
  <tile id="1523">
   <properties>
    <property name="Passable" value="T"/>
   </properties>
  </tile>
  <tile id="1524">
   <properties>
    <property name="Passable" value="T"/>
   </properties>
  </tile>
  <tile id="1549">
   <properties>
    <property name="Passable" value="T"/>
   </properties>
  </tile>
 </tileset>
 <tileset firstgid="5464" name="zzz_cabinstuff" tilewidth="16" tileheight="16" tilecount="35" columns="7">
  <image source="cabinstuff.png" trans="000000" width="116" height="80"/>
 </tileset>
 <tileset firstgid="5499" name="zzz_walls_and_floors" tilewidth="16" tileheight="16" tilecount="688" columns="16">
  <image source="walls_and_floors.png" trans="ff00ff" width="256" height="688"/>
 </tileset>
 <tileset firstgid="6187" name="zzz_farmhouse_tiles" tilewidth="16" tileheight="16" tilecount="264" columns="12">
  <image source="farmhouse_tiles.png" trans="ff00ff" width="192" height="352"/>
 </tileset>
 <tileset firstgid="6451" name="zzz_AnnettaHouseSprites" tilewidth="16" tileheight="16" tilecount="96" columns="6">
  <image source="AnnettaHouseSprites.png" trans="ff00ff" width="96" height="267"/>
 </tileset>
 <layer id="1" name="Back" width="9" height="13">
  <data encoding="csv">
0,0,0,0,0,0,0,0,0,
0,5510,5510,5510,5510,5510,5510,5510,0,
0,5526,5526,5526,5526,5526,5526,5526,0,
2970,5872,5872,5872,5838,5838,5838,5838,2970,
2970,5871,5871,5872,5838,5838,5838,5838,2970,
2970,5871,5872,5872,5838,5838,5854,5838,2970,
2970,5887,5888,5888,5838,5854,5854,5854,2970,
2970,5837,5837,5853,5854,5854,5853,5854,2970,
2970,5837,5853,5853,5853,5854,5853,5854,2970,
2970,5837,5837,5837,5837,5853,5853,5854,2970,
2970,5853,5853,5853,5853,5853,5854,5854,2970,
2970,2970,2970,2970,2970,5837,2970,2970,2970,
0,0,0,0,0,5837,0,0,0
</data>
 </layer>
 <layer id="12" name="Back2" width="9" height="13">
  <data encoding="csv">
0,0,0,0,0,0,0,0,0,
0,0,0,0,0,0,0,0,0,
0,0,0,0,0,0,0,0,0,
2970,0,0,0,6480,0,0,0,0,
2970,0,0,0,6474,0,0,0,0,
2307,0,0,0,6474,0,0,0,0,
2970,0,0,0,6474,0,0,0,0,
2970,6473,6473,6473,6486,0,0,0,0,
2970,0,0,0,0,0,0,0,0,
2970,0,0,0,0,0,0,0,0,
2970,0,0,0,0,0,0,0,0,
2970,0,0,0,0,0,0,0,0,
0,0,0,0,0,0,0,0,0
</data>
 </layer>
 <layer id="2" name="Buildings" width="9" height="13">
  <data encoding="csv">
1313,1314,1315,1315,1315,1315,1315,1316,1313,
1345,0,0,0,0,0,0,0,1349,
1377,0,0,0,0,0,0,0,1381,
1377,5542,5542,5542,5542,5542,5542,5542,1381,
1377,0,0,0,0,0,0,0,1381,
1377,0,0,0,0,1635,1636,0,1381,
1377,0,0,0,0,0,0,0,1381,
1377,0,0,0,0,0,0,0,1381,
1377,0,0,0,0,0,0,0,1381,
1377,0,0,0,0,0,0,0,1381,
1473,0,0,0,0,0,0,0,1480,
1313,1313,1313,1313,1377,0,1381,1313,1313,
0,0,0,0,1409,0,1443,0,0
</data>
 </layer>
 <layer id="16" name="Buildings2" width="9" height="13">
  <data encoding="csv">
0,0,0,0,0,0,0,0,0,
0,2742,2739,2739,2739,2739,2739,2741,0,
0,2774,0,0,0,5473,5474,2773,0,
0,0,0,0,0,1733,1734,0,0,
0,0,0,0,0,0,0,0,0,
0,0,0,0,0,0,0,0,0,
0,0,0,0,0,0,0,0,0,
0,6473,6473,6473,0,0,0,0,0,
0,0,0,0,0,0,0,0,0,
0,0,0,0,0,0,0,0,0,
0,0,0,0,0,0,0,0,0,
0,0,0,0,0,0,0,0,0,
0,0,0,0,0,0,0,0,0
</data>
 </layer>
 <layer id="14" name="Paths" width="9" height="13" visible="0">
  <data encoding="csv">
0,0,0,0,0,0,0,0,0,
0,0,0,0,0,0,0,0,0,
0,0,0,0,0,0,0,0,0,
0,0,0,0,0,0,0,0,0,
0,0,0,0,0,0,0,0,0,
0,0,0,0,0,0,0,0,0,
0,0,0,0,0,0,0,0,0,
0,0,0,0,0,0,0,0,0,
0,0,0,0,0,0,0,0,0,
0,0,0,0,0,0,0,0,0,
0,0,0,0,0,0,0,0,0,
0,0,0,0,0,0,0,0,0,
0,0,0,0,0,0,0,0,0
</data>
 </layer>
 <layer id="4" name="Front" width="9" height="13" visible="0">
  <data encoding="csv">
0,0,5464,5465,0,0,0,0,0,
0,0,0,0,1569,5466,5467,0,0,
0,0,0,0,1601,1701,1702,0,0,
0,0,0,0,0,1729,1730,0,0,
0,0,0,0,0,1761,1762,0,0,
0,0,0,0,0,0,0,0,0,
0,0,0,0,0,0,0,0,0,
0,0,0,0,0,0,0,0,0,
0,0,0,0,0,0,0,0,0,
0,0,0,0,0,0,0,0,0,
0,1474,1509,1509,1475,0,1476,1479,0,
0,0,0,0,0,0,0,0,0,
0,0,0,0,0,0,0,0,0
</data>
 </layer>
 <layer id="9" name="Front2" width="9" height="13" visible="0">
  <data encoding="csv">
0,0,0,0,0,0,0,0,0,
0,0,0,0,0,0,0,0,0,
0,0,0,0,0,0,0,0,0,
0,0,0,0,0,0,0,0,0,
0,0,0,0,0,0,0,0,0,
0,0,0,0,0,0,0,0,0,
0,0,0,0,0,0,0,0,0,
0,0,0,0,0,0,0,0,0,
0,0,0,0,0,0,0,0,0,
0,0,0,0,0,0,0,0,0,
0,0,0,0,0,0,0,0,0,
0,0,0,0,0,0,0,0,0,
0,0,0,0,0,0,0,0,0
</data>
 </layer>
 <layer id="3" name="AlwaysFront" width="9" height="13" visible="0">
  <data encoding="csv">
0,0,1315,1315,1315,0,0,0,0,
0,1354,0,0,0,0,0,1356,0,
0,0,0,0,0,0,0,0,0,
0,0,0,0,0,0,0,0,0,
0,0,0,0,0,0,0,0,0,
0,0,0,0,0,0,0,0,0,
0,0,0,0,0,0,0,0,0,
0,0,0,0,0,0,0,0,0,
0,0,0,0,0,0,0,0,0,
0,0,0,0,0,0,0,0,0,
0,0,0,0,0,0,0,0,0,
0,0,0,0,0,0,0,0,0,
0,0,0,0,0,1478,0,0,0
</data>
 </layer>
 <objectgroup id="5" name="Back" visible="0">
  <object id="7" name="TileData" x="96" y="48" width="16" height="16">
   <properties>
    <property name="Bed" type="bool" value="true"/>
    <property name="TouchAction" value="Sleep"/>
   </properties>
  </object>
  <object id="8" name="TileData" x="96" y="64" width="16" height="16">
   <properties>
    <property name="Bed" type="bool" value="true"/>
    <property name="TouchAction" value="Sleep"/>
   </properties>
  </object>
  <object id="10" name="TileData" x="80" y="48" width="16" height="32">
   <properties>
    <property name="Bed" type="bool" value="true"/>
   </properties>
  </object>
  <object id="18" name="TileData" x="16" y="112" width="112" height="64">
   <properties>
    <property name="FloorID" value="MainRoom"/>
   </properties>
  </object>
  <object id="19" name="TileData" x="64" y="64" width="64" height="48">
   <properties>
    <property name="FloorID" value="MainRoom"/>
   </properties>
  </object>
  <object id="22" name="TileData" x="16" y="64" width="48" height="48">
   <properties>
    <property name="FloorID" value="Floor2"/>
   </properties>
  </object>
  <object id="20" name="TileData" x="80" y="176" width="16" height="16">
   <properties>
    <property name="FloorID" value="MainRoom"/>
   </properties>
  </object>
  <object id="21" name="TileData" x="80" y="192" width="16" height="16">
   <properties>
    <property name="FloorID" value="MainRoom"/>
   </properties>
  </object>
  <object id="23" name="TileData" x="16" y="16" width="112" height="16">
   <properties>
    <property name="WallID" value="MainRoom"/>
   </properties>
  </object>
 </objectgroup>
 <objectgroup id="13" name="Back2" visible="0"/>
 <objectgroup id="6" name="Buildings" visible="0">
  <object id="11" name="TileData" x="80" y="80" width="32" height="16">
   <properties>
    <property name="Action" value="Message Abandoned.2"/>
   </properties>
  </object>
 </objectgroup>
 <objectgroup id="18" name="Buildings2" visible="0"/>
 <objectgroup id="15" name="Paths" visible="0"/>
 <objectgroup id="11" name="Front2" visible="0"/>
 <objectgroup id="8" name="Front" visible="0"/>
 <objectgroup id="7" name="AlwaysFront" visible="0"/>
</map>
