<?xml version="1.0" encoding="UTF-8"?>
<map version="1.10" tiledversion="1.11.2" orientation="orthogonal" renderorder="right-down" compressionlevel="0" width="1" height="2" tilewidth="16" tileheight="16" infinite="0" nextlayerid="15" nextobjectid="191">
 <properties>
  <property name="AmbientLight" value="240 140 76"/>
  <property name="Light" value="5 18 2"/>
  <property name="Music" value="Volcano_Ambient"/>
  <property name="indoorWater" value="T"/>
 </properties>
 <tileset firstgid="1" name="mine" tilewidth="16" tileheight="16" tilecount="320" columns="16">
  <image source="Mines/mine_lava_dangerous.png" width="256" height="320"/>
  <tile id="0">
   <properties>
    <property name="Type" value="Dirt"/>
   </properties>
  </tile>
  <tile id="137">
   <properties>
    <property name="Type" value="Stone"/>
   </properties>
  </tile>
  <tile id="138">
   <properties>
    <property name="Type" value="Stone"/>
   </properties>
  </tile>
  <tile id="139">
   <properties>
    <property name="Type" value="Stone"/>
   </properties>
  </tile>
  <tile id="140">
   <properties>
    <property name="Type" value="Stone"/>
   </properties>
  </tile>
  <tile id="153">
   <properties>
    <property name="Type" value="Stone"/>
   </properties>
  </tile>
  <tile id="154">
   <properties>
    <property name="Type" value="Stone"/>
   </properties>
  </tile>
  <tile id="155">
   <properties>
    <property name="Type" value="Stone"/>
   </properties>
  </tile>
  <tile id="165">
   <properties>
    <property name="Diggable" value="T"/>
    <property name="Type" value="Dirt"/>
   </properties>
  </tile>
  <tile id="166">
   <properties>
    <property name="Type" value="Stone"/>
   </properties>
  </tile>
  <tile id="167">
   <properties>
    <property name="Type" value="Stone"/>
   </properties>
  </tile>
  <tile id="168">
   <properties>
    <property name="Type" value="Stone"/>
   </properties>
  </tile>
  <tile id="169">
   <properties>
    <property name="Type" value="Stone"/>
   </properties>
  </tile>
  <tile id="170">
   <properties>
    <property name="Type" value="Stone"/>
   </properties>
  </tile>
  <tile id="171">
   <properties>
    <property name="Type" value="Stone"/>
   </properties>
  </tile>
  <tile id="172">
   <properties>
    <property name="Type" value="Stone"/>
   </properties>
  </tile>
  <tile id="181">
   <properties>
    <property name="Diggable" value="T"/>
    <property name="Type" value="Dirt"/>
   </properties>
  </tile>
  <tile id="182">
   <properties>
    <property name="Type" value="Stone"/>
   </properties>
  </tile>
  <tile id="183">
   <properties>
    <property name="Diggable" value="T"/>
    <property name="Type" value="Dirt"/>
   </properties>
  </tile>
  <tile id="184">
   <properties>
    <property name="Type" value="Stone"/>
   </properties>
  </tile>
  <tile id="185">
   <properties>
    <property name="Type" value="Stone"/>
   </properties>
  </tile>
  <tile id="186">
   <properties>
    <property name="Type" value="Stone"/>
   </properties>
  </tile>
  <tile id="187">
   <properties>
    <property name="Type" value="Stone"/>
   </properties>
  </tile>
  <tile id="188">
   <properties>
    <property name="Type" value="Stone"/>
   </properties>
  </tile>
  <tile id="198">
   <properties>
    <property name="Type" value="Stone"/>
   </properties>
  </tile>
  <tile id="199">
   <properties>
    <property name="Type" value="Stone"/>
   </properties>
  </tile>
  <tile id="200">
   <properties>
    <property name="Type" value="Stone"/>
   </properties>
  </tile>
  <tile id="201">
   <properties>
    <property name="Type" value="Stone"/>
   </properties>
  </tile>
  <tile id="202">
   <properties>
    <property name="Type" value="Stone"/>
   </properties>
  </tile>
  <tile id="203">
   <properties>
    <property name="Type" value="Stone"/>
   </properties>
  </tile>
  <tile id="204">
   <properties>
    <property name="Type" value="Stone"/>
   </properties>
  </tile>
  <tile id="217">
   <properties>
    <property name="Type" value="Stone"/>
   </properties>
  </tile>
  <tile id="218">
   <properties>
    <property name="Type" value="Stone"/>
   </properties>
  </tile>
  <tile id="219">
   <properties>
    <property name="Type" value="Stone"/>
   </properties>
  </tile>
  <tile id="233">
   <properties>
    <property name="Type" value="Stone"/>
   </properties>
  </tile>
  <tile id="234">
   <properties>
    <property name="Type" value="Stone"/>
   </properties>
  </tile>
  <tile id="235">
   <properties>
    <property name="Type" value="Stone"/>
   </properties>
  </tile>
  <tile id="240">
   <properties>
    <property name="Type" value="Wood"/>
   </properties>
  </tile>
  <tile id="241">
   <properties>
    <property name="Type" value="Wood"/>
   </properties>
  </tile>
  <tile id="242">
   <properties>
    <property name="Type" value="Wood"/>
   </properties>
  </tile>
  <tile id="246">
   <properties>
    <property name="Water" value="T"/>
   </properties>
  </tile>
  <tile id="247">
   <properties>
    <property name="Water" value="T"/>
   </properties>
  </tile>
  <tile id="248">
   <properties>
    <property name="Water" value="T"/>
   </properties>
  </tile>
  <tile id="256">
   <properties>
    <property name="Type" value="Wood"/>
   </properties>
  </tile>
  <tile id="257">
   <properties>
    <property name="Type" value="Wood"/>
   </properties>
  </tile>
  <tile id="258">
   <properties>
    <property name="Type" value="Wood"/>
   </properties>
  </tile>
  <tile id="260">
   <properties>
    <property name="Water" value="T"/>
   </properties>
  </tile>
  <tile id="262">
   <properties>
    <property name="Water" value="T"/>
   </properties>
  </tile>
  <tile id="263">
   <properties>
    <property name="Water" value="T"/>
   </properties>
  </tile>
  <tile id="264">
   <properties>
    <property name="Water" value="T"/>
   </properties>
  </tile>
  <tile id="265">
   <properties>
    <property name="Water" value="T"/>
   </properties>
  </tile>
  <tile id="266">
   <properties>
    <property name="Water" value="T"/>
   </properties>
  </tile>
  <tile id="272">
   <properties>
    <property name="Type" value="Wood"/>
   </properties>
  </tile>
  <tile id="273">
   <properties>
    <property name="Type" value="Wood"/>
   </properties>
  </tile>
  <tile id="274">
   <properties>
    <property name="Type" value="Wood"/>
   </properties>
  </tile>
  <tile id="275">
   <properties>
    <property name="Water" value="T"/>
   </properties>
  </tile>
  <tile id="276">
   <properties>
    <property name="Water" value="T"/>
   </properties>
  </tile>
  <tile id="277">
   <properties>
    <property name="Water" value="T"/>
   </properties>
  </tile>
  <tile id="281">
   <properties>
    <property name="Water" value="T"/>
   </properties>
  </tile>
  <tile id="282">
   <properties>
    <property name="Water" value="T"/>
   </properties>
  </tile>
 </tileset>
 <tileset firstgid="321" name="cavetreasure" tilewidth="16" tileheight="16" tilecount="138" columns="6">
  <image source="cavetreasure.png" trans="000000" width="96" height="374"/>
  <tile id="21">
   <animation>
    <frame tileid="21" duration="100"/>
    <frame tileid="22" duration="100"/>
   </animation>
  </tile>
  <tile id="104">
   <animation>
    <frame tileid="104" duration="100"/>
    <frame tileid="105" duration="100"/>
   </animation>
  </tile>
 </tileset>
 <tileset firstgid="459" name="volcano_dungeon" tilewidth="16" tileheight="16" tilecount="576" columns="16">
  <image source="Mines/volcano_dungeon.png" trans="000000" width="256" height="576"/>
 </tileset>
 <layer id="1" name="Back" width="1" height="2">
  <data encoding="csv">
219,
187
</data>
 </layer>
 <layer id="7" name="Back2" width="1" height="2">
  <data encoding="csv">
0,
0
</data>
 </layer>
 <layer id="2" name="Buildings" width="1" height="2">
  <data encoding="csv">
77,
49
</data>
 </layer>
 <layer id="10" name="Buildings2" width="1" height="2">
  <data encoding="csv">
0,
0
</data>
 </layer>
 <layer id="3" name="Front" width="1" height="2">
  <data encoding="csv">
0,
0
</data>
 </layer>
 <layer id="14" name="AlwaysFront" width="1" height="2">
  <data encoding="csv">
0,
0
</data>
 </layer>
 <objectgroup id="4" name="Back"/>
 <objectgroup id="8" name="Back2"/>
 <objectgroup id="5" name="Buildings"/>
 <objectgroup id="11" name="Buildings2"/>
 <objectgroup id="6" name="Front"/>
</map>
