<?xml version="1.0" encoding="UTF-8"?>
<map version="1.10" tiledversion="1.11.2" orientation="orthogonal" renderorder="right-down" compressionlevel="0" width="9" height="13" tilewidth="16" tileheight="16" infinite="0" nextlayerid="18" nextobjectid="18">
 <properties>
  <property name="AmbientLight" value="120 20 100"/>
  <property name="ForceSpawnForageables" value="T"/>
  <property name="IsFarm" value="T"/>
  <property name="IsGreenhouse" value="T"/>
  <property name="Music" value="Frost_Ambient"/>
  <property name="TreatAsOutdoors" value="T"/>
  <property name="Warp" value="5 12 Custom_CapeStardew 6 5"/>
  <property name="Winter_Objects" value="T"/>
 </properties>
 <tileset firstgid="1" name="townInterior_2" tilewidth="16" tileheight="16" tilecount="1312" columns="32">
  <image source="townInterior_2.png" trans="000000" width="512" height="656"/>
 </tileset>
 <tileset firstgid="1313" name="townInterior" tilewidth="16" tileheight="16" tilecount="2176" columns="32">
  <image source="townInterior.png" trans="000000" width="512" height="1088"/>
  <tile id="1625">
   <properties>
    <property name="Diggable" value="T"/>
   </properties>
  </tile>
  <tile id="1657">
   <properties>
    <property name="Diggable" value="T"/>
   </properties>
  </tile>
  <tile id="1690">
   <properties>
    <property name="Diggable" value="T"/>
   </properties>
  </tile>
  <tile id="1691">
   <properties>
    <property name="Diggable" value="T"/>
   </properties>
  </tile>
  <tile id="1822">
   <properties>
    <property name="Diggable" value="T"/>
   </properties>
  </tile>
  <tile id="1854">
   <properties>
    <property name="Diggable" value="T"/>
   </properties>
  </tile>
 </tileset>
 <tileset firstgid="3489" name="spring_outdoorsTileSheet" tilewidth="16" tileheight="16" tilecount="1975" columns="25">
  <image source="spring_outdoorsTileSheet.png" trans="000000" width="400" height="1264"/>
  <tile id="1498">
   <properties>
    <property name="Passable" value="T"/>
   </properties>
  </tile>
  <tile id="1499">
   <properties>
    <property name="Passable" value="T"/>
   </properties>
  </tile>
  <tile id="1523">
   <properties>
    <property name="Passable" value="T"/>
   </properties>
  </tile>
  <tile id="1524">
   <properties>
    <property name="Passable" value="T"/>
   </properties>
  </tile>
  <tile id="1549">
   <properties>
    <property name="Passable" value="T"/>
   </properties>
  </tile>
 </tileset>
 <layer id="1" name="Back" width="9" height="13">
  <data encoding="csv">
0,0,0,0,0,0,0,0,0,
0,0,0,0,0,0,0,0,0,
0,0,0,0,0,0,0,0,0,
2970,2970,3066,2970,2970,2970,2970,2970,2970,
2970,2972,2971,2971,2972,2874,2873,2906,2970,
2970,3004,3004,3135,3035,2905,2906,2906,2970,
2970,3004,2938,3035,1919,2905,2906,1952,2970,
2970,2843,2844,2844,2848,1920,1952,1952,2970,
2970,2875,2908,2909,2880,2874,0,2874,2970,
2970,2939,2940,2943,2944,1920,1920,1920,1920,
2970,1951,1951,1951,1920,1951,1920,1920,2970,
2970,2970,2970,2970,2970,1951,2970,2970,2970,
0,0,0,0,0,1951,0,0,0
</data>
 </layer>
 <layer id="12" name="Back2" width="9" height="13">
  <data encoding="csv">
0,0,0,0,0,0,0,0,0,
0,0,0,0,0,0,0,0,0,
0,0,0,0,0,0,0,0,0,
2970,2970,3066,2970,2970,2784,2784,2970,2970,
2970,2972,2971,2971,2972,2874,2873,2906,2970,
2970,3004,3004,3135,3035,2905,2906,2906,2970,
2970,3036,2938,3035,1919,2905,2906,1952,2970,
2970,2843,2844,0,2848,1920,1952,1952,2970,
2970,2875,2908,2909,2880,2874,1920,2874,2970,
2970,2939,2940,2943,2944,1920,1920,1920,1920,
2970,1951,1951,1951,1920,1951,1920,1920,2970,
2970,2970,2970,2970,2970,1951,2970,2970,2970,
0,0,0,0,0,0,0,0,0
</data>
 </layer>
 <layer id="2" name="Buildings" width="9" height="13">
  <data encoding="csv">
1313,1314,1315,1315,1315,1315,1315,1316,1313,
1345,2716,3002,2720,2719,2719,2717,2719,1349,
1377,2748,3034,2752,2751,2751,2749,2751,1381,
1377,2784,3066,2784,2783,1669,1670,2784,1381,
1377,3130,3131,3132,0,0,0,3150,1381,
1377,0,0,0,0,1633,1634,1826,1381,
1377,0,0,0,0,0,0,0,1381,
1377,1610615846,3045,3046,0,0,0,0,1381,
1377,1610615845,3077,3078,0,0,0,0,1381,
1377,0,0,0,0,0,0,0,1381,
1473,0,0,0,0,0,0,0,1480,
1313,1313,1313,1313,1377,0,1381,1313,1313,
0,0,0,0,1409,0,1443,0,0
</data>
 </layer>
 <layer id="16" name="Buildings2" width="9" height="13">
  <data encoding="csv">
0,0,0,0,0,0,0,0,0,
0,0,0,0,0,0,0,0,0,
0,0,0,0,0,0,0,0,0,
0,0,0,0,0,0,0,0,0,
0,0,0,0,0,0,0,0,0,
0,0,0,0,0,0,0,0,0,
0,0,0,0,0,0,0,0,0,
0,0,0,0,0,0,0,0,0,
0,0,0,0,0,0,0,0,0,
0,0,0,0,0,0,0,0,0,
0,0,0,0,0,0,0,0,0,
0,0,0,0,0,0,0,0,0,
0,0,0,0,0,0,0,0,0
</data>
 </layer>
 <layer id="14" name="Paths" width="9" height="13">
  <data encoding="csv">
0,0,0,0,0,0,0,0,0,
0,0,0,0,0,0,0,0,0,
0,0,0,0,0,0,0,0,0,
0,0,0,0,0,0,0,0,0,
0,0,0,0,0,0,0,0,0,
0,0,0,0,0,0,0,0,0,
0,0,0,0,0,0,0,0,0,
0,0,0,0,0,0,0,0,0,
0,0,0,0,0,0,0,0,0,
0,0,0,0,0,0,0,0,0,
0,0,0,0,0,0,0,0,0,
0,0,0,0,0,0,0,0,0,
0,0,0,0,0,0,0,0,0
</data>
 </layer>
 <layer id="4" name="Front" width="9" height="13">
  <data encoding="csv">
0,0,0,0,0,0,0,0,0,
0,0,0,0,0,0,0,0,0,
0,0,0,0,0,1637,1638,0,0,
0,3098,3099,3100,0,1667,1668,0,0,
0,0,0,0,0,1699,1700,0,0,
0,0,0,0,0,0,0,0,0,
0,0,0,0,0,0,0,0,0,
0,0,0,0,0,0,0,0,0,
0,0,0,0,0,0,0,0,0,
0,0,0,0,0,0,0,0,0,
0,1474,1509,1509,1475,0,1476,1479,0,
0,0,0,0,0,0,0,0,0,
0,0,0,0,0,0,0,0,0
</data>
 </layer>
 <layer id="9" name="Front2" width="9" height="13">
  <data encoding="csv">
0,0,0,0,0,0,0,0,0,
0,0,0,0,3136,0,0,0,0,
0,0,0,0,3168,0,0,0,0,
0,0,0,0,0,0,0,0,0,
0,0,0,0,0,0,0,0,0,
0,0,0,0,0,0,0,0,0,
0,0,0,0,0,0,0,0,0,
0,0,0,0,0,0,0,0,0,
0,0,0,0,0,0,0,0,0,
0,0,0,0,0,0,0,0,0,
0,0,0,0,0,0,0,0,0,
0,0,0,0,0,0,0,0,0,
0,0,0,0,0,0,0,0,0
</data>
 </layer>
 <layer id="3" name="AlwaysFront" width="9" height="13">
  <data encoding="csv">
0,0,0,0,0,0,0,0,0,
0,1354,0,2899,0,0,0,1356,0,
0,0,0,0,0,0,0,0,0,
0,0,0,0,0,0,0,0,0,
0,0,0,0,0,0,0,0,0,
0,0,0,0,0,0,0,0,0,
0,0,0,0,0,0,0,0,0,
0,0,0,0,0,0,0,0,0,
0,0,0,0,0,0,0,0,0,
0,0,0,0,0,0,0,0,0,
0,0,0,0,0,0,0,0,0,
0,0,0,0,0,0,0,0,0,
0,0,0,0,0,1478,0,0,0
</data>
 </layer>
 <objectgroup id="5" name="Back" visible="0">
  <object id="7" name="TileData" x="96" y="48" width="16" height="16">
   <properties>
    <property name="Bed" type="bool" value="true"/>
    <property name="TouchAction" value="Sleep"/>
   </properties>
  </object>
  <object id="8" name="TileData" x="96" y="64" width="16" height="16">
   <properties>
    <property name="Bed" type="bool" value="true"/>
    <property name="TouchAction" value="Sleep"/>
   </properties>
  </object>
  <object id="10" name="TileData" x="80" y="48" width="16" height="32">
   <properties>
    <property name="Bed" type="bool" value="true"/>
   </properties>
  </object>
 </objectgroup>
 <objectgroup id="13" name="Back2"/>
 <objectgroup id="6" name="Buildings" visible="0">
  <object id="11" name="TileData" x="80" y="80" width="32" height="16">
   <properties>
    <property name="Action" value="Message Abandoned.2"/>
   </properties>
  </object>
  <object id="12" name="TileData" x="16" y="64" width="32" height="16">
   <properties>
    <property name="Action" value="Message Abandoned.1"/>
   </properties>
  </object>
 </objectgroup>
 <objectgroup id="17" name="Buildings2"/>
 <objectgroup id="15" name="Paths"/>
 <objectgroup id="11" name="Front2"/>
 <objectgroup id="8" name="Front"/>
 <objectgroup id="7" name="AlwaysFront"/>
</map>
