<?xml version="1.0" encoding="UTF-8"?>
<map version="1.10" tiledversion="1.11.2" orientation="orthogonal" renderorder="left-down" width="6" height="9" tilewidth="16" tileheight="16" infinite="0" nextlayerid="7" nextobjectid="6">
 <tileset firstgid="1" name="lumi_towninterior" tilewidth="16" tileheight="16" tilecount="3425" columns="25">
  <image source="lumi_towninterior.png" width="400" height="2192"/>
 </tileset>
 <tileset firstgid="3426" name="townInterior" tilewidth="16" tileheight="16" tilecount="2176" columns="32">
  <image source="townInterior.png" width="512" height="1088"/>
 </tileset>
 <tileset firstgid="5602" name="paths" tilewidth="16" tileheight="16" tilecount="64" columns="4">
  <image source="paths.png" width="64" height="256"/>
 </tileset>
 <layer id="1" name="Back" width="6" height="9">
  <data encoding="csv">
4829,4829,4829,4829,4829,4829,
4861,4861,4861,4861,4861,4861,
4893,4893,4893,4893,4893,4893,
4698,4699,4698,4699,4698,4699,
4730,4731,4730,4731,4730,4731,
4762,4763,4762,4763,4762,4763,
4730,4731,4730,4731,4730,4731,
4762,4763,4762,4763,4762,4763,
4730,4731,4730,4731,4730,4731
</data>
 </layer>
 <layer id="2" name="Buildings" width="6" height="9">
  <data encoding="csv">
0,0,0,0,0,0,
0,0,0,0,0,0,
0,4764,0,0,0,0,
3789,4796,5595,405,406,407,
0,0,0,0,0,0,
0,0,0,0,0,0,
0,0,936,0,0,386,
0,4176,4177,0,0,411,
0,4208,4209,0,0,436
</data>
 </layer>
 <objectgroup id="3" name="Buildings">
  <object id="1" name="TileData" x="80" y="96" width="16" height="48">
   <properties>
    <property name="Action" value="Message &quot;FaustSpouseRoom.1&quot;"/>
   </properties>
  </object>
  <object id="3" name="TileData" x="16" y="48" width="16" height="16">
   <properties>
    <property name="Action" value="Message &quot;FaustSpouseRoom.3&quot;"/>
   </properties>
  </object>
  <object id="4" name="TileData" x="48" y="48" width="48" height="16">
   <properties>
    <property name="Action" value="Message &quot;FaustSpouseRoom.2&quot;"/>
   </properties>
  </object>
 </objectgroup>
 <layer id="4" name="Front" width="6" height="9">
  <data encoding="csv">
3829,0,3609,0,0,0,
0,0,0,355,356,357,
3757,0,0,380,381,382,
0,0,0,0,0,0,
0,0,0,0,0,0,
0,0,911,0,0,361,
0,4144,4145,0,0,0,
0,0,0,0,0,0,
0,0,0,0,0,0
</data>
 </layer>
 <layer id="5" name="AlwaysFront" width="6" height="9">
  <data encoding="csv">
0,0,0,0,0,0,
0,0,0,0,0,0,
0,0,0,0,0,0,
0,0,0,0,0,0,
0,0,0,0,0,0,
0,0,0,0,0,0,
0,0,0,0,0,0,
0,0,0,0,0,0,
0,0,0,0,0,0
</data>
 </layer>
 <layer id="6" name="Paths" width="6" height="9">
  <data encoding="csv">
0,0,0,0,0,0,
0,0,0,0,0,0,
0,0,0,0,0,0,
0,0,0,0,0,0,
0,0,0,0,5609,0,
0,0,0,0,0,0,
0,0,0,0,0,0,
0,0,0,0,0,0,
0,0,0,0,0,0
</data>
 </layer>
</map>
