<?xml version="1.0" encoding="UTF-8"?>
<map version="1.10" tiledversion="1.11.2" orientation="orthogonal" renderorder="left-down" width="11" height="8" tilewidth="16" tileheight="16" infinite="0" nextlayerid="10" nextobjectid="1">
 <tileset firstgid="1" name="spring_AlvadeasTileSheet" tilewidth="16" tileheight="16" tilecount="1800" columns="30">
  <image source="spring_AlvadeasTileSheet.png" width="480" height="960"/>
 </tileset>
 <tileset firstgid="1801" name="spring_outdoorsTileSheet" tilewidth="16" tileheight="16" tilecount="1975" columns="25">
  <image source="spring_outdoorsTileSheet.png" width="400" height="1264"/>
 </tileset>
 <layer id="1" name="Back" width="11" height="8">
  <data encoding="csv">
0,0,0,0,0,0,0,0,0,0,0,
0,0,0,0,0,0,0,0,0,0,0,
0,0,0,0,0,0,0,0,0,0,0,
0,0,0,0,0,0,0,0,0,0,0,
0,0,0,0,0,0,0,0,0,0,0,
0,0,0,0,0,0,0,0,0,0,0,
0,0,0,0,0,0,0,0,0,0,0,
0,0,0,0,0,0,0,0,0,0,0
</data>
 </layer>
 <layer id="8" name="Back1" width="11" height="8">
  <data encoding="csv">
0,0,0,0,0,0,0,0,0,0,0,
0,0,0,0,0,0,0,0,0,0,0,
0,0,0,0,0,0,0,0,0,0,0,
0,0,0,0,0,0,0,0,0,0,0,
0,0,0,0,0,0,0,0,0,0,0,
0,0,0,0,0,0,0,0,0,0,0,
0,721,722,723,724,725,726,727,728,0,0,
0,0,0,0,0,0,0,0,0,0,0
</data>
 </layer>
 <layer id="7" name="Back2" width="11" height="8">
  <data encoding="csv">
0,0,0,0,0,0,0,0,0,0,0,
0,0,0,0,0,0,0,0,0,0,0,
0,0,0,0,0,0,0,0,0,0,0,
0,0,0,0,0,0,0,0,0,0,0,
0,0,0,0,0,0,0,0,0,0,0,
0,0,0,0,0,0,0,0,0,0,0,
0,3324,0,0,0,0,0,769,770,0,0,
0,0,0,0,0,0,0,799,800,0,0
</data>
 </layer>
 <layer id="2" name="Buildings" width="11" height="8">
  <data encoding="csv">
0,0,0,0,0,0,0,0,0,0,0,
0,0,0,0,0,0,0,0,0,0,0,
0,0,0,0,0,0,0,0,0,0,0,
0,0,0,0,0,0,0,0,0,0,0,
1930,661,662,663,664,665,666,667,668,0,0,
0,691,692,693,694,695,696,697,698,0,0,
0,0,0,0,0,0,0,0,0,0,0,
0,0,3321,3322,3300,0,0,0,0,0,0
</data>
 </layer>
 <layer id="9" name="Buildings1" width="11" height="8">
  <data encoding="csv">
0,0,0,0,0,0,0,0,0,0,0,
0,0,0,0,0,0,0,0,0,0,0,
0,0,0,0,0,0,0,0,0,0,0,
0,0,0,0,0,0,0,0,0,0,0,
0,0,0,0,0,0,0,0,0,0,0,
0,0,0,40,0,0,0,0,0,0,0,
0,0,0,0,0,0,0,0,0,0,0,
0,0,0,0,0,0,0,0,0,0,0
</data>
 </layer>
 <layer id="3" name="Front" width="11" height="8">
  <data encoding="csv">
0,0,0,0,0,0,0,0,0,0,0,
0,0,0,0,0,0,0,0,0,0,0,
0,0,0,0,0,0,0,0,0,0,0,
1901,631,632,633,634,635,636,637,638,0,0,
0,0,0,10,0,0,0,0,149,0,0,
0,0,3346,254,3346,0,0,0,0,0,0,
0,0,3296,3297,3346,0,0,0,0,0,0,
0,0,0,0,0,0,0,0,0,0,0
</data>
 </layer>
 <layer id="4" name="AlwaysFront" width="11" height="8">
  <data encoding="csv">
0,541,542,543,544,545,546,547,548,0,0,
0,571,572,573,574,575,576,577,578,0,0,
0,601,602,603,604,605,606,607,608,0,0,
0,0,0,0,0,0,0,0,0,0,0,
0,0,0,0,0,0,0,0,0,0,0,
0,0,0,0,0,0,0,0,0,0,0,
0,0,0,0,0,0,0,0,0,0,0,
0,0,0,0,0,0,0,0,0,0,0
</data>
 </layer>
 <layer id="6" name="AlwaysFront1" width="11" height="8">
  <data encoding="csv">
0,23,24,25,26,27,0,0,0,0,0,
0,53,54,55,56,57,0,120,0,0,0,
0,0,0,0,86,87,0,150,0,0,0,
0,0,0,0,0,0,0,0,119,0,0,
0,0,0,0,0,0,0,0,0,0,0,
0,0,0,0,0,0,0,0,0,0,0,
0,0,0,0,0,0,0,0,0,0,0,
0,0,0,0,0,0,0,0,0,0,0
</data>
 </layer>
 <layer id="5" name="Paths" width="11" height="8">
  <data encoding="csv">
224,630,630,630,630,630,630,630,630,0,0,
224,630,630,630,630,630,630,630,630,0,0,
224,630,630,630,630,630,630,630,630,0,0,
224,630,630,630,630,630,630,630,630,0,0,
224,630,630,630,630,630,630,630,630,0,0,
0,630,630,630,630,630,630,630,630,224,224,
0,630,630,630,630,630,630,630,630,224,224,
0,254,254,254,254,254,254,254,254,224,224
</data>
 </layer>
</map>
