<?xml version="1.0" encoding="UTF-8"?>
<map version="1.10" tiledversion="1.11.2" orientation="orthogonal" renderorder="left-down" width="28" height="16" tilewidth="16" tileheight="16" infinite="0" nextlayerid="9" nextobjectid="14">
 <tileset firstgid="1" name="townInterior" tilewidth="16" tileheight="16" tilecount="2176" columns="32">
  <image source="townInterior.png" width="512" height="1088"/>
 </tileset>
 <tileset firstgid="2177" name="lumi_towninterior" tilewidth="16" tileheight="16" tilecount="3425" columns="25">
  <image source="lumi_towninterior.png" width="400" height="2192"/>
 </tileset>
 <tileset firstgid="5602" name="springobjects" tilewidth="16" tileheight="16" tilecount="936" columns="24">
  <image source="springobjects.png" width="384" height="624"/>
 </tileset>
 <tileset firstgid="6538" name="paths" tilewidth="16" tileheight="16" tilecount="64" columns="4">
  <image source="paths.png" width="64" height="256"/>
 </tileset>
 <layer id="1" name="Back" width="28" height="16">
  <data encoding="csv">
0,0,0,0,0,0,0,0,0,0,0,0,0,0,0,0,0,0,0,0,0,0,0,0,0,0,0,0,
0,0,0,0,0,0,0,0,0,0,0,0,0,0,0,0,0,0,0,0,0,0,0,0,0,0,0,0,
0,0,0,0,0,0,0,0,0,0,0,0,0,0,0,0,0,0,0,0,0,0,0,0,0,0,0,0,
0,0,0,0,1403,1404,1408,1404,1407,1404,1404,1404,1405,1404,1404,1404,1408,1404,1404,1404,1407,1404,1404,1406,0,0,0,0,
0,0,0,0,1435,1436,1440,1436,1439,1436,1436,1436,1437,1436,1436,1436,1440,1436,1436,1436,1439,1436,1436,1438,0,0,0,0,
0,0,0,0,1467,1468,1472,1468,1471,1468,1468,1468,1469,1468,1468,1468,1472,1468,1468,1468,1471,1468,1468,1470,0,0,0,0,
0,0,0,0,1272,1273,1274,1273,1274,1273,1274,1273,1274,1273,1274,1273,1274,1273,1274,1273,1274,1273,1274,1304,0,0,0,0,
0,0,0,0,1306,1305,1306,1305,1306,1305,1306,1305,1306,1305,1306,1305,1306,1305,1306,1305,1306,1305,1306,1305,0,0,0,0,
0,0,0,0,1338,1337,1338,1337,1338,1337,1338,1337,1338,1337,1338,1337,1338,1337,1338,1337,1338,1337,1338,1337,0,0,0,0,
0,0,0,0,1306,1305,1306,1305,1306,1305,1306,1305,1306,1305,1306,1305,1306,1305,1306,1305,1306,1305,1306,1305,0,0,0,0,
0,0,0,0,1338,1337,1338,1337,1338,1337,1338,1337,1338,1337,1338,1337,1338,1337,1338,1337,1338,1337,1338,1337,0,0,0,0,
0,0,0,0,1306,1305,1306,1305,1306,1305,1306,1305,1306,1305,1306,1305,1306,1305,1306,1305,1306,1305,1306,1305,0,0,0,0,
0,0,0,0,1338,1337,1338,1337,1338,1337,1338,1337,1338,1337,1338,1337,1338,1337,1338,1337,1338,1337,1338,1337,0,0,0,0,
0,0,0,0,1306,1305,1306,1305,1306,1305,1306,1305,1306,1305,1306,1305,1306,1305,1306,1305,1306,1305,1306,1305,0,0,0,0,
0,0,0,0,0,0,0,0,0,0,0,0,0,0,0,0,0,0,1338,0,0,0,0,0,0,0,0,0,
0,0,0,0,0,0,0,0,0,0,0,0,0,0,0,0,0,0,0,0,0,0,0,0,0,0,0,0
</data>
 </layer>
 <layer id="6" name="Back1" width="28" height="16">
  <data encoding="csv">
0,0,0,0,0,0,0,0,0,0,0,0,0,0,0,0,0,0,0,0,0,0,0,0,0,0,0,0,
0,0,0,0,0,0,0,0,0,0,0,0,0,0,0,0,0,0,0,0,0,0,0,0,0,0,0,0,
0,0,0,0,0,0,0,0,0,0,0,0,0,0,0,0,0,0,0,0,0,0,0,0,0,0,0,0,
0,0,0,0,0,0,0,0,0,0,0,0,0,0,0,0,0,0,0,0,0,0,0,0,0,0,0,0,
0,0,0,0,0,0,0,0,0,0,0,0,0,0,0,0,0,0,0,0,0,0,0,0,0,0,0,0,
0,0,0,0,0,0,0,0,0,0,0,0,0,0,0,0,0,0,0,0,0,0,0,0,0,0,0,0,
0,0,0,0,0,0,0,0,0,0,0,0,0,0,0,0,0,0,0,0,0,0,0,0,0,0,0,0,
0,0,0,0,0,0,0,0,0,1300,1301,1302,1303,0,0,0,650,0,0,0,0,0,0,0,0,0,0,0,
0,0,0,0,0,0,0,0,0,1332,1333,1334,1335,0,0,0,0,0,0,0,0,0,0,0,0,0,0,0,
0,0,0,0,0,0,0,0,0,1364,1365,1366,1367,0,0,0,0,0,0,0,0,0,0,0,0,0,0,0,
0,0,0,0,0,0,0,0,0,0,0,0,0,0,0,0,0,0,0,0,0,0,0,0,0,0,0,0,
0,0,0,0,0,0,0,0,0,0,0,0,0,0,0,0,0,0,0,0,0,0,0,0,0,0,0,0,
0,0,0,0,0,0,0,0,0,0,0,0,0,0,0,0,0,2397,2398,2399,0,0,0,0,0,0,0,0,
0,0,0,0,0,0,0,0,0,0,0,0,0,0,0,0,0,2422,2423,2424,0,0,0,0,0,0,0,0,
0,0,0,0,0,0,0,0,0,0,0,0,0,0,0,0,0,0,0,0,0,0,0,0,0,0,0,0,
0,0,0,0,0,0,0,0,0,0,0,0,0,0,0,0,0,0,0,0,0,0,0,0,0,0,0,0
</data>
 </layer>
 <layer id="2" name="Buildings" width="28" height="16">
  <data encoding="csv">
1,1,1,1,1,1,1,1,1,1,1,1,1,1,1,1,1,1,1,1,1,1,1,1,1,1,1,1,
1,1,1,1,1,1,1,1,1,1,1,1,1,1,1,1,1,1,1,1,1,1,1,1,1,1,1,1,
1,1,1,1,2,3,3,3,3,3,3,3,3,3,3,3,3,3,3,3,3,3,3,4,1,1,1,1,
1,1,1,33,0,0,0,0,0,0,0,0,0,0,0,0,0,0,0,0,0,0,0,0,37,1,1,1,
1,1,1,65,0,0,0,0,0,0,0,0,0,0,0,0,0,0,0,0,0,0,0,0,69,1,1,1,
1,1,1,65,49,49,421,422,49,49,49,49,0,49,49,49,49,49,49,49,49,49,49,49,69,1,1,1,
1,1,1,65,1499,3112,0,0,0,3061,3062,364,1371,0,2581,2582,2583,1360,1361,631,633,634,635,1502,69,1,1,1,
1,1,1,65,1269,0,323,324,0,0,0,0,0,0,0,0,0,0,0,0,0,0,0,2170,69,1,1,1,
1,1,1,65,0,0,3039,3055,0,0,0,0,0,0,0,0,0,0,0,0,0,0,0,0,69,1,1,1,
1,1,1,65,0,0,0,0,432,0,0,0,0,0,0,0,0,0,0,0,0,0,0,5770,69,1,1,1,
1,1,1,65,751,752,0,0,0,0,0,0,0,0,0,0,0,0,0,0,0,0,0,496,69,1,1,1,
1,1,1,65,783,784,0,0,0,0,0,0,0,0,1180,0,0,0,0,0,0,0,0,0,69,1,1,1,
1,1,1,65,402,0,1030,0,0,0,0,0,0,505,506,507,0,0,0,0,0,2168,0,2148,69,1,1,1,
1,1,1,161,1368,0,0,0,0,0,0,0,0,537,538,539,0,0,0,0,0,0,2148,1368,168,1,1,1,
1,1,1,1,1,1,1,1,1,1,1,1,1,1,1,1,1,97,0,131,1,1,1,1,1,1,1,1,
1,1,1,1,1,1,1,1,1,1,1,1,1,1,1,1,1,1,1,1,1,1,1,1,1,1,1,1
</data>
 </layer>
 <objectgroup id="8" name="Buildings">
  <object id="1" name="TileData" x="192" y="96" width="16" height="16">
   <properties>
    <property name="Action" value="Message &quot;FaustRoom.1&quot;"/>
   </properties>
  </object>
  <object id="5" name="TileData" x="352" y="208" width="16" height="16">
   <properties>
    <property name="Action" value="Message &quot;FaustRoom.2&quot;"/>
   </properties>
  </object>
  <object id="6" name="TileData" x="224" y="96" width="16" height="16">
   <properties>
    <property name="Action" value="Message &quot;FaustRoom.3&quot;"/>
   </properties>
  </object>
  <object id="7" name="TileData" x="240" y="96" width="16" height="16">
   <properties>
    <property name="Action" value="Message &quot;FaustRoom.4&quot;"/>
   </properties>
  </object>
  <object id="8" name="TileData" x="256" y="96" width="16" height="16">
   <properties>
    <property name="Action" value="Message &quot;FaustRoom.5&quot;"/>
   </properties>
  </object>
  <object id="10" name="TileData" x="368" y="112" width="16" height="16">
   <properties>
    <property name="Action" value="Message &quot;FaustRoom.6&quot;"/>
   </properties>
  </object>
  <object id="11" name="TileData" x="112" y="128" width="16" height="16">
   <properties>
    <property name="Action" value="Message &quot;FaustRoom.7&quot;"/>
   </properties>
  </object>
  <object id="13" name="TileData" x="128" y="144" width="16" height="16">
   <properties>
    <property name="Action" value="Message &quot;FaustRoom.8&quot;"/>
   </properties>
  </object>
 </objectgroup>
 <layer id="3" name="Front" width="28" height="16">
  <data encoding="csv">
0,0,0,0,0,0,0,0,0,0,0,0,0,0,0,0,0,0,0,0,0,0,0,0,0,0,0,0,
0,0,0,0,0,0,0,0,0,0,0,0,0,0,0,0,0,0,0,0,0,0,0,0,0,0,0,0,
0,0,0,0,0,0,0,0,0,0,0,0,0,0,0,0,0,0,0,0,0,0,0,0,0,0,0,0,
0,0,0,0,0,4682,4683,0,0,184,0,4081,4082,0,0,0,0,404,0,1824,0,0,0,0,0,0,0,0,
0,0,0,0,0,4707,4708,0,0,0,0,4106,4107,0,2531,2532,2533,0,1207,1856,0,570,571,0,0,0,0,0,
0,0,0,0,0,3088,423,424,0,3036,3037,332,1339,0,2556,2557,2558,1328,1329,599,601,602,603,0,0,0,0,0,
0,0,0,0,1237,0,455,456,0,0,0,0,0,0,0,0,0,0,0,0,0,0,0,0,0,0,0,0,
0,0,0,0,0,0,3014,3030,0,0,0,0,0,0,0,0,0,0,0,0,0,0,0,0,0,0,0,0,
0,0,0,0,0,0,0,0,0,0,0,0,0,0,0,0,0,0,0,0,0,0,0,0,0,0,0,0,
0,0,0,0,719,720,0,0,0,0,0,0,0,0,0,0,0,0,0,0,0,0,0,464,0,0,0,0,
0,0,0,0,0,0,0,0,0,0,0,0,0,0,0,0,0,0,0,0,0,0,0,0,0,0,0,0,
0,0,0,0,370,0,0,0,0,0,0,0,0,473,474,475,0,0,0,0,0,0,0,2116,0,0,0,0,
0,0,0,0,1336,0,0,0,0,0,0,0,0,0,0,6337,0,0,0,0,0,0,2116,1336,0,0,0,0,
0,0,0,0,0,0,0,0,0,0,0,0,0,0,0,0,0,0,0,0,0,0,0,0,0,0,0,0,
0,0,0,0,0,0,0,0,0,0,0,0,0,0,0,0,0,0,0,0,0,0,0,0,0,0,0,0,
0,0,0,0,0,0,0,0,0,0,0,0,0,0,0,0,0,0,0,0,0,0,0,0,0,0,0,0
</data>
 </layer>
 <layer id="7" name="Front1" width="28" height="16">
  <data encoding="csv">
0,0,0,0,0,0,0,0,0,0,0,0,0,0,0,0,0,0,0,0,0,0,0,0,0,0,0,0,
0,0,0,0,0,0,0,0,0,0,0,0,0,0,0,0,0,0,0,0,0,0,0,0,0,0,0,0,
0,0,0,0,0,0,0,0,0,0,0,0,0,0,0,0,0,0,0,0,0,0,0,0,0,0,0,0,
0,0,0,0,0,0,0,0,0,0,0,0,0,0,3163,0,0,0,0,0,0,0,0,0,0,0,0,0,
0,0,0,0,0,0,389,390,0,0,0,0,0,0,3188,1179,0,0,0,4275,0,0,0,0,0,0,0,0,
0,0,0,0,0,0,0,0,0,0,0,0,0,0,0,0,0,0,0,4300,0,0,0,0,0,0,0,0,
0,0,0,0,0,0,0,2950,0,0,0,0,0,0,0,0,0,0,0,0,0,0,0,0,0,0,0,0,
0,0,0,0,0,0,0,2975,0,0,0,0,0,0,0,0,0,0,0,0,0,0,0,0,0,0,0,0,
0,0,0,0,0,0,0,0,0,0,0,0,0,0,0,0,0,0,0,0,0,0,0,0,0,0,0,0,
0,0,0,0,0,0,0,0,0,0,0,0,0,0,0,0,0,0,0,0,0,0,0,0,0,0,0,0,
0,0,0,0,0,0,0,0,0,0,0,0,0,0,0,0,0,0,0,0,0,0,0,0,0,0,0,0,
0,0,0,0,0,0,0,0,0,0,0,0,0,2763,0,0,0,0,0,0,0,0,0,0,0,0,0,0,
0,0,0,0,0,0,0,0,0,0,0,0,0,2788,0,0,0,0,0,0,0,0,3200,0,0,0,0,0,
0,0,0,0,0,0,0,0,0,0,0,0,0,0,0,0,0,0,0,0,0,0,0,0,0,0,0,0,
0,0,0,0,0,0,0,0,0,0,0,0,0,0,0,0,0,0,0,0,0,0,0,0,0,0,0,0,
0,0,0,0,0,0,0,0,0,0,0,0,0,0,0,0,0,0,0,0,0,0,0,0,0,0,0,0
</data>
 </layer>
 <layer id="4" name="AlwaysFront" width="28" height="16">
  <data encoding="csv">
0,0,0,0,0,0,0,0,0,0,0,0,0,0,0,0,0,0,0,0,0,0,0,0,0,0,0,0,
0,0,0,0,0,0,0,0,0,0,0,0,0,0,0,0,0,0,0,0,0,0,0,0,0,0,0,0,
0,0,0,0,0,0,0,0,0,0,0,0,0,0,0,0,0,0,0,0,0,0,0,0,0,0,0,0,
0,0,0,0,0,0,0,0,0,0,0,0,0,0,0,0,0,0,0,0,0,0,0,0,0,0,0,0,
0,0,0,0,0,0,0,0,0,0,0,0,0,0,0,0,0,0,0,0,0,0,0,0,0,0,0,0,
0,0,0,0,0,0,0,0,0,0,0,0,0,0,0,0,0,0,0,0,0,0,0,0,0,0,0,0,
0,0,0,0,0,0,0,0,0,0,0,0,0,0,0,0,0,0,0,0,0,0,0,0,0,0,0,0,
0,0,0,0,0,0,0,0,0,0,0,0,0,0,0,0,0,0,0,0,0,0,0,0,0,0,0,0,
0,0,0,0,0,0,0,0,0,0,0,0,0,0,0,0,0,0,0,0,0,0,0,0,0,0,0,0,
0,0,0,0,0,0,0,0,0,0,0,0,0,0,0,0,0,0,0,0,0,0,0,0,0,0,0,0,
0,0,0,0,0,0,0,0,0,0,0,0,0,0,0,0,0,0,0,0,0,0,0,0,0,0,0,0,
0,0,0,0,0,0,0,0,0,0,0,0,0,0,0,0,0,0,0,0,0,0,0,0,0,0,0,0,
0,0,0,0,0,0,0,0,0,0,0,0,0,0,0,0,0,0,0,0,0,0,0,0,0,0,0,0,
0,0,0,0,162,166,166,166,166,166,166,166,166,197,197,197,197,163,0,164,197,197,197,167,0,0,0,0,
0,0,0,0,0,0,0,0,0,0,0,0,0,0,0,0,0,0,166,0,0,0,0,0,0,0,0,0,
0,0,0,0,0,0,0,0,0,0,0,0,0,0,0,0,0,0,0,0,0,0,0,0,0,0,0,0
</data>
 </layer>
 <layer id="5" name="Paths" width="28" height="16">
  <data encoding="csv">
0,0,0,0,0,0,0,0,0,0,0,0,0,0,0,0,0,0,0,0,0,0,0,0,0,0,0,0,
0,0,0,0,0,0,0,0,0,0,0,0,0,0,0,0,0,0,0,0,0,0,0,0,0,0,0,0,
0,0,0,0,0,0,0,0,0,0,0,0,0,0,0,0,0,0,0,0,0,0,0,0,0,0,0,0,
0,0,0,0,0,0,0,0,0,0,0,0,0,0,0,0,0,0,0,0,0,0,0,0,0,0,0,0,
0,0,0,0,0,0,0,0,0,0,0,0,0,0,0,6546,0,0,0,0,0,0,0,0,0,0,0,0,
0,0,0,0,0,6546,0,0,0,0,0,0,0,0,0,0,0,0,0,0,0,0,0,0,0,0,0,0,
0,0,0,0,0,0,0,0,0,0,0,0,0,0,0,0,0,0,0,0,0,6546,0,0,0,0,0,0,
0,0,0,0,0,0,0,0,0,0,0,0,0,0,0,0,0,0,0,0,0,0,0,0,0,0,0,0,
0,0,0,0,0,0,0,0,0,0,0,0,0,0,0,0,0,0,0,0,0,0,0,0,0,0,0,0,
0,0,0,0,0,0,0,0,0,0,0,0,0,0,0,0,0,0,0,0,0,0,0,0,0,0,0,0,
0,0,0,0,0,6546,0,0,0,0,0,0,0,0,0,0,0,0,0,0,0,0,0,0,0,0,0,0,
0,0,0,0,0,0,0,0,0,0,0,0,0,0,0,0,0,0,0,0,0,0,0,0,0,0,0,0,
0,0,0,0,0,0,0,0,0,0,0,0,0,0,0,6546,0,0,0,0,0,0,0,0,0,0,0,0,
0,0,0,0,0,0,0,0,0,0,0,0,0,0,0,0,0,0,0,0,0,0,0,0,0,0,0,0,
0,0,0,0,0,0,0,0,0,0,0,0,0,0,0,0,0,0,0,0,0,0,0,0,0,0,0,0,
0,0,0,0,0,0,0,0,0,0,0,0,0,0,0,0,0,0,0,0,0,0,0,0,0,0,0,0
</data>
 </layer>
</map>
