<?xml version="1.0" encoding="UTF-8"?>
<map version="1.10" tiledversion="1.11.0" orientation="orthogonal" renderorder="right-down" width="22" height="13" tilewidth="16" tileheight="16" infinite="0" nextlayerid="3" nextobjectid="1">
 <tileset firstgid="1" name="Leaves" tilewidth="16" tileheight="16" tilecount="150" columns="15">
  <image source="Leaves.png" width="240" height="160"/>
 </tileset>
 <layer id="1" name="Back2" width="22" height="13">
  <data encoding="csv">
0,0,0,0,0,0,0,0,66,67,0,0,0,0,0,0,0,0,0,0,0,0,
70,71,72,73,74,0,38,0,81,82,0,0,0,0,0,64,65,66,0,0,0,0,
0,0,0,0,0,0,0,0,0,0,0,61,62,63,0,79,80,81,0,75,0,0,
12,0,0,0,0,0,0,0,0,0,0,76,77,78,0,94,95,96,0,90,0,0,
0,0,0,61,0,0,0,23,0,0,0,91,92,93,0,0,0,0,0,0,0,0,
0,0,0,76,0,10,0,0,0,102,103,104,105,0,0,0,0,0,0,0,0,0,
0,75,0,91,0,0,0,0,106,107,108,0,0,0,0,0,0,0,0,38,0,0,
113,114,0,0,0,0,0,0,121,122,123,0,0,0,0,0,0,39,0,0,0,0,
128,129,0,0,0,0,0,0,136,137,138,0,0,0,109,110,111,0,41,0,0,0,
143,144,0,0,105,0,0,2,0,0,0,0,0,0,124,125,126,0,0,0,0,0,
0,0,0,0,0,0,0,0,0,0,0,115,116,117,139,140,141,0,0,40,0,0,
0,0,0,90,0,0,0,0,0,0,0,130,131,132,0,0,0,0,0,0,0,0,
0,12,135,0,0,0,0,0,10,0,0,145,146,147,0,0,0,12,19,0,0,0
</data>
 </layer>
 <objectgroup id="2" name="Back2"/>
</map>
