<?xml version="1.0" encoding="UTF-8"?>
<map version="1.10" tiledversion="1.11.1" orientation="orthogonal" renderorder="right-down" width="1" height="4" tilewidth="16" tileheight="16" infinite="0" nextlayerid="3" nextobjectid="1">
 <tileset firstgid="1" name="spring_town" tilewidth="16" tileheight="16" tilecount="2304" columns="32">
  <image source=".spring_town.png" width="512" height="1152"/>
 </tileset>
 <layer id="1" name="Buildings" width="1" height="4">
  <data encoding="csv">
0,
0,
972,
1004
</data>
 </layer>
 <layer id="2" name="AlwaysFront" width="1" height="4">
  <data encoding="csv">
908,
940,
0,
0
</data>
 </layer>
</map>
