<?xml version="1.0" encoding="UTF-8"?>
<map version="1.10" tiledversion="1.11.0" orientation="orthogonal" renderorder="right-down" width="1" height="1" tilewidth="16" tileheight="16" infinite="0" nextlayerid="3" nextobjectid="1">
 <tileset firstgid="1" name="spring_outdoorsTileSheet" tilewidth="16" tileheight="16" tilecount="1975" columns="25">
  <image source=".spring_outdoorsTileSheet.png" width="400" height="1264"/>
 </tileset>
 <layer id="1" name="Back" width="1" height="1">
  <data encoding="csv">
1079
</data>
 </layer>
 <objectgroup id="2" name="Back"/>
</map>
