<?xml version="1.0" encoding="UTF-8"?>
<map version="1.10" tiledversion="1.10.2" orientation="orthogonal" renderorder="right-down" compressionlevel="0" width="19" height="16" tilewidth="16" tileheight="16" infinite="0" nextlayerid="16" nextobjectid="49">
 <properties>
  <property name="AmbientLight" value="100 100 45"/>
  <property name="CanCaskHere" value="T"/>
  <property name="Light" value="6 5 1 3 11 2"/>
  <property name="Warp" value="0 0 FarmCave 0 0"/>
  <property name="indoorWater" value="T"/>
 </properties>
 <tileset firstgid="1" name="cave" tilewidth="16" tileheight="16" tilecount="288" columns="16">
  <image source="Mines/mine" width="256" height="288"/>
  <tile id="0">
   <properties>
    <property name="Diggable" value="T"/>
    <property name="Type" value="Dirt"/>
   </properties>
  </tile>
  <tile id="165">
   <properties>
    <property name="Diggable" value="T"/>
    <property name="Type" value="Dirt"/>
   </properties>
  </tile>
  <tile id="181">
   <properties>
    <property name="Diggable" value="T"/>
    <property name="Type" value="Dirt"/>
   </properties>
  </tile>
  <tile id="183">
   <properties>
    <property name="Diggable" value="T"/>
    <property name="Type" value="Dirt"/>
   </properties>
  </tile>
  <tile id="240">
   <properties>
    <property name="Type" value="Wood"/>
   </properties>
  </tile>
  <tile id="241">
   <properties>
    <property name="Type" value="Wood"/>
   </properties>
  </tile>
  <tile id="242">
   <properties>
    <property name="Type" value="Wood"/>
   </properties>
  </tile>
  <tile id="246">
   <properties>
    <property name="Water" value="T"/>
   </properties>
  </tile>
  <tile id="247">
   <properties>
    <property name="Water" value="T"/>
   </properties>
  </tile>
  <tile id="248">
   <properties>
    <property name="Water" value="T"/>
   </properties>
  </tile>
  <tile id="256">
   <properties>
    <property name="Type" value="Wood"/>
   </properties>
  </tile>
  <tile id="257">
   <properties>
    <property name="Type" value="Wood"/>
   </properties>
  </tile>
  <tile id="258">
   <properties>
    <property name="Type" value="Wood"/>
   </properties>
  </tile>
  <tile id="260">
   <properties>
    <property name="Water" value="T"/>
   </properties>
  </tile>
  <tile id="262">
   <properties>
    <property name="Water" value="T"/>
   </properties>
  </tile>
  <tile id="263">
   <properties>
    <property name="Water" value="T"/>
   </properties>
  </tile>
  <tile id="264">
   <properties>
    <property name="Water" value="T"/>
   </properties>
  </tile>
  <tile id="265">
   <properties>
    <property name="Water" value="T"/>
   </properties>
  </tile>
  <tile id="266">
   <properties>
    <property name="Water" value="T"/>
   </properties>
  </tile>
  <tile id="272">
   <properties>
    <property name="Type" value="Wood"/>
   </properties>
  </tile>
  <tile id="273">
   <properties>
    <property name="Type" value="Wood"/>
   </properties>
  </tile>
  <tile id="274">
   <properties>
    <property name="Type" value="Wood"/>
   </properties>
  </tile>
  <tile id="275">
   <properties>
    <property name="Water" value="T"/>
   </properties>
  </tile>
  <tile id="276">
   <properties>
    <property name="Water" value="T"/>
   </properties>
  </tile>
  <tile id="277">
   <properties>
    <property name="Water" value="T"/>
   </properties>
  </tile>
  <tile id="281">
   <properties>
    <property name="Water" value="T"/>
   </properties>
  </tile>
  <tile id="282">
   <properties>
    <property name="Water" value="T"/>
   </properties>
  </tile>
 </tileset>
 <tileset firstgid="289" name="paths" tilewidth="16" tileheight="16" tilecount="64" columns="4">
  <image source="paths" width="64" height="256"/>
 </tileset>
 <tileset firstgid="353" name="z_AdditionalFarmCave" tilewidth="16" tileheight="16" tilecount="480" columns="20">
  <image source="z_AdditionalFarmCave.png" width="320" height="384"/>
  <tile id="120">
   <animation>
    <frame tileid="120" duration="100"/>
    <frame tileid="121" duration="100"/>
    <frame tileid="122" duration="100"/>
    <frame tileid="123" duration="100"/>
    <frame tileid="124" duration="100"/>
    <frame tileid="125" duration="100"/>
    <frame tileid="126" duration="100"/>
    <frame tileid="127" duration="100"/>
    <frame tileid="127" duration="100"/>
    <frame tileid="120" duration="100"/>
   </animation>
  </tile>
  <tile id="400">
   <animation>
    <frame tileid="400" duration="1000"/>
    <frame tileid="403" duration="1000"/>
   </animation>
  </tile>
  <tile id="401">
   <animation>
    <frame tileid="401" duration="1000"/>
    <frame tileid="404" duration="1000"/>
   </animation>
  </tile>
  <tile id="402">
   <animation>
    <frame tileid="402" duration="1000"/>
    <frame tileid="405" duration="1000"/>
   </animation>
  </tile>
  <tile id="407">
   <animation>
    <frame tileid="407" duration="1000"/>
    <frame tileid="408" duration="1000"/>
   </animation>
  </tile>
  <tile id="420">
   <animation>
    <frame tileid="420" duration="1000"/>
    <frame tileid="423" duration="1000"/>
   </animation>
  </tile>
  <tile id="422">
   <animation>
    <frame tileid="422" duration="1000"/>
    <frame tileid="425" duration="1000"/>
   </animation>
  </tile>
  <tile id="427">
   <animation>
    <frame tileid="427" duration="1000"/>
    <frame tileid="428" duration="1000"/>
   </animation>
  </tile>
  <tile id="440">
   <animation>
    <frame tileid="440" duration="1000"/>
    <frame tileid="443" duration="1000"/>
   </animation>
  </tile>
  <tile id="442">
   <animation>
    <frame tileid="442" duration="1000"/>
    <frame tileid="445" duration="1000"/>
   </animation>
  </tile>
 </tileset>
 <layer id="1" name="Back" width="19" height="16">
  <data encoding="csv">
0,0,0,0,0,0,0,0,0,0,0,0,0,0,0,0,0,0,0,
0,0,0,0,0,0,0,0,0,0,0,0,0,0,0,0,0,0,0,
0,0,0,0,0,0,0,0,0,0,0,0,0,0,0,0,0,0,0,
0,0,0,0,0,0,0,0,0,0,0,0,0,0,0,0,0,0,0,
0,0,0,0,0,0,0,0,0,0,0,0,0,0,0,0,0,0,0,
0,0,202,189,219,219,219,219,219,219,219,219,219,219,219,188,203,0,0,
0,0,218,219,187,235,235,235,235,235,235,235,235,186,219,219,219,0,0,
0,0,234,235,236,2,36,154,4,170,241,242,243,234,235,186,219,0,0,
0,0,248,248,248,249,19,20,241,242,258,258,259,243,141,218,219,0,0,
0,0,264,264,264,265,249,36,257,258,259,258,258,259,154,218,219,0,0,
0,0,277,261,276,283,265,155,273,259,258,258,274,275,139,218,219,0,0,
0,0,277,277,278,261,277,172,139,274,273,275,154,139,170,218,219,0,0,
0,0,0,277,277,277,277,141,155,3,139,202,203,204,139,234,0,0,0,
0,0,0,0,277,277,277,139,139,19,139,218,219,220,139,0,0,0,0,
0,0,0,0,0,0,0,139,139,19,139,234,235,0,0,0,0,0,0,
0,0,0,0,0,0,0,0,0,19,0,0,0,0,0,0,0,0,0
</data>
 </layer>
 <layer id="2" name="Buildings" width="19" height="16">
  <data encoding="csv">
0,0,0,0,0,0,0,0,0,0,0,0,0,0,0,0,0,0,0,
0,0,0,0,0,0,0,0,0,0,0,0,0,0,0,0,0,0,0,
0,0,0,70,71,8,75,77,5,6,7,75,8,75,94,95,0,0,0,
0,0,69,86,87,24,99,93,21,22,23,91,24,99,110,111,112,0,0,
0,0,85,102,103,40,115,109,37,51,39,107,40,115,126,127,128,0,0,
0,0,101,118,119,56,453,125,53,54,55,0,56,125,142,143,144,0,0,
0,197,117,134,135,433,0,0,0,0,710,711,730,731,158,159,160,0,0,
0,197,133,0,0,0,0,0,0,0,0,0,0,0,728,0,176,0,0,
0,197,754,754,754,755,0,0,0,0,0,0,0,0,0,728,192,0,0,
0,197,0,0,0,780,755,0,0,0,0,0,0,0,0,709,208,0,0,
0,197,0,0,0,0,775,0,0,0,0,0,0,0,0,729,224,0,0,
0,197,197,0,0,0,775,0,0,0,0,0,0,0,0,728,207,0,0,
0,0,0,214,0,0,775,0,0,0,0,0,0,726,727,78,197,0,0,
0,0,0,197,78,78,775,0,0,0,0,0,78,78,78,197,0,0,0,
0,0,0,0,0,197,197,78,78,0,80,78,0,0,0,0,0,0,0,
0,0,0,0,0,0,0,0,78,0,78,0,0,0,0,0,0,0,0
</data>
 </layer>
 <layer id="3" name="Paths" width="19" height="16">
  <data encoding="csv">
0,0,0,0,0,0,0,0,0,0,0,0,0,0,0,0,0,0,0,
0,0,0,0,0,0,0,0,0,0,0,0,0,0,0,0,0,0,0,
0,0,0,0,0,0,0,0,0,0,0,0,0,0,0,0,0,0,0,
0,0,0,0,0,0,0,0,0,0,0,0,0,0,0,0,0,0,0,
0,0,0,0,0,0,0,0,0,0,0,0,0,0,0,0,0,0,0,
0,0,0,0,0,0,0,0,0,0,0,0,0,0,0,0,0,0,0,
0,0,0,0,0,0,0,0,0,0,0,0,0,0,0,0,0,0,0,
0,0,0,0,0,0,0,0,0,0,0,0,0,0,0,0,0,0,0,
0,0,0,0,0,0,0,0,0,0,0,0,0,0,0,0,0,0,0,
0,0,0,0,0,0,0,0,0,0,0,0,0,0,0,0,0,0,0,
0,0,0,0,0,0,0,0,0,0,0,0,0,0,0,0,0,0,0,
0,0,0,0,0,0,0,0,0,0,0,0,0,0,0,0,0,0,0,
0,0,0,0,0,0,0,0,0,0,0,0,0,0,0,0,0,0,0,
0,0,0,0,0,0,0,0,0,0,0,0,0,0,0,0,0,0,0,
0,0,0,0,0,0,0,0,0,297,0,0,0,0,0,0,0,0,0,
0,0,0,0,0,0,0,0,0,0,0,0,0,0,0,0,0,0,0
</data>
 </layer>
 <layer id="4" name="Front" width="19" height="16">
  <data encoding="csv">
78,78,78,78,78,78,78,78,78,78,78,78,78,78,78,78,78,78,78,
78,78,78,78,78,78,78,78,78,78,78,78,78,78,78,78,78,78,78,
78,78,78,0,0,0,0,0,0,0,0,0,0,0,0,0,78,78,78,
78,78,0,0,0,0,0,52,0,0,0,52,0,0,0,0,0,78,78,
78,78,0,0,0,0,0,0,0,0,0,0,0,0,0,0,0,78,78,
78,78,0,0,0,0,0,0,0,0,690,691,0,0,0,0,0,78,78,
78,78,0,0,0,0,0,0,0,0,0,0,0,0,708,0,0,78,78,
78,78,0,0,0,0,0,0,0,0,0,0,0,0,0,708,0,78,78,
78,78,149,0,0,0,0,0,0,0,0,0,0,0,0,689,0,78,78,
78,78,165,0,0,0,0,0,0,0,0,0,0,0,0,0,0,78,78,
78,78,181,0,0,0,0,0,0,0,0,0,0,0,0,708,0,78,78,
78,78,78,198,0,0,0,0,0,0,0,0,0,706,707,206,207,78,78,
78,78,78,214,216,215,198,0,0,0,0,0,206,215,216,222,78,78,78,
78,78,78,78,78,78,214,215,198,0,206,216,222,78,78,78,78,78,78,
78,78,78,78,78,78,78,78,197,216,207,78,78,78,78,78,78,78,78,
78,78,78,78,78,78,78,78,80,80,80,78,78,78,78,78,78,78,78
</data>
 </layer>
 <layer id="9" name="AlwaysFront" width="19" height="16">
  <data encoding="csv">
0,0,0,0,0,0,0,0,0,0,0,0,0,0,0,0,0,0,0,
0,0,0,0,0,0,0,0,0,0,0,0,0,0,0,0,0,0,0,
0,0,0,0,0,0,0,0,0,0,0,0,0,0,0,0,0,0,0,
0,0,0,0,0,0,0,0,0,0,0,0,0,0,0,0,0,0,0,
0,0,0,0,0,0,0,0,0,0,0,0,0,0,0,0,0,0,0,
0,0,0,0,0,0,0,0,0,0,0,0,0,0,0,0,0,0,0,
0,0,0,0,0,0,0,0,0,0,0,0,0,0,0,0,0,0,0,
0,0,0,0,0,0,0,0,0,0,0,0,0,0,0,0,0,0,0,
0,0,0,0,0,0,0,0,0,0,0,0,0,0,0,0,0,0,0,
0,0,0,0,0,0,0,0,0,0,0,0,0,0,0,0,0,0,0,
0,0,0,0,0,0,0,0,0,0,0,0,0,0,0,0,0,0,0,
0,0,0,0,0,0,0,0,0,0,0,0,0,0,0,0,0,0,0,
0,0,0,0,0,0,0,0,0,0,0,0,0,0,0,0,0,0,0,
0,0,0,0,0,0,0,0,0,0,0,0,0,0,0,0,0,0,0,
0,0,0,0,0,0,0,0,0,216,0,0,0,0,0,0,0,0,0,
0,0,0,0,0,0,0,0,0,15,0,0,0,0,0,0,0,0,0
</data>
 </layer>
 <objectgroup id="5" name="Back"/>
 <objectgroup id="6" name="Buildings" visible="0">
  <object id="11" name="TileData" x="96" y="80" width="16" height="16">
   <properties>
    <property name="Action" value="Message &quot;AdFCms03&quot;"/>
   </properties>
  </object>
  <object id="24" name="TileData" x="80" y="96" width="16" height="16">
   <properties>
    <property name="Action" value="Message &quot;AdFCms02&quot;"/>
   </properties>
  </object>
  <object id="25" name="TileData" x="224" y="112" width="16" height="16">
   <properties>
    <property name="Action" value="Message &quot;AdFCms06&quot;"/>
   </properties>
  </object>
  <object id="28" name="TileData" x="208" y="192" width="32" height="16">
   <properties>
    <property name="Action" value="Message &quot;AdFCms07&quot;"/>
   </properties>
  </object>
  <object id="29" name="TileData" x="240" y="144" width="16" height="32">
   <properties>
    <property name="Action" value="Message &quot;AdFCms08&quot;"/>
   </properties>
  </object>
  <object id="30" name="TileData" x="240" y="128" width="16" height="16">
   <properties>
    <property name="Action" value="Message &quot;AdFCms06&quot;"/>
   </properties>
  </object>
  <object id="31" name="TileData" x="240" y="176" width="16" height="16">
   <properties>
    <property name="Action" value="Message &quot;AdFCms06&quot;"/>
   </properties>
  </object>
 </objectgroup>
 <objectgroup id="7" name="Paths"/>
 <objectgroup id="8" name="Front"/>
 <objectgroup id="10" name="AlwaysFront"/>
</map>
