<?xml version="1.0" encoding="UTF-8"?>
<map version="1.10" tiledversion="1.11.2" orientation="orthogonal" renderorder="left-up" compressionlevel="0" width="20" height="16" tilewidth="16" tileheight="16" infinite="0" nextlayerid="12" nextobjectid="13">
 <properties>
  <property name="Music" value="night_market"/>
 </properties>
 <tileset firstgid="1" name="zmine" tilewidth="16" tileheight="16" tilecount="288" columns="16">
  <image source="mine_dangerous.png" width="256" height="288"/>
  <tile id="0">
   <properties>
    <property name="Type" value="Dirt"/>
   </properties>
  </tile>
  <tile id="137">
   <properties>
    <property name="Type" value="Stone"/>
   </properties>
  </tile>
  <tile id="138">
   <properties>
    <property name="Type" value="Stone"/>
   </properties>
  </tile>
  <tile id="139">
   <properties>
    <property name="Type" value="Stone"/>
   </properties>
  </tile>
  <tile id="140">
   <properties>
    <property name="Type" value="Stone"/>
   </properties>
  </tile>
  <tile id="153">
   <properties>
    <property name="Type" value="Stone"/>
   </properties>
  </tile>
  <tile id="154">
   <properties>
    <property name="Type" value="Stone"/>
   </properties>
  </tile>
  <tile id="155">
   <properties>
    <property name="Type" value="Stone"/>
   </properties>
  </tile>
  <tile id="165">
   <properties>
    <property name="Type" value="Dirt"/>
   </properties>
  </tile>
  <tile id="166">
   <properties>
    <property name="Type" value="Stone"/>
   </properties>
  </tile>
  <tile id="167">
   <properties>
    <property name="Type" value="Stone"/>
   </properties>
  </tile>
  <tile id="168">
   <properties>
    <property name="Type" value="Stone"/>
   </properties>
  </tile>
  <tile id="169">
   <properties>
    <property name="Type" value="Stone"/>
   </properties>
  </tile>
  <tile id="170">
   <properties>
    <property name="Type" value="Stone"/>
   </properties>
  </tile>
  <tile id="171">
   <properties>
    <property name="Type" value="Stone"/>
   </properties>
  </tile>
  <tile id="172">
   <properties>
    <property name="Type" value="Stone"/>
   </properties>
  </tile>
  <tile id="181">
   <properties>
    <property name="Type" value="Dirt"/>
   </properties>
  </tile>
  <tile id="182">
   <properties>
    <property name="Type" value="Stone"/>
   </properties>
  </tile>
  <tile id="183">
   <properties>
    <property name="Type" value="Dirt"/>
   </properties>
  </tile>
  <tile id="184">
   <properties>
    <property name="Type" value="Stone"/>
   </properties>
  </tile>
  <tile id="185">
   <properties>
    <property name="Type" value="Stone"/>
   </properties>
  </tile>
  <tile id="186">
   <properties>
    <property name="Type" value="Stone"/>
   </properties>
  </tile>
  <tile id="187">
   <properties>
    <property name="Type" value="Stone"/>
   </properties>
  </tile>
  <tile id="188">
   <properties>
    <property name="Type" value="Stone"/>
   </properties>
  </tile>
  <tile id="198">
   <properties>
    <property name="Type" value="Stone"/>
   </properties>
  </tile>
  <tile id="199">
   <properties>
    <property name="Type" value="Stone"/>
   </properties>
  </tile>
  <tile id="200">
   <properties>
    <property name="Type" value="Stone"/>
   </properties>
  </tile>
  <tile id="201">
   <properties>
    <property name="Type" value="Stone"/>
   </properties>
  </tile>
  <tile id="202">
   <properties>
    <property name="Type" value="Stone"/>
   </properties>
  </tile>
  <tile id="203">
   <properties>
    <property name="Type" value="Stone"/>
   </properties>
  </tile>
  <tile id="204">
   <properties>
    <property name="Type" value="Stone"/>
   </properties>
  </tile>
  <tile id="217">
   <properties>
    <property name="Type" value="Stone"/>
   </properties>
  </tile>
  <tile id="218">
   <properties>
    <property name="Type" value="Stone"/>
   </properties>
  </tile>
  <tile id="219">
   <properties>
    <property name="Type" value="Stone"/>
   </properties>
  </tile>
  <tile id="233">
   <properties>
    <property name="Type" value="Stone"/>
   </properties>
  </tile>
  <tile id="234">
   <properties>
    <property name="Type" value="Stone"/>
   </properties>
  </tile>
  <tile id="235">
   <properties>
    <property name="Type" value="Stone"/>
   </properties>
  </tile>
  <tile id="240">
   <properties>
    <property name="Type" value="Wood"/>
   </properties>
  </tile>
  <tile id="241">
   <properties>
    <property name="Type" value="Wood"/>
   </properties>
  </tile>
  <tile id="242">
   <properties>
    <property name="Type" value="Wood"/>
   </properties>
  </tile>
  <tile id="256">
   <properties>
    <property name="Type" value="Wood"/>
   </properties>
  </tile>
  <tile id="257">
   <properties>
    <property name="Type" value="Wood"/>
   </properties>
  </tile>
  <tile id="258">
   <properties>
    <property name="Type" value="Wood"/>
   </properties>
  </tile>
  <tile id="272">
   <properties>
    <property name="Type" value="Wood"/>
   </properties>
  </tile>
  <tile id="273">
   <properties>
    <property name="Type" value="Wood"/>
   </properties>
  </tile>
  <tile id="274">
   <properties>
    <property name="Type" value="Wood"/>
   </properties>
  </tile>
 </tileset>
 <tileset firstgid="289" name="ztownInterior" tilewidth="16" tileheight="16" tilecount="2176" columns="32">
  <image source="townInterior.png" width="512" height="1088"/>
 </tileset>
 <tileset firstgid="2465" name="zPaths" tilewidth="16" tileheight="16" tilecount="64" columns="4">
  <image source="paths.png" width="64" height="256"/>
  <tile id="0">
   <properties>
    <property name="PathType" value="NE"/>
   </properties>
  </tile>
  <tile id="1">
   <properties>
    <property name="PathType" value="SE"/>
   </properties>
  </tile>
  <tile id="2">
   <properties>
    <property name="PathType" value="WS"/>
   </properties>
  </tile>
  <tile id="3">
   <properties>
    <property name="PathType" value="WN"/>
   </properties>
  </tile>
  <tile id="4">
   <properties>
    <property name="PathType" value="Crossroad"/>
   </properties>
  </tile>
  <tile id="7">
   <properties>
    <property name="PathType" value="End"/>
   </properties>
  </tile>
 </tileset>
 <tileset firstgid="2529" name="colourshiftinterior" tilewidth="16" tileheight="16" tilecount="2176" columns="32">
  <image source="colourshiftinterior.png" width="512" height="1088"/>
 </tileset>
 <layer id="1" name="Back" width="20" height="16">
  <data encoding="csv">
0,0,0,0,0,0,0,0,0,0,0,0,0,0,0,0,0,0,0,0,
0,0,0,0,0,0,0,0,0,0,0,0,0,0,0,0,0,0,0,0,
0,0,0,0,0,0,0,0,0,0,0,0,0,0,0,0,0,0,0,0,
0,0,0,0,0,0,0,0,0,0,0,0,0,0,0,0,0,0,0,0,
0,0,0,0,0,0,0,0,0,0,0,0,0,0,0,0,0,0,0,0,
0,0,202,189,219,219,219,219,219,219,219,219,219,219,219,219,188,203,0,0,
0,0,218,219,187,235,235,235,235,235,235,235,235,235,186,219,219,219,0,0,
0,0,234,235,236,2,36,4,2,3,170,2,36,2,234,235,186,219,0,0,
0,0,139,139,154,18,34,19,19,19,36,34,20,34,141,4,218,219,0,0,
0,0,139,139,34,34,35,19,34,19,36,138,139,138,4,36,218,219,0,0,
0,0,139,139,170,36,34,18,139,139,155,2684354833,2684354817,2684354801,139,139,218,219,0,0,
0,0,139,139,139,155,36,139,139,34,139,2684354834,2684354818,2684354802,170,139,218,219,0,0,
0,0,139,139,139,139,139,36,155,34,155,2684354835,2684354819,2684354803,204,139,234,235,0,0,
0,0,139,139,139,139,139,139,139,139,139,139,218,219,220,139,139,139,0,0,
0,0,139,139,139,139,139,139,139,139,139,139,234,235,236,139,139,139,0,0,
0,0,0,0,0,0,0,0,0,0,0,0,0,0,0,0,0,0,0,0
</data>
 </layer>
 <layer id="9" name="Paths" width="20" height="16">
  <data encoding="csv">
0,0,0,0,0,0,0,0,0,0,0,0,0,0,0,0,0,0,0,0,
0,0,0,0,0,0,0,0,0,0,0,0,0,0,0,0,0,0,0,0,
0,0,0,0,0,0,0,0,0,0,0,0,0,0,0,0,0,0,0,0,
0,0,0,0,0,0,0,0,0,0,0,0,0,0,0,0,0,0,0,0,
0,0,0,0,2473,0,0,0,0,0,0,0,0,0,0,2473,0,0,0,0,
0,0,0,0,0,0,0,0,0,0,0,0,0,0,0,0,0,0,0,0,
0,0,0,0,0,2473,0,0,0,0,0,0,0,0,2473,0,0,0,0,0,
0,0,0,0,0,0,0,0,0,0,0,0,0,0,0,0,0,0,0,0,
0,0,0,0,0,0,0,0,0,0,0,0,0,0,0,0,0,0,0,0,
0,0,0,0,0,0,0,0,0,0,0,0,0,0,0,0,0,0,0,0,
0,0,0,0,0,0,0,0,0,0,0,0,0,0,0,0,0,0,0,0,
0,0,0,0,0,0,0,0,0,0,0,0,0,0,0,2473,0,0,0,0,
0,0,0,0,0,0,0,0,0,0,0,0,0,0,0,0,0,0,0,0,
0,0,0,0,0,0,0,0,0,0,0,0,0,0,0,0,0,0,0,0,
0,0,0,0,0,0,0,0,0,0,0,0,0,0,0,0,0,0,0,0,
0,0,0,0,0,0,0,0,0,0,0,0,0,0,0,0,0,0,0,0
</data>
 </layer>
 <layer id="2" name="Buildings" width="20" height="16">
  <data encoding="csv">
0,0,0,0,0,0,0,0,0,0,0,0,0,0,0,0,0,0,0,0,
0,0,0,0,0,0,0,0,0,0,0,0,0,0,0,0,0,0,0,0,
0,0,0,70,71,1073741939,77,2147483656,74,2147483747,99,74,8,76,3221225587,94,95,0,0,0,
0,0,69,86,87,1073741923,93,2147483672,90,2147483763,115,90,24,92,3221225571,110,111,112,0,0,
0,0,85,102,98,108,109,2147483688,106,107,108,106,40,108,109,114,127,128,0,0,
0,0,101,118,119,124,125,2147483704,122,123,124,122,56,124,125,142,143,144,0,0,
0,0,117,134,135,1383,0,0,0,0,0,0,0,0,2147485031,158,159,160,0,0,
0,0,2147483769,0,0,0,0,0,0,0,0,0,0,0,0,0,0,176,0,0,
0,0,0,0,0,0,0,0,0,0,0,0,0,0,0,1557,0,192,0,0,
0,0,1073741944,0,0,0,0,0,0,0,720,0,0,0,0,0,0,208,0,0,
0,0,197,0,0,0,0,0,0,0,0,0,1682,0,0,0,0,224,0,0,
0,0,0,233,2147487433,0,0,0,0,0,0,0,0,0,238,239,0,207,0,0,
0,0,0,214,0,0,0,0,0,0,0,0,0,0,0,0,78,0,0,0,
0,0,0,0,78,78,78,0,0,78,78,0,0,78,78,78,0,0,0,0,
0,0,0,0,0,0,0,78,78,0,0,78,78,78,0,0,0,0,0,0,
0,0,0,0,0,0,0,0,0,0,0,0,0,0,0,0,0,0,0,0
</data>
 </layer>
 <layer id="3" name="Front" width="20" height="16">
  <data encoding="csv">
78,78,78,78,78,78,78,78,78,78,78,78,78,78,78,78,78,78,78,78,
78,78,78,78,78,78,78,78,78,78,78,78,78,78,78,78,78,78,78,78,
78,78,78,0,0,0,2147487170,0,0,0,0,0,0,3522,0,0,0,78,78,78,
78,78,0,2147487170,0,0,0,0,0,0,0,0,0,0,0,0,3522,0,78,78,
78,78,0,0,0,0,0,0,3221229820,1073746170,1073746171,1073746172,0,0,0,0,0,0,78,78,
78,78,0,0,0,0,0,0,3221229788,1073746138,1073746139,1073746140,0,0,0,0,0,0,78,78,
78,78,0,0,0,0,0,0,0,0,0,0,0,0,0,0,0,0,78,78,
78,78,0,0,0,0,0,0,0,0,0,0,0,0,0,1525,0,0,78,78,
78,78,0,0,0,0,0,0,0,0,0,0,0,0,0,0,0,0,78,78,
78,78,0,0,0,0,0,0,0,0,0,0,0,0,0,0,0,0,78,78,
78,78,214,217,0,0,0,0,0,0,0,0,0,0,0,223,0,0,78,78,
78,78,78,233,0,0,0,0,0,0,0,0,0,0,0,0,206,207,78,78,
78,78,78,214,216,215,198,0,0,231,232,0,0,206,215,216,222,78,78,78,
78,78,78,78,78,78,214,215,216,222,214,215,216,222,78,78,78,78,78,78,
78,78,78,78,78,78,78,78,78,78,78,78,78,78,78,78,78,78,78,78,
78,78,78,78,78,78,78,78,78,78,78,78,78,78,78,78,78,78,78,78
</data>
 </layer>
 <objectgroup id="4" name="Back">
  <object id="9" name="TileData" x="16" y="128" width="16" height="16"/>
  <object id="11" name="TileData" x="192" y="176" width="16" height="16">
   <properties>
    <property name="Bed" value="T"/>
   </properties>
  </object>
  <object id="12" name="TileData" x="192" y="176" width="16" height="16">
   <properties>
    <property name="TouchAction" value="Sleep"/>
   </properties>
  </object>
 </objectgroup>
 <objectgroup id="5" name="Buildings">
  <object id="1" name="TileData" x="64" y="176" width="16" height="16">
   <properties>
    <property name="Action" value="Message &quot;dedpeech.seacave_SeaCave.1&quot;"/>
   </properties>
  </object>
  <object id="2" name="TileData" x="160" y="144" width="16" height="16">
   <properties>
    <property name="Action" value="Message &quot;dedpeech.seacave_SeaCave.2&quot;"/>
   </properties>
  </object>
  <object id="3" name="TileData" x="192" y="160" width="16" height="16">
   <properties>
    <property name="Action" value="Message &quot;dedpeech.seacave_SeaCave.3&quot;"/>
   </properties>
  </object>
  <object id="4" name="TileData" x="240" y="128" width="16" height="16">
   <properties>
    <property name="Action" value="Message &quot;dedpeech.seacave_SeaCave.4&quot;"/>
   </properties>
  </object>
  <object id="5" name="TileData" x="224" y="176" width="16" height="16">
   <properties>
    <property name="Action" value="Message &quot;dedpeech.seacave_SeaCave.5&quot;"/>
   </properties>
  </object>
  <object id="6" name="TileData" x="240" y="176" width="16" height="16">
   <properties>
    <property name="Action" value="Message &quot;dedpeech.seacave_SeaCave.6&quot;"/>
   </properties>
  </object>
  <object id="8" name="TileData" x="80" y="96" width="16" height="16">
   <properties>
    <property name="Action" value="Message &quot;dedpeech.seacave_SeaCave.7&quot;"/>
   </properties>
  </object>
  <object id="7" name="TileData" x="224" y="96" width="16" height="16">
   <properties>
    <property name="Action" value="Message &quot;dedpeech.seacave_SeaCave.8&quot;"/>
   </properties>
  </object>
 </objectgroup>
 <objectgroup id="8" name="Paths"/>
 <objectgroup id="6" name="Front"/>
</map>
