<?xml version="1.0" encoding="UTF-8"?>
<map version="1.10" tiledversion="1.11.2" orientation="orthogonal" renderorder="right-down" compressionlevel="0" width="22" height="14" tilewidth="16" tileheight="16" infinite="0" nextlayerid="15" nextobjectid="38">
 <properties>
  <property name="DayTiles" value="Back2 3 2 225 Back2 3 3 257 Back2 4 2 225 Back2 4 3 257 Buildings 8 2 225 Buildings 8 3 257 Buildings 9 2 225 Buildings 9 3 257 Buildings 12 2 225 Buildings 12 3 257 Buildings 13 2 225 Buildings 13 3 257 Buildings 16 2 225 Buildings 16 3 257 Buildings 17 2 225 Buildings 17 3 257"/>
  <property name="NightTiles" value="Back2 3 2 1222 Back2 3 3 1254 Back2 4 2 1222 Back2 4 3 1254 Buildings 8 2 1222 Buildings 8 3 1254 Buildings 9 2 1222 Buildings 9 3 1254 Buildings 12 2 1222 Buildings 12 3 1254 Buildings 13 2 1222 Buildings 13 3 1254 Buildings 16 2 1222 Buildings 16 3 1254 Buildings 17 2 1222 Buildings 17 3 1254"/>
  <property name="Warp" value="5 12 yuninocorn.CustomNPCAliyahRailroadWoods 60 11"/>
 </properties>
 <tileset firstgid="1" name="1" tilewidth="16" tileheight="16" tilecount="2176" columns="32">
  <image source="townInterior" width="512" height="1088"/>
 </tileset>
 <tileset firstgid="2177" name="2" tilewidth="16" tileheight="16" tilecount="1312" columns="32">
  <image source="townInterior_2" width="512" height="656"/>
 </tileset>
 <tileset firstgid="3489" name="p" tilewidth="16" tileheight="16" tilecount="64" columns="4">
  <image source="paths" width="64" height="256"/>
 </tileset>
 <layer id="1" name="Back" width="22" height="14">
  <data encoding="csv">
0,0,0,0,0,0,0,0,0,0,0,0,0,0,0,0,0,0,0,0,0,0,
0,0,0,0,0,0,0,0,0,0,0,0,0,0,0,0,0,0,0,0,0,0,
0,0,302,302,302,302,35,35,35,35,35,35,35,35,35,35,35,35,35,35,0,0,
0,0,302,302,302,302,67,67,67,67,67,67,67,67,67,67,67,67,67,67,0,0,
0,0,0,0,0,302,113,113,113,113,0,0,0,0,113,113,113,113,113,113,0,0,
0,0,999,999,999,999,201,201,201,201,201,201,201,201,201,201,201,201,201,201,0,0,
0,0,999,999,999,999,233,233,233,233,233,233,233,233,233,233,233,233,233,233,0,0,
0,0,999,999,999,999,265,265,265,265,265,265,265,265,265,265,265,510,265,265,0,0,
0,0,999,999,999,999,233,233,233,233,233,233,233,233,233,233,233,233,233,233,0,0,
0,0,200,201,201,201,265,265,265,265,265,265,265,265,265,265,265,265,265,265,0,0,
0,0,232,233,233,233,233,233,233,0,0,0,0,0,0,0,0,0,0,0,0,0,
0,0,264,265,265,265,265,265,265,0,0,0,0,0,0,0,0,0,0,0,0,0,
0,0,0,0,0,233,0,0,0,0,0,0,0,0,0,0,0,0,0,0,0,0,
0,0,0,0,0,0,0,0,0,0,0,0,0,0,0,0,0,0,0,0,0,0
</data>
 </layer>
 <layer id="2" name="Back2" width="22" height="14">
  <properties>
   <property name="Draw" value="Back"/>
  </properties>
  <data encoding="csv">
0,0,0,0,0,0,0,0,0,0,0,0,0,0,0,0,0,0,0,0,0,0,
0,0,0,0,0,0,0,0,0,0,0,0,0,0,0,0,0,0,0,0,0,0,
0,0,0,257,257,262,35,35,35,35,2231,2199,35,35,3335,35,35,35,35,3404,0,0,
0,0,81,289,289,230,0,0,0,0,2263,0,0,0,3367,81,0,0,0,3436,0,0,
0,0,113,113,113,262,1073741905,1073741905,1073741905,1073741905,113,113,113,113,1073741905,1073741905,1073741905,1073741905,1073741905,3468,0,0,
0,0,0,0,0,1610612924,0,3117,3118,0,2687,2688,0,2753,2754,2755,2756,3380,0,0,0,0,
0,0,0,0,0,1610612817,0,3149,3150,0,2719,2720,0,2785,2786,2787,2788,680,0,0,0,0,
0,0,0,0,0,1610612817,252,253,254,0,0,0,0,2817,2818,2819,2820,712,2399,2400,0,0,
0,197,3758096539,3758096539,3758096539,1610612923,284,285,286,0,0,0,0,2201,2202,2202,2203,2430,2431,2432,0,0,
0,0,2761,2762,2763,2764,316,317,318,0,0,0,0,2233,2234,2234,2235,0,0,0,0,0,
0,0,2793,2794,2795,2796,0,0,0,0,0,0,0,0,0,0,0,0,0,0,0,0,
0,0,2825,2826,2827,2828,0,0,0,0,0,0,0,0,0,0,0,0,0,0,0,0,
0,0,0,0,0,0,0,0,0,0,0,0,0,0,0,0,0,0,0,0,0,0,
0,0,0,0,0,0,0,0,0,0,0,0,0,0,0,0,0,0,0,0,0,0
</data>
 </layer>
 <layer id="3" name="Buildings" width="22" height="14">
  <data encoding="csv">
1,1,1,1,1,1,1,1,1,1,1,1,1,1,1,1,1,1,1,1,1,1,
1,10,3,3,3,3,3,3,3,3,3,3,3,3,3,3,3,3,3,3,12,1,
1,65,2468,0,0,2199,531,532,226,226,0,0,226,226,0,0,226,226,2468,0,69,1,
1,65,2500,436,437,2190,563,564,258,258,2541,2542,258,258,325,326,258,258,2500,0,69,1,
1,65,2916,468,469,2222,503,0,0,0,2573,2574,1073741905,1073741905,357,358,1073741905,3348,1073741905,0,69,1,
1,65,2948,500,501,496,535,2209,2210,364,2605,2606,2148,0,0,0,0,0,2522,0,69,1,
1,65,0,0,0,0,0,0,0,0,0,0,0,0,321,322,0,677,0,2577,69,1,
1,65,402,0,2147484566,0,0,0,0,0,0,0,0,0,0,0,0,0,713,2804,69,1,
1,65,2147484600,2147484599,2147484598,2521,0,0,0,0,0,0,0,0,0,0,0,3183,0,2836,69,1,
1,65,0,857,0,0,0,0,0,401,519,520,0,0,2212,2213,0,0,0,0,2147483745,1,
1,65,888,889,887,0,505,506,507,69,1,1,1,1,1,1,1,1,1,1,1,1,
1,97,0,0,0,0,537,538,539,2147483745,1,1,1,1,1,1,1,1,1,1,1,1,
1,1,1,1,2147483779,0,131,1,1,1,1,1,1,1,1,1,1,1,1,1,1,1,
1,1,1,1,1,1,1,1,1,1,1,1,1,1,1,1,1,1,1,1,1,1
</data>
 </layer>
 <layer id="4" name="Front" width="22" height="14">
  <data encoding="csv">
0,0,0,0,0,0,0,0,0,0,0,0,0,0,0,0,0,0,0,0,0,0,
0,0,0,0,0,0,0,0,0,0,0,0,0,0,0,0,0,0,0,0,0,0,
0,0,0,0,0,0,0,0,0,0,0,0,0,0,0,2872,0,0,0,0,0,0,
0,0,0,0,0,0,0,0,0,0,0,0,0,0,0,0,0,0,0,0,0,0,
0,0,0,0,0,464,0,2177,2178,332,0,0,0,0,359,360,0,0,2490,0,0,0,
0,0,0,0,0,0,0,0,0,0,0,0,0,0,391,392,0,0,0,0,0,0,
0,0,370,0,886,0,0,0,0,0,0,0,0,0,0,0,0,0,681,2772,0,0,
0,0,2147484567,2147484567,0,2489,0,0,336,337,338,0,0,0,0,0,0,3151,0,0,0,0,
0,0,0,0,0,0,0,0,0,369,487,488,0,0,2180,2181,0,0,0,0,0,0,
0,0,856,857,0,0,473,474,475,0,0,0,0,2800,2801,2801,2802,0,0,0,0,0,
0,0,0,0,0,0,0,0,0,0,0,0,0,0,0,0,0,0,0,0,0,0,
0,0,0,0,0,0,0,0,0,0,0,0,0,0,0,0,0,0,0,0,0,0,
0,0,0,0,0,0,0,0,0,0,0,0,0,0,0,0,0,0,0,0,0,0,
0,0,0,0,0,0,0,0,0,0,0,0,0,0,0,0,0,0,0,0,0,0
</data>
 </layer>
 <layer id="5" name="Front2" width="22" height="14">
  <properties>
   <property name="Draw" value="Front"/>
  </properties>
  <data encoding="csv">
0,0,0,0,0,0,0,0,0,0,0,0,0,0,0,0,0,0,0,0,0,0,
0,0,0,0,0,0,0,0,0,0,0,0,0,0,0,0,0,0,0,0,0,0,
0,0,0,0,0,0,0,0,0,0,2415,2416,0,0,0,0,0,0,0,0,0,0,
0,0,0,0,0,0,0,0,0,0,2447,2448,0,0,0,0,0,0,0,0,0,0,
0,0,0,0,0,0,0,0,0,0,0,0,2116,0,0,0,0,0,0,2513,0,0,
0,0,0,0,0,0,0,0,0,0,0,0,0,0,0,0,0,0,0,2545,0,0,
0,0,0,0,481,0,0,0,0,0,0,0,0,0,0,0,0,0,709,0,0,0,
0,0,400,368,2264,0,0,0,0,0,0,0,0,0,0,0,0,0,0,0,0,0,
0,0,0,0,0,0,0,0,0,0,434,432,0,0,0,0,0,0,0,0,0,0,
0,0,652,1389,0,0,0,0,0,0,0,0,0,481,2295,2200,708,0,0,0,0,0,
0,0,0,0,0,0,0,335,650,0,0,0,0,0,0,0,0,0,0,0,0,0,
0,0,0,0,0,0,0,0,0,0,0,0,0,0,0,0,0,0,0,0,0,0,
0,0,0,0,0,0,0,0,0,0,0,0,0,0,0,0,0,0,0,0,0,0,
0,0,0,0,0,0,0,0,0,0,0,0,0,0,0,0,0,0,0,0,0,0
</data>
 </layer>
 <layer id="6" name="Front3" width="22" height="14">
  <properties>
   <property name="Draw" value="Front"/>
  </properties>
  <data encoding="csv">
0,0,0,0,0,0,0,0,0,0,0,0,0,0,0,0,0,0,0,0,0,0,
0,0,0,0,0,0,0,0,0,0,0,0,0,0,0,0,0,0,0,0,0,0,
0,0,0,0,0,0,0,0,0,0,0,0,0,0,2439,2440,0,0,0,0,0,0,
0,0,0,0,0,0,0,0,0,0,0,0,0,0,2471,2472,0,0,0,0,0,0,
0,0,0,0,0,0,0,0,0,0,0,0,0,0,0,0,0,0,0,0,0,0,
0,0,0,0,0,0,0,0,0,0,0,0,0,0,0,0,0,0,0,0,0,0,
0,0,0,0,0,0,0,0,0,0,0,0,0,0,0,0,0,0,0,0,0,0,
0,0,0,0,0,0,0,0,0,0,0,0,0,0,0,0,0,0,0,0,0,0,
0,0,0,0,0,0,0,0,0,0,0,0,0,0,0,0,0,0,0,0,0,0,
0,0,0,0,0,0,0,0,0,164,166,166,166,166,166,166,166,166,166,166,0,0,
0,0,0,0,0,0,0,0,0,0,0,0,0,0,0,0,0,0,0,0,0,0,
0,0,166,166,2147483812,0,164,166,166,0,0,0,0,0,0,0,0,0,0,0,0,0,
0,0,0,0,0,166,0,0,0,0,0,0,0,0,0,0,0,0,0,0,0,0,
0,0,0,0,0,0,0,0,0,0,0,0,0,0,0,0,0,0,0,0,0,0
</data>
 </layer>
 <layer id="7" name="Paths" width="22" height="14">
  <data encoding="csv">
0,0,0,0,0,0,0,0,0,0,0,0,0,0,0,0,0,0,0,0,0,0,
0,0,0,0,0,0,0,0,0,0,0,0,0,0,0,0,0,0,0,0,0,0,
0,0,0,0,0,0,0,0,0,0,0,0,0,0,0,0,0,0,0,0,0,0,
0,0,0,0,0,0,0,0,0,0,0,0,0,0,0,0,0,0,0,0,0,0,
0,0,0,0,0,0,0,0,0,0,0,0,0,0,0,0,0,0,0,0,0,0,
0,0,0,0,0,0,0,0,0,0,0,0,0,0,0,0,0,0,0,0,0,0,
0,0,0,0,3497,0,0,0,0,0,0,0,0,0,0,0,0,0,0,0,0,0,
0,0,0,0,0,0,0,0,0,0,0,0,0,0,0,0,0,0,0,0,0,0,
0,0,0,0,0,0,0,0,0,0,0,0,0,0,0,0,0,0,0,0,0,0,
0,0,0,0,0,0,0,0,0,0,0,0,0,3497,0,0,0,0,0,0,0,0,
0,0,0,0,0,0,0,0,0,0,0,0,0,0,0,0,0,0,0,0,0,0,
0,0,0,0,0,0,0,0,0,0,0,0,0,0,0,0,0,0,0,0,0,0,
0,0,0,0,0,0,0,0,0,0,0,0,0,0,0,0,0,0,0,0,0,0,
0,0,0,0,0,0,0,0,0,0,0,0,0,0,0,0,0,0,0,0,0,0
</data>
 </layer>
 <objectgroup id="8" name="Back"/>
 <objectgroup id="9" name="Back2"/>
 <objectgroup id="10" name="Buildings">
  <object id="27" name="TileData" x="112" y="80" width="16" height="16">
   <properties>
    <property name="Action" value="Message &quot;yuninocorn.AliyahHouse.01&quot;"/>
   </properties>
  </object>
  <object id="29" name="TileData" x="160" y="80" width="16" height="16">
   <properties>
    <property name="Action" value="Message &quot;yuninocorn.AliyahHouse.02&quot;"/>
   </properties>
  </object>
  <object id="31" name="TileData" x="288" y="112" width="16" height="16">
   <properties>
    <property name="Action" value="Message &quot;yuninocorn.AliyahHouse.03&quot;"/>
   </properties>
  </object>
  <object id="32" name="TileData" x="48" y="144" width="16" height="16">
   <properties>
    <property name="Action" value="Message &quot;yuninocorn.AliyahHouse.04&quot;"/>
   </properties>
  </object>
  <object id="33" name="TileData" x="272" y="64" width="16" height="16">
   <properties>
    <property name="Action" value="Message &quot;yuninocorn.AliyahHouse.05&quot;"/>
   </properties>
  </object>
  <object id="34" name="TileData" x="48" y="80" width="16" height="16">
   <properties>
    <property name="Action" value="Message &quot;yuninocorn.AliyahHouse.06&quot;"/>
   </properties>
  </object>
  <object id="35" name="TileData" x="192" y="80" width="16" height="16">
   <properties>
    <property name="Action" value="Message &quot;yuninocorn.AliyahHouse.07&quot;"/>
   </properties>
  </object>
  <object id="36" name="TileData" x="272" y="112" width="16" height="16">
   <properties>
    <property name="NPCPassable" value="T"/>
   </properties>
  </object>
  <object id="37" name="TileData" x="272" y="128" width="16" height="16">
   <properties>
    <property name="NPCPassable" value="T"/>
   </properties>
  </object>
 </objectgroup>
 <objectgroup id="11" name="Front"/>
 <objectgroup id="12" name="Front2"/>
 <objectgroup id="13" name="Front3"/>
 <objectgroup id="14" name="Paths"/>
</map>
