<?xml version="1.0" encoding="UTF-8"?>
<map version="1.10" tiledversion="1.11.2" orientation="orthogonal" renderorder="right-down" compressionlevel="0" width="6" height="9" tilewidth="16" tileheight="16" infinite="0" nextlayerid="9" nextobjectid="8">
 <tileset firstgid="1" name="indoor" tilewidth="16" tileheight="16" tilecount="2176" columns="32">
  <image source="townInterior" width="512" height="1088"/>
 </tileset>
 <tileset firstgid="2177" name="p" tilewidth="16" tileheight="16" tilecount="64" columns="4">
  <image source="paths" width="64" height="256"/>
 </tileset>
 <tileset firstgid="2241" name="sewer" tilewidth="16" tileheight="16" tilecount="0" columns="8">
  <image source="SewerTiles" width="128" height="176"/>
 </tileset>
 <tileset firstgid="2241" name="townInterior_2" tilewidth="16" tileheight="16" tilecount="1312" columns="32">
  <image source="townInterior_2.png" width="512" height="656"/>
 </tileset>
 <tileset firstgid="3553" name="aliyahassets_spouseroom" tilewidth="16" tileheight="16" tilecount="4" columns="2">
  <image source="aliyahassets_spouseroom.png" width="32" height="32"/>
 </tileset>
 <layer id="1" name="Back" width="6" height="9">
  <data encoding="csv">
302,302,302,302,302,302,
302,302,302,302,302,302,
113,113,113,113,113,113,
200,201,200,201,1916,1918,
252,253,254,233,1948,1950,
284,285,286,265,264,265,
316,317,318,233,232,233,
232,233,233,249,250,251,
232,233,232,281,282,283
</data>
 </layer>
 <layer id="2" name="Buildings" width="6" height="9">
  <data encoding="csv">
2263,0,0,2263,0,2263,
81,81,81,81,2605,2606,
0,0,0,0,2637,2638,
535,2273,2274,364,2669,2670,
0,0,0,0,0,3444,
0,0,0,680,681,2520,
737,0,0,712,713,2552,
769,2642,0,3247,0,2584,
521,2147487203,0,0,0,2147487204
</data>
 </layer>
 <layer id="3" name="Paths" width="6" height="9">
  <data encoding="csv">
0,0,0,0,0,0,
0,0,0,0,0,0,
0,0,0,0,0,0,
0,0,0,0,0,0,
0,2184,0,0,0,0,
0,0,0,0,0,0,
0,0,0,0,0,0,
0,0,0,0,0,0,
0,0,0,0,0,0
</data>
 </layer>
 <layer id="4" name="Front" width="6" height="9">
  <data encoding="csv">
533,534,2254,0,2479,2480,
565,566,2286,0,2511,2512,
503,2241,2242,332,0,0,
0,0,0,0,0,3412,
0,0,0,0,0,0,
0,2578,0,677,709,676,
1389,2610,0,3215,0,0,
434,2147487201,0,0,0,2147487202,
0,0,0,0,0,0
</data>
 </layer>
 <objectgroup id="5" name="Back"/>
 <objectgroup id="6" name="Buildings">
  <object id="1" name="TileData" x="16" y="48" width="16" height="16">
   <properties>
    <property name="Action" value="Message &quot;yuninocorn.AliyahHouse.01&quot;"/>
   </properties>
  </object>
  <object id="2" name="TileData" x="64" y="48" width="16" height="16">
   <properties>
    <property name="Action" value="Message &quot;yuninocorn.AliyahHouse.02&quot;"/>
   </properties>
  </object>
  <object id="4" name="TileData" x="64" y="96" width="16" height="16">
   <properties>
    <property name="Action" value="Message &quot;yuninocorn.AliyahHouse.03&quot;"/>
   </properties>
  </object>
  <object id="7" name="TileData" x="0" y="96" width="16" height="16">
   <properties>
    <property name="Action" value="Message &quot;yuninocorn.AliyahHouse.04&quot;"/>
   </properties>
  </object>
  <object id="5" name="TileData" x="80" y="128" width="16" height="16">
   <properties>
    <property name="Action" value="Message &quot;yuninocorn.AliyahSpouseRoom.01&quot;"/>
   </properties>
  </object>
  <object id="6" name="TileData" x="16" y="128" width="16" height="16">
   <properties>
    <property name="Action" value="Message &quot;yuninocorn.AliyahSpouseRoom.02&quot;"/>
   </properties>
  </object>
  <object id="3" name="TileData" x="80" y="48" width="16" height="16">
   <properties>
    <property name="Action" value="Message &quot;yuninocorn.AliyahHouse.05&quot;"/>
   </properties>
  </object>
 </objectgroup>
 <objectgroup id="7" name="Paths"/>
 <objectgroup id="8" name="Front"/>
</map>
