<?xml version="1.0" encoding="UTF-8"?>
<map version="1.10" tiledversion="1.11.2" orientation="orthogonal" renderorder="right-down" compressionlevel="0" width="35" height="40" tilewidth="16" tileheight="16" infinite="0" nextlayerid="15" nextobjectid="27">
 <properties>
  <property name="Outdoors" value="T"/>
 </properties>
 <tileset firstgid="1" name="1" tilewidth="16" tileheight="16" tilecount="2176" columns="32">
  <image source="townInterior" width="512" height="1088"/>
 </tileset>
 <tileset firstgid="2177" name="2" tilewidth="16" tileheight="16" tilecount="1312" columns="32">
  <image source="townInterior_2" width="512" height="656"/>
 </tileset>
 <tileset firstgid="3489" name="p" tilewidth="16" tileheight="16" tilecount="64" columns="4">
  <image source="paths" width="64" height="256"/>
 </tileset>
 <tileset firstgid="3553" name="Exhibit" tilewidth="16" tileheight="16" tilecount="100" columns="10">
  <image source="aliyahassets_event_exhibit.png" width="160" height="160"/>
 </tileset>
 <tileset firstgid="3653" name="spring_outdoorsTileSheet" tilewidth="16" tileheight="16" tilecount="1975" columns="25">
  <image source="spring_outdoorsTileSheet.png" width="400" height="1264"/>
  <tile id="151">
   <animation>
    <frame tileid="151" duration="1000"/>
    <frame tileid="152" duration="1000"/>
   </animation>
  </tile>
 </tileset>
 <layer id="1" name="Back" width="35" height="40">
  <data encoding="csv">
4033,4033,4033,4033,4033,4033,4033,4033,4033,4033,4033,4033,4033,4033,4033,4033,4033,4033,4033,4033,4033,4033,4033,4033,4033,4033,4033,4033,4033,4033,4033,4033,4033,4033,4033,
4033,4033,4033,4033,4033,4033,4033,4033,4033,4033,4033,4033,4033,4033,4033,4033,4033,4033,4033,4033,4033,4033,4033,4033,4033,4033,4033,4033,4033,4033,4033,4033,4033,4033,4033,
4033,4033,4033,4033,4033,4033,4033,4033,4033,4033,4033,4058,4058,4033,4033,4033,4033,4033,4033,4033,4033,4033,4033,4033,4033,4033,4033,4033,4033,4033,4033,4033,4033,4033,4033,
4033,4033,4033,4033,4033,4033,4033,4033,4058,4058,4004,4004,3828,3828,3828,3828,3828,3828,4033,4033,4033,4033,4033,4033,4033,4033,4033,4033,4033,4033,4033,4033,4033,3828,4004,
4058,4058,4058,4058,4058,4058,4058,4004,4004,4004,4004,4004,3828,3828,3828,3828,3828,3828,3828,3828,3828,3828,3828,4058,4058,4058,4058,4058,4058,4058,4058,4058,4058,4058,4058,
4029,4029,4056,4004,4004,4004,4004,4004,4004,4006,4029,4029,3828,171,22,22,22,22,22,22,171,22,4004,4004,4004,4006,4004,4029,4029,4029,4056,4004,4004,4004,4004,
4054,4004,4028,4029,4029,4029,4029,4029,4029,4030,3828,3803,3828,171,171,22,22,22,22,22,171,171,4029,4029,4029,4030,3828,3804,3828,3907,4028,4029,4029,4056,4004,
3828,3828,3804,3828,3803,3828,3907,3828,3828,3828,3804,3828,3828,171,171,22,22,22,22,22,171,171,3828,4053,3828,3828,3828,3828,3803,3908,3828,3828,3828,4028,4029,
3908,0,0,0,0,0,0,0,0,0,0,0,0,171,171,22,22,22,22,22,171,171,0,0,0,0,0,0,0,0,0,0,0,3828,3828,
3828,0,0,0,0,0,0,0,0,0,0,0,0,171,171,22,22,22,22,22,171,171,0,0,0,0,0,0,0,0,0,0,0,3828,3804,
4120,4121,22,22,22,22,22,22,22,22,22,22,22,171,171,22,22,22,22,22,171,171,22,22,22,22,22,22,22,22,22,22,22,3828,3828,
4145,4146,22,22,22,22,22,22,22,22,22,22,22,171,171,22,22,22,22,22,171,171,22,22,22,22,22,22,22,22,22,22,22,4120,4121,
4170,4171,22,22,22,22,22,22,22,22,2110,2110,22,22,171,22,22,22,22,22,22,22,22,2110,2110,22,22,22,22,22,22,22,22,22,4146,
3828,171,171,171,171,171,171,171,171,171,171,171,171,0,0,0,0,0,0,0,0,0,171,171,171,171,171,171,171,171,171,171,171,171,4171,
3828,171,171,171,0,0,0,0,0,0,0,0,0,0,0,0,0,0,0,0,0,0,0,0,0,0,0,0,0,0,0,0,0,4195,3828,
3828,3828,0,0,0,0,0,0,0,0,0,0,0,0,0,0,0,0,0,0,0,0,0,0,0,0,0,0,0,0,0,0,0,3828,3828,
3828,3828,22,22,22,22,22,22,22,22,22,22,22,0,0,0,0,0,0,0,0,0,22,22,22,22,22,22,22,22,22,22,22,3828,3828,
3828,3828,22,22,22,22,22,22,22,22,22,22,22,0,0,0,0,0,0,0,0,0,22,22,22,22,22,22,22,22,22,22,22,3828,3828,
3828,3828,2127,171,171,171,171,171,2127,22,2110,2110,2110,2110,2110,2110,2110,2110,2110,2110,2110,2110,22,2110,2110,22,2127,171,171,171,171,171,22,3828,3828,
3828,3828,171,171,171,171,171,171,171,171,171,171,171,171,2110,2110,2110,2110,2110,2110,2110,171,171,171,171,171,171,171,171,171,171,171,171,3828,3828,
3828,3828,171,171,171,171,171,171,171,171,22,22,171,171,2127,22,22,22,22,22,2127,171,171,171,171,171,171,171,171,171,171,171,171,3828,3828,
3828,3828,171,171,171,171,171,171,171,171,22,22,171,171,22,22,22,22,22,22,22,171,171,171,171,171,171,171,171,22,171,22,171,3828,3828,
3803,3828,1888,1888,1888,1888,1888,1888,171,171,171,171,171,171,22,22,22,22,22,22,22,171,171,171,171,171,22,1888,1888,1888,1888,22,171,3828,3803,
3828,3828,23,23,23,23,23,23,23,107,107,107,4209,4209,107,107,107,107,107,107,107,4209,4209,107,107,107,23,23,23,23,23,23,23,3828,3828,
3828,3828,0,0,0,0,0,0,0,3828,3828,3828,4209,4209,1888,1888,1888,1888,1888,1888,1888,4209,4209,3828,3828,3828,0,0,0,0,0,0,0,3828,3828,
3828,3828,3803,3828,3828,3828,3828,3828,3828,3828,3828,3828,4209,4209,2110,2110,2110,2110,2110,2110,2110,4209,4209,3828,3828,3828,3828,3828,3828,3828,3828,3828,3828,3828,3828,
3828,4054,3828,3828,3828,3828,3804,3828,3828,3828,4053,3828,4209,4209,1044,1044,1044,1044,1044,1044,1044,4209,4209,4053,3828,3804,3828,3828,3828,3828,4054,3828,3828,3804,3908,
3828,3828,3828,3828,3803,3828,3828,3828,3828,3828,3804,3828,4209,4209,1044,1044,1044,1044,1044,1044,1044,4209,4209,3828,3828,3908,3803,3828,3828,3828,5617,5618,5619,5618,5619,
3828,3804,4053,3828,3828,3828,4054,3803,3828,3828,3828,4054,3828,3828,4053,3803,3828,3828,3828,3828,4053,0,0,3804,3828,5617,5618,5619,5617,5618,5617,5618,5617,5618,5619,
3828,3828,3828,3828,3828,3804,3828,3828,3828,3828,3828,3828,3803,3828,3828,3804,3828,5617,5618,5619,5617,5618,5619,5617,5618,5619,5617,5618,5619,5617,5618,5619,3828,3828,3828,
3828,3828,3828,3828,3828,3828,3828,3828,3828,3828,3828,3828,3828,3828,3828,4054,3828,3828,3828,5617,5618,5619,5617,5618,5619,3828,3828,3828,3828,4054,3828,3828,3828,3828,3828,
3828,3828,3828,3828,3828,3828,3828,3828,3828,3828,3828,3828,3828,3828,3828,3828,3828,3803,4053,3828,3828,3828,3828,3828,3828,3828,3828,3828,3828,3828,3828,3828,3828,3828,3828,
4681,4681,4681,4681,4681,4681,4681,4681,4681,4681,4681,4681,4681,4681,4681,4681,4681,4681,4681,4681,4681,4681,4681,4681,4681,4681,4681,4681,4681,4681,4681,4681,4681,4681,4681,
4707,4707,4707,4707,4707,4707,4707,4707,4707,4707,4707,4707,4707,4707,4707,4707,4707,4707,4707,4707,4707,4707,4707,4707,4707,4707,4707,4707,4707,4707,4707,4707,4707,4707,4707,
4707,4707,4707,4707,4707,4707,4707,4707,4707,4707,4707,4707,4707,4707,4707,4707,4707,4707,4707,4707,4707,4707,4707,4707,4707,4707,4707,4707,4707,4707,4707,4707,4707,4707,4707,
4709,4709,4709,4709,4709,4709,4709,4709,4709,4709,4709,4709,4709,4709,4709,4709,4709,4709,4709,4709,4709,4709,4709,4709,4709,4709,4709,4709,4709,4709,4709,4709,4709,4709,4709,
4707,4707,4707,4707,4707,4707,4707,4707,4707,4707,4707,4707,4707,4707,4707,4707,4707,4707,4707,4707,4707,4707,4707,4707,4707,4707,4707,4707,4707,4707,4707,4707,4707,4707,4707,
4707,4707,4707,4707,4707,4707,4707,4707,4707,4707,4707,4707,4707,4707,4707,4707,4707,4707,4707,4707,4707,4707,4707,4707,4707,4707,4707,4707,4707,4707,4707,4707,4707,4707,4707,
4706,4706,4706,4706,4706,4706,4706,4706,4706,4706,4706,4706,4706,4706,4706,4706,4706,4706,4706,4706,4706,4706,4706,4706,4706,4706,4706,4706,4706,4706,4706,4706,4706,4706,4706,
3828,3828,3828,3828,3828,3828,3828,3828,3828,3828,3828,3828,3828,3828,3828,3828,3828,3828,3828,3828,3828,3828,3828,3828,3828,3828,3828,3828,3828,3828,3828,3828,3828,3828,3828
</data>
 </layer>
 <layer id="2" name="Back2" width="35" height="40">
  <properties>
   <property name="Draw" value="Back"/>
  </properties>
  <data encoding="csv">
3757,3758,0,0,0,0,0,0,0,0,3756,3757,3758,0,0,0,0,0,0,0,3756,3757,3758,0,3706,3707,3708,0,0,0,0,0,0,0,0,
3782,3783,0,0,0,0,0,0,0,0,3781,3782,3783,0,0,0,0,0,0,0,3781,3782,3783,0,3731,3732,3733,0,0,0,0,0,0,0,0,
0,0,0,0,0,0,0,0,0,0,0,0,0,0,0,0,0,0,0,0,0,0,0,0,3756,3757,3758,0,0,0,0,0,0,0,0,
0,0,0,0,0,0,0,0,0,0,0,0,0,0,0,0,0,0,0,0,0,0,0,0,3781,3782,3783,0,0,0,0,0,0,0,0,
0,0,0,0,0,0,0,0,0,0,0,0,0,0,0,0,0,0,0,0,0,0,0,0,0,0,0,0,0,0,0,0,0,0,0,
0,0,0,0,0,0,0,0,0,0,0,0,0,166,166,166,166,166,166,166,166,166,0,0,0,0,0,0,0,0,0,0,0,0,0,
0,0,0,0,0,0,0,0,0,0,0,0,0,0,1610612902,0,0,2204,2205,2206,3758096550,0,0,0,0,0,0,0,0,0,0,0,0,0,0,
0,0,0,0,0,0,0,0,0,0,0,0,0,1787,1788,0,0,0,0,1786,1787,1788,0,0,0,0,0,0,0,0,0,0,0,0,0,
0,0,0,0,0,0,0,0,0,0,0,0,0,1819,1820,0,0,0,0,1818,1819,1820,0,0,0,0,0,0,0,0,0,0,0,0,0,
0,0,0,0,0,0,0,0,0,0,0,0,0,1786,1787,1788,0,2204,2205,2206,1786,1787,0,0,0,0,0,0,0,0,0,0,0,0,0,
4120,4121,0,470,470,0,470,470,0,0,0,0,0,1818,1819,1820,0,0,0,0,1818,1819,0,0,0,0,0,470,470,0,470,470,0,0,0,
4145,4146,0,502,502,0,502,502,0,536870968,536870968,536870968,536870968,75,1610612902,75,75,75,75,75,3758096550,75,536870968,536870968,536870968,536870968,0,502,502,0,502,502,0,4120,4121,
4170,4171,0,0,0,0,0,0,0,0,1844,1845,0,107,107,107,107,107,107,107,107,107,0,1844,1845,0,0,0,0,0,0,0,0,4145,4146,
4195,1073741990,1073741990,1073741990,1073741990,1073741990,1073741990,1073741990,1073741990,1073741990,1073741990,1073741990,1073741990,0,0,0,0,0,0,0,0,0,1073741990,1073741990,1073741990,1073741990,1073741990,1073741990,1073741990,1073741990,1073741990,1073741990,1073741990,1073741990,4171,
3660,3661,3662,0,0,0,0,0,0,0,0,0,0,0,0,0,0,0,0,0,0,0,0,0,0,0,0,0,0,0,0,0,3659,4195,4196,
3685,3686,3687,0,0,0,0,0,0,0,0,0,0,0,0,0,0,0,0,0,0,0,0,0,0,0,0,0,0,0,0,0,3684,3685,3686,
3710,3711,3712,0,0,0,0,0,0,0,0,0,0,0,0,0,0,0,0,0,0,0,0,0,0,0,0,0,0,0,0,0,3709,3710,3711,
3735,3736,3737,0,0,0,0,0,0,536870968,536870968,536870968,536870968,0,0,0,0,0,0,0,0,0,536870968,536870968,536870968,536870968,0,0,0,0,0,0,3734,3735,3736,
3760,3761,0,1073744055,0,0,0,1073744055,0,0,1844,1845,0,0,0,0,0,0,0,0,0,0,0,1844,1845,0,0,1073744055,0,0,0,1073744055,0,3760,3761,
3785,3786,0,2231,470,1346,470,2231,0,1073741990,1073741990,1073741990,1073741990,1073741990,5541,5537,5538,5539,5540,5541,5542,1073741990,1073741990,1073741990,1073741990,1073741990,0,2231,470,1346,470,2231,0,3785,3786,
3810,3811,0,2263,2147483803,1390,155,2263,0,0,0,0,0,0,5491,5487,5488,5489,5490,5491,5482,0,0,0,0,0,0,2263,2147483803,1390,155,2263,0,3810,3811,
3766,3767,2180,2181,2147483803,1422,155,2180,2181,0,0,0,0,0,2159,0,0,0,0,0,2159,0,0,0,0,0,2180,2181,2147483803,1422,155,2180,2181,3766,3767,
0,0,2212,2213,0,0,0,2212,2213,75,0,0,197,197,75,75,75,75,75,75,75,197,197,0,0,75,2212,2213,0,0,0,2212,2213,0,0,
0,0,1073742021,1073742021,1073742021,1073742021,1073742021,1073742021,1073742021,0,0,0,0,0,2158,0,0,0,0,0,2158,0,0,0,0,0,1073742021,1073742021,1073742021,1073742021,1073742021,1073742021,1073742021,0,0,
0,0,0,0,0,0,0,0,0,1073741990,1073741990,1073741990,3766,3767,2157,0,0,0,0,0,2157,3766,3767,1073741990,1073741990,1073741990,0,0,0,0,0,0,0,0,0,
0,0,0,0,0,0,0,0,0,0,0,0,3766,3767,0,0,0,0,0,0,0,3766,3767,0,0,0,0,0,0,0,0,0,0,0,0,
0,0,0,0,0,0,0,0,0,0,0,0,3766,3767,0,0,0,0,0,0,0,3766,3767,0,0,0,0,0,0,0,0,0,0,0,0,
0,0,0,0,0,0,0,0,0,0,0,0,0,0,0,0,0,0,0,0,0,0,0,0,0,0,0,0,0,0,0,0,0,0,0,
0,0,0,0,0,0,0,0,0,0,0,0,0,0,0,0,5617,5618,5619,0,0,0,0,0,0,0,0,0,0,0,0,0,0,0,0,
0,0,0,0,0,0,0,0,0,0,0,0,0,0,0,0,0,0,0,0,0,0,0,0,0,0,0,0,0,0,0,0,0,0,0,
0,0,0,0,0,0,0,0,0,0,0,0,0,0,0,0,0,0,0,0,0,0,0,0,0,0,0,0,0,0,0,0,0,0,0,
0,0,0,0,0,0,0,0,0,0,0,0,0,0,0,0,0,0,0,0,0,0,0,0,0,0,0,0,0,0,0,0,0,0,0,
0,0,0,0,0,0,0,0,0,0,0,0,0,0,0,0,0,0,0,0,0,0,0,0,0,0,0,0,0,0,0,0,0,0,0,
0,0,0,0,0,0,0,0,0,0,0,0,0,0,0,0,0,0,0,0,0,0,0,0,0,0,0,0,0,0,0,0,0,0,0,
0,0,0,0,0,0,0,0,0,0,0,0,0,0,0,0,0,0,0,0,0,0,0,0,0,0,0,0,0,0,0,0,0,0,0,
0,0,0,0,0,0,0,0,0,0,0,0,0,0,0,0,0,0,0,0,0,0,0,0,0,0,0,0,0,0,0,0,0,0,0,
0,0,0,0,0,0,0,0,0,0,0,0,0,0,0,0,0,0,0,0,0,0,0,0,0,0,0,0,0,0,0,0,0,0,0,
0,0,0,0,0,0,0,0,0,0,0,0,0,0,0,0,0,0,0,0,0,0,0,0,0,0,0,0,0,0,0,0,0,0,0,
0,0,0,0,0,0,0,0,0,0,0,0,0,0,0,0,0,0,0,0,0,0,0,0,0,0,0,0,0,0,0,0,0,0,0,
0,0,0,0,0,0,0,0,0,0,0,0,0,0,0,0,0,0,0,0,0,0,0,0,0,0,0,0,0,0,0,0,0,0,0
</data>
 </layer>
 <layer id="3" name="Buildings" width="35" height="40">
  <data encoding="csv">
0,3728,3729,3730,0,0,0,0,0,0,0,0,3728,3729,3730,0,0,0,3681,3682,3683,0,3728,3729,3730,0,0,3703,3704,3705,0,0,0,3703,3704,
0,0,3754,0,0,0,0,0,0,0,0,0,0,3754,0,0,0,0,3706,3707,3708,0,0,3754,0,0,0,3728,3729,3730,0,0,0,3728,3729,
0,0,3779,0,0,0,0,0,0,0,0,0,0,3779,0,0,0,0,3731,3732,3733,0,0,3779,0,0,0,0,3754,0,0,0,0,0,3754,
0,0,0,0,0,0,0,0,0,0,0,0,0,0,0,0,0,0,3756,3757,3758,0,0,0,0,0,0,0,3779,0,0,0,0,0,3779,
0,0,0,0,0,0,0,0,0,0,0,0,0,0,0,0,0,0,3781,3782,3783,0,0,0,0,0,0,0,0,0,0,0,0,0,0,
0,0,0,0,0,0,0,0,0,0,0,0,0,2147483910,0,0,0,0,0,0,0,262,0,0,0,0,0,0,0,0,0,0,0,0,0,
0,0,0,0,0,0,0,0,0,0,0,0,0,228,0,2204,2205,2206,0,0,0,2147483876,0,0,0,0,0,0,0,0,0,0,0,0,0,
0,0,0,0,0,0,0,0,0,0,0,0,0,2147483910,0,0,0,156,0,0,0,262,0,0,0,0,0,0,0,0,0,0,0,0,0,
0,0,0,0,0,0,0,0,0,0,0,0,0,2147483910,0,0,0,2468,0,0,0,262,0,0,0,0,0,0,0,0,0,0,0,0,0,
0,0,0,0,0,0,0,0,0,0,0,0,0,2147483910,0,2204,2205,2206,0,0,0,262,0,0,0,0,0,0,0,0,0,0,0,0,0,
0,0,0,0,0,0,0,0,0,0,2147485847,2147485879,0,2147483910,0,0,0,156,0,0,0,262,0,2231,2199,0,0,0,0,0,0,0,0,0,0,
0,0,0,0,0,0,0,0,0,0,0,2147485911,0,292,75,0,0,2468,0,0,75,294,0,2263,0,0,0,0,0,0,0,0,0,0,0,
0,0,0,0,0,0,0,0,0,0,0,0,0,0,0,0,0,2500,0,0,0,0,0,0,0,0,0,0,0,0,0,0,0,0,0,
0,0,0,0,0,0,0,0,0,0,0,0,0,0,0,0,0,0,0,0,0,0,0,0,0,0,0,0,0,0,0,0,0,0,0,
0,0,0,0,0,0,0,0,0,0,0,0,0,0,0,0,0,0,0,0,0,0,0,0,0,0,0,0,0,0,0,0,0,0,0,
0,0,0,0,0,0,0,0,0,0,0,0,0,0,0,0,0,0,0,0,0,0,0,0,0,0,0,0,0,0,0,0,0,0,0,
0,0,0,470,470,0,470,470,0,0,2199,2231,0,0,0,0,0,0,0,0,0,0,0,2231,2199,0,0,470,470,0,470,470,0,0,0,
0,56,0,502,502,0,502,502,0,2147483704,0,2263,0,0,0,0,0,0,0,0,0,0,0,2263,0,56,0,502,502,0,502,502,0,2147483704,0,
0,1073741880,2127,0,0,0,0,0,2127,3221225528,0,0,0,0,0,0,0,0,0,0,0,0,0,0,0,1073741880,2127,0,0,0,0,0,2127,3221225528,0,
0,0,2159,0,0,0,0,0,2159,0,0,0,0,0,0,0,0,0,0,0,0,0,0,0,0,0,2159,0,0,0,0,0,2159,0,0,
3741,3742,2126,0,0,0,0,0,2126,0,0,0,0,0,0,0,0,0,0,0,0,0,0,0,0,0,2126,0,0,0,0,0,2126,3741,3742,
0,0,2158,196,197,197,197,198,2158,0,0,0,0,0,2159,0,196,197,198,0,2159,0,0,0,0,0,2158,196,197,197,197,198,2158,0,0,
0,0,2157,230,3221225702,0,1073742054,2147483878,2157,0,0,0,0,0,2126,0,230,1390,228,0,2126,0,0,0,0,0,2157,230,3221225702,0,1073742054,2147483878,2157,0,0,
0,56,75,75,75,75,75,75,2468,2147483704,0,0,55,56,2158,5150,294,1422,292,5150,2158,55,56,0,0,56,75,75,75,75,75,75,75,2147483704,0,
3960,1073741880,107,107,107,107,107,107,107,3221225528,0,0,55,56,2157,5175,0,0,0,5175,2157,55,56,0,0,1073741880,107,107,107,107,107,107,107,3221225528,3910,
0,0,0,0,0,0,3716,3717,3718,0,0,0,1073741879,1073741880,0,0,0,0,0,0,0,1073741879,1073741880,0,3766,3767,0,0,0,0,0,0,3910,0,0,
3960,0,0,3766,3767,0,0,0,0,0,0,0,55,56,0,0,0,0,0,0,0,55,56,0,0,0,3910,0,3766,3767,0,3960,0,0,0,
0,0,3910,0,0,0,3910,0,0,0,0,0,87,88,0,0,0,0,0,0,0,87,88,0,0,0,0,0,3960,0,0,0,0,0,0,
0,0,0,0,3960,0,0,0,3766,3767,0,0,119,120,0,0,0,0,0,0,0,119,120,0,0,0,0,0,0,0,0,0,0,0,0,
3910,0,0,0,0,0,0,3960,0,3910,0,0,0,0,0,0,0,0,0,0,0,0,0,0,0,0,0,0,0,0,0,0,0,0,3910,
0,0,3766,3767,3910,0,0,0,0,0,0,0,0,0,0,0,0,0,0,0,0,0,0,0,0,3716,3717,3718,0,0,0,3960,3766,3767,0,
4037,4037,4037,4037,4037,4037,4037,4037,4037,4037,4037,4037,4037,4037,4038,0,0,0,0,0,4036,4037,4037,4037,4037,4037,4037,4037,4037,4037,4037,4037,4037,4037,4037,
0,0,0,0,0,0,0,0,0,0,0,0,0,0,0,0,0,0,0,0,0,0,0,0,0,0,0,0,0,0,0,0,0,0,0,
0,0,0,0,0,0,0,0,0,0,0,0,0,0,0,0,0,0,0,0,0,0,0,0,0,0,0,0,0,0,0,0,0,0,0,
0,0,0,0,0,0,0,0,0,0,0,0,0,0,0,0,0,0,0,0,0,0,0,0,0,0,0,0,0,0,0,0,0,0,0,
0,0,0,0,0,0,0,0,0,0,0,0,0,0,0,0,0,0,0,0,0,0,0,0,0,0,0,0,0,0,0,0,0,0,0,
0,3760,3761,0,0,0,0,0,0,0,0,3771,3772,0,0,0,0,0,0,0,0,0,3771,3772,0,0,0,0,0,0,0,0,3760,3761,0,
0,3785,3786,0,0,0,3764,0,0,0,0,3796,3797,0,0,0,0,3764,0,0,0,0,3796,3797,0,0,0,0,3764,0,0,0,3785,3786,0,
0,3810,3811,0,0,0,3789,0,0,0,0,3821,3822,0,0,0,0,3789,0,0,0,0,3821,3822,0,0,0,0,3789,0,0,0,3810,3811,0,
0,0,0,0,0,0,0,0,0,0,0,0,0,0,0,0,0,0,0,0,0,0,0,0,0,0,0,0,0,0,0,0,0,0,0
</data>
 </layer>
 <layer id="4" name="Front" width="35" height="40">
  <data encoding="csv">
0,0,0,0,0,0,3713,3714,3715,0,0,0,0,0,0,3738,3739,3740,0,0,0,0,0,3663,3664,3665,0,0,0,0,3688,3689,3690,0,0,
0,0,0,0,0,0,3738,3739,3740,0,0,0,0,0,0,0,3764,0,0,0,0,0,0,3688,3689,3690,0,0,0,0,3713,3714,3715,0,0,
0,0,0,0,0,0,0,3764,0,0,0,0,0,0,0,0,3789,0,0,0,0,0,0,3713,3714,3715,0,0,0,0,3738,3739,3740,0,0,
0,0,0,0,0,0,0,3789,0,0,0,0,2147488407,2147488407,2147488407,2147488407,2147488407,2147488407,2147488407,2147488407,2147488407,2147488407,2147488406,3738,3739,3740,0,0,0,0,0,3764,0,0,0,
0,0,0,0,0,0,0,0,0,0,0,0,2147488432,2147488432,2147488432,2147488432,2147488432,2147488432,2147488432,2147488432,2147488432,2147488432,2147488431,0,3764,0,0,0,0,0,0,3789,0,0,0,
0,0,0,0,0,0,0,0,0,0,0,0,2147488455,2147488457,2147488455,2147488457,2147488457,2147488457,2147488457,2147488457,2147488455,2147488457,2147488455,0,3789,0,0,0,0,0,0,0,0,0,0,
0,0,0,0,0,0,0,0,0,0,0,0,4832,0,0,0,0,0,0,0,0,0,4832,0,0,0,0,0,0,0,0,0,0,0,0,
0,0,0,0,0,0,0,0,0,0,0,0,4832,0,0,156,470,2147483804,470,2147483804,0,0,4832,0,0,0,0,0,0,0,0,0,0,0,0,
0,4758,4759,4759,4759,4759,4759,4759,4759,4759,4759,4759,4759,0,0,0,502,0,502,0,0,0,2147488407,2147488407,2147488407,2147488407,2147488407,2147488407,2147488407,2147488407,2147488407,2147488407,2147488407,2147488406,0,
0,4783,4784,4784,4784,4784,4784,4784,4784,4784,4784,4784,4784,0,0,0,0,0,0,0,0,0,2147488432,2147488432,2147488432,2147488432,2147488432,2147488432,2147488432,2147488432,2147488432,2147488432,2147488432,2147488431,0,
0,4807,4809,4809,4809,4809,4809,4809,4809,4807,4809,4809,4807,0,0,156,470,2147483804,470,2147483804,0,0,2147488455,2147488457,2147488457,2147488455,2147488457,2147488457,2147488457,2147488457,2147488457,2147488457,2147488457,2147488455,0,
0,0,5541,5537,5538,5539,5540,5541,5542,0,0,0,0,0,0,0,502,0,502,0,0,0,0,0,0,0,5541,5537,5538,5539,5540,5541,5542,0,0,
0,0,5491,5487,5488,5489,5490,5491,5482,0,0,0,0,4759,0,0,0,0,0,0,0,4759,0,0,0,0,5491,5487,5488,5489,5490,5491,5482,0,0,
0,2147483910,0,0,0,0,0,0,0,0,0,0,0,4784,4784,4784,4784,4784,4784,4784,4784,4784,0,0,0,0,0,0,0,0,0,0,0,262,0,
0,4758,4759,4759,4759,4759,4759,4759,4759,4759,4759,4759,4759,4784,4784,4784,4784,4784,4784,4784,4784,4784,4759,4759,4759,4759,4759,4759,4759,4759,4759,4759,4759,4760,0,
0,4783,4784,4784,4784,4784,4784,4784,4784,4784,4784,4784,4784,4784,4784,4784,4784,4784,4784,4784,4784,4784,4784,4784,4784,4784,4784,4784,4784,4784,4784,4784,4784,4785,0,
0,4807,4809,4809,4809,4809,4809,4809,4809,4807,4809,4809,4807,4784,4784,4784,4784,4784,4784,4784,4784,4784,4807,4809,4809,4807,4809,4809,4809,4809,4809,4809,4809,4807,0,
0,4832,5541,5537,5538,5539,5540,5541,5542,4832,0,0,4832,4783,4784,4784,4784,4784,4784,4784,4784,4785,4832,0,0,4832,5541,5537,5538,5539,5540,5541,5542,4832,0,
0,4857,5491,5487,5488,5489,5490,5491,5482,4857,0,0,4857,4807,4809,4809,4809,4809,4809,4809,4809,4807,4857,0,0,4857,5491,5487,5488,5489,5490,5491,5482,4857,0,
0,230,0,0,0,0,0,0,0,0,0,0,0,4832,1786,1787,1788,1787,1786,1787,1788,4832,0,0,0,0,0,0,0,0,0,0,0,228,0,
0,262,0,0,502,0,502,0,0,156,470,470,2147483804,4832,1818,1819,1820,1819,1818,1819,1820,4832,156,470,470,2147483804,0,0,502,0,502,0,0,260,0,
0,262,0,0,0,0,0,0,0,156,470,470,2147483804,4832,2468,470,1346,0,1346,470,2468,4832,156,470,470,2147483804,0,0,0,0,0,0,0,260,0,
0,262,0,0,0,0,0,0,0,0,1160,1160,0,4832,2500,502,0,0,0,502,2500,4832,0,1160,1160,0,0,0,0,0,0,0,0,260,0,
0,0,2468,0,0,0,3666,3667,3668,0,0,0,3741,3742,0,0,0,0,0,0,0,3741,3742,0,0,0,2468,0,0,0,0,0,2468,0,0,
0,0,2500,0,0,0,3691,3692,3693,0,0,0,3741,3742,3776,0,0,0,0,0,3776,3741,3742,0,3741,3742,2500,0,0,0,0,0,2500,0,0,
0,0,0,3741,3742,0,0,0,0,0,0,0,3741,3742,3801,0,0,0,0,0,3801,3741,3742,0,0,0,0,0,3741,3742,0,0,0,0,0,
0,0,0,0,0,0,0,0,0,0,0,0,3741,3742,0,0,0,0,0,0,0,3741,3742,0,0,0,0,0,0,0,0,0,0,0,0,
0,0,0,0,0,0,0,0,3741,3742,0,0,3766,3767,0,0,0,0,0,0,0,3766,3767,0,0,0,0,0,0,0,0,0,0,0,0,
0,0,0,0,0,0,0,0,0,0,0,0,0,0,0,0,0,0,0,0,0,0,0,0,0,3666,3667,3668,0,0,0,0,0,0,0,
0,0,3741,3742,0,0,0,0,0,0,0,0,0,0,0,0,0,0,0,0,0,0,0,0,0,3691,3692,3693,0,0,0,0,3741,3742,0,
4012,4012,4012,4012,4012,4012,4012,4012,4012,4012,4012,4012,4012,4012,4013,0,0,0,0,0,4011,4012,4012,4012,4012,4012,4012,4012,4012,4012,4012,4012,4012,4012,4012,
0,0,0,0,0,0,0,0,0,0,0,0,0,0,0,0,0,0,0,0,0,0,0,0,0,0,0,0,0,0,0,0,0,0,0,
3659,3660,3661,3662,0,0,0,0,0,3669,3670,3671,3672,3673,3674,0,0,0,0,0,3669,3670,3671,3672,3673,3674,0,0,0,0,0,3659,3660,3661,3662,
3684,3685,3686,3687,0,3663,3664,3665,0,3694,3695,3696,3697,3698,3699,0,3663,3664,3665,0,3694,3695,3696,3697,3698,3699,0,3663,3664,3665,0,3684,3685,3686,3687,
3709,3710,3711,3712,0,3688,3689,3690,0,3719,3720,3721,3722,3723,3724,0,3688,3689,3690,0,3719,3720,3721,3722,3723,3724,0,3688,3689,3690,0,3709,3710,3711,3712,
3734,3735,3736,3737,0,3713,3714,3715,0,3744,3745,3746,3747,3748,3749,0,3713,3714,3715,0,3744,3745,3746,3747,3748,3749,0,3713,3714,3715,0,3734,3735,3736,3737,
0,0,0,0,0,3738,3739,3740,0,0,0,0,0,0,0,0,3738,3739,3740,0,0,0,0,0,0,0,0,3738,3739,3740,0,0,0,0,0,
0,0,0,0,0,0,0,0,0,0,0,0,0,0,0,0,0,0,0,0,0,0,0,0,0,0,0,0,0,0,0,0,0,0,0,
0,0,0,0,0,0,0,0,0,0,0,0,0,0,0,0,0,0,0,0,0,0,0,0,0,0,0,0,0,0,0,0,0,0,0,
0,0,0,0,0,0,0,0,0,0,0,0,0,0,0,0,0,0,0,0,0,0,0,0,0,0,0,0,0,0,0,0,0,0,0
</data>
 </layer>
 <layer id="5" name="Front2" width="35" height="40">
  <properties>
   <property name="Draw" value="Front"/>
  </properties>
  <data encoding="csv">
0,0,0,0,0,0,0,0,0,0,0,0,0,0,0,0,0,0,0,0,0,0,0,0,0,0,0,0,0,0,0,0,0,0,0,
0,0,0,0,0,0,0,0,0,0,0,0,0,0,0,0,0,0,0,0,0,0,0,0,0,0,0,0,0,0,0,0,0,0,0,
0,0,0,0,0,0,0,0,0,0,0,0,0,0,0,0,0,0,0,0,0,0,0,0,0,0,0,0,0,0,0,0,0,0,0,
0,0,0,0,0,0,0,0,0,0,0,0,0,0,0,0,0,0,0,0,0,0,0,0,0,0,0,0,0,0,0,0,0,0,0,
0,0,0,0,0,0,0,0,0,0,0,0,0,0,0,0,0,0,0,0,0,0,0,0,0,0,0,0,0,0,0,0,0,0,0,
0,0,0,0,0,0,0,0,0,0,0,0,0,0,0,0,0,0,0,0,0,0,0,0,0,0,0,0,0,0,0,0,0,0,0,
0,0,0,0,0,0,0,0,0,0,0,0,0,0,4832,0,0,0,0,0,4832,0,0,0,0,0,0,0,0,0,0,0,0,0,0,
0,0,0,0,0,0,0,0,0,0,0,0,0,0,4832,0,0,0,0,0,4832,0,0,0,0,0,0,0,0,0,0,0,0,0,0,
0,0,0,0,0,0,0,0,0,0,0,0,4832,0,4832,0,0,0,0,0,4832,0,4832,0,0,0,0,0,0,0,0,0,0,0,0,
0,0,0,0,0,0,0,0,0,0,0,0,4832,0,4832,0,0,2500,0,0,4832,0,4832,0,0,0,0,0,0,0,0,0,0,0,0,
0,0,0,0,0,0,0,0,0,0,0,0,4832,0,4832,0,0,0,0,0,4832,0,4832,0,0,0,0,0,0,0,0,0,0,0,0,
0,4832,0,1786,1787,1786,1787,1788,0,4832,0,0,4832,0,4832,0,0,0,0,0,4832,0,4832,0,0,4832,0,1786,1787,1786,1787,1788,0,4832,0,
0,4857,0,1818,1819,1818,1819,1820,0,4857,0,0,4857,0,4857,0,0,0,0,0,4857,0,4857,0,0,4857,0,1818,1819,1818,1819,1820,0,4857,0,
0,0,0,0,0,0,0,0,0,0,0,0,0,0,0,0,0,0,0,0,0,0,0,0,0,0,0,0,0,0,0,0,0,0,0,
0,0,0,0,0,0,0,0,0,0,0,0,0,0,0,0,0,0,0,0,0,0,0,0,0,0,0,0,0,0,0,0,0,0,0,
0,0,0,0,0,0,0,0,0,0,0,0,0,0,0,0,0,0,0,0,0,0,0,0,0,0,0,0,0,0,0,0,0,0,0,
0,0,0,0,0,0,0,0,0,0,0,0,0,0,0,0,0,0,0,0,0,0,0,0,0,0,0,0,0,0,0,0,0,0,0,
0,0,0,1786,1787,1786,1787,1788,0,0,0,0,0,0,0,0,0,0,0,0,0,0,0,0,0,0,0,1786,1787,1786,1787,1788,0,0,0,
0,0,0,1818,1819,1818,1819,1820,0,3221225528,0,0,0,0,0,0,0,0,0,0,0,0,0,0,0,1073741880,0,1818,1819,1818,1819,1820,0,3221225528,0,
0,0,0,0,0,0,0,0,0,2468,0,0,2468,0,0,0,0,0,0,0,0,0,2468,0,0,2468,0,0,0,0,0,0,0,0,0,
0,0,0,0,0,0,0,0,0,2500,2364,2365,2500,0,0,0,0,0,0,0,0,0,2500,2364,2365,2500,0,0,0,0,0,0,0,0,0,
0,0,0,0,0,0,0,0,0,0,2396,2397,0,0,0,0,0,0,0,0,0,0,0,2396,2397,0,0,0,0,0,0,0,0,0,0,
0,0,0,0,0,0,0,0,0,0,2428,2429,0,0,0,0,0,0,0,0,0,0,0,2428,2429,0,0,0,0,0,0,0,0,0,0,
0,0,0,0,0,0,0,0,0,0,0,0,0,0,0,0,0,0,0,0,0,0,0,0,0,0,0,0,0,0,0,0,0,0,0,
0,0,0,0,0,0,0,0,0,0,0,0,0,0,0,0,0,0,0,0,0,0,0,0,0,0,0,0,0,0,0,0,0,0,0,
0,0,0,0,0,0,0,0,0,0,0,0,0,0,0,0,0,0,0,0,0,0,0,0,0,0,0,0,0,0,0,0,0,0,0,
0,0,0,0,0,0,0,0,0,0,0,0,0,0,0,0,0,0,0,0,0,0,0,0,0,0,0,0,0,0,0,0,0,0,0,
0,0,0,0,0,0,0,0,0,0,0,0,0,0,0,0,0,0,0,0,0,0,0,0,0,0,0,0,0,0,0,0,0,0,0,
0,0,0,0,0,0,0,0,0,0,0,0,0,0,0,0,0,0,0,0,0,0,0,0,0,0,0,0,0,0,0,0,0,0,0,
0,0,0,0,0,0,0,0,0,0,0,0,0,0,0,0,0,0,0,0,0,0,0,0,0,0,0,0,0,0,0,0,0,0,0,
0,0,0,0,0,0,0,0,0,0,0,0,0,0,0,0,0,0,0,0,0,0,0,0,0,0,0,0,0,0,0,0,0,0,0,
0,0,0,0,0,0,0,0,0,0,0,0,0,0,0,0,0,0,0,0,0,0,0,0,0,0,0,0,0,0,0,0,0,0,0,
0,0,0,0,0,0,0,0,0,0,0,0,0,0,0,0,0,0,0,0,0,0,0,0,0,0,0,0,0,0,0,0,0,0,0,
0,0,0,0,0,0,0,0,0,0,0,0,0,0,0,0,0,0,0,0,0,0,0,0,0,0,0,0,0,0,0,0,0,0,0,
0,0,0,0,0,0,0,0,0,0,0,0,0,0,0,0,0,0,0,0,0,0,0,0,0,0,0,0,0,0,0,0,0,0,0,
0,0,0,0,0,0,0,0,0,0,0,0,0,0,0,0,0,0,0,0,0,0,0,0,0,0,0,0,0,0,0,0,0,0,0,
0,0,0,0,0,0,0,0,0,0,0,0,0,0,0,0,0,0,0,0,0,0,0,0,0,0,0,0,0,0,0,0,0,0,0,
0,0,0,0,0,0,0,0,0,0,0,0,0,0,0,0,0,0,0,0,0,0,0,0,0,0,0,0,0,0,0,0,0,0,0,
0,0,0,0,0,0,0,0,0,0,0,0,0,0,0,0,0,0,0,0,0,0,0,0,0,0,0,0,0,0,0,0,0,0,0,
0,0,0,0,0,0,0,0,0,0,0,0,0,0,0,0,0,0,0,0,0,0,0,0,0,0,0,0,0,0,0,0,0,0,0
</data>
 </layer>
 <layer id="6" name="Front3" width="35" height="40">
  <properties>
   <property name="Draw" value="Front"/>
  </properties>
  <data encoding="csv">
0,0,0,3653,3654,3655,0,0,0,2147487306,2147487305,2147487304,0,0,0,0,0,0,0,0,0,0,0,0,0,0,0,0,0,0,0,0,0,0,0,
3656,3657,3658,3678,3679,3680,0,0,0,2147487331,2147487330,2147487329,0,0,0,0,0,0,0,0,0,0,0,0,0,0,0,0,0,0,0,0,2147487306,2147487305,2147487304,
3681,3682,3683,3703,3704,3705,3656,3657,3658,2147487356,2147487355,2147487354,0,0,0,0,0,0,0,0,0,0,0,0,0,3656,3657,3658,0,3653,3654,3655,2147487331,2147487330,2147487329,
3706,3707,3708,3728,3729,3730,3681,3682,3683,2147487381,2147487380,2147487379,0,0,0,0,0,0,0,0,0,0,0,0,0,3681,3682,3683,0,3678,3679,3680,2147487356,2147487355,2147487354,
3731,3732,3733,0,3754,0,3706,3707,3708,2147487406,2147487405,2147487404,0,0,0,0,0,0,0,0,0,0,0,0,0,3706,3707,3708,0,3703,3704,3705,2147487381,2147487380,2147487379,
3756,3757,3758,0,3779,0,3731,3732,3733,2147487431,2147487430,2147487429,0,0,0,0,0,0,0,0,0,0,0,0,0,3731,3732,3733,0,3728,3729,3730,2147487406,2147487405,2147487404,
3781,3782,3783,0,0,0,3756,3757,3758,0,0,0,0,0,0,0,0,0,0,0,0,0,0,0,0,3756,3757,3758,0,0,3754,0,2147487431,2147487430,2147487429,
0,0,0,0,0,0,3781,3782,3783,0,0,0,0,0,0,0,0,0,0,0,0,0,0,0,0,3781,3782,3783,0,0,3779,0,0,0,0,
0,0,0,0,0,0,0,0,0,0,0,0,0,0,0,0,0,0,0,0,0,0,0,0,0,0,0,0,0,0,0,0,0,0,0,
0,0,0,0,0,0,0,0,0,0,0,0,0,0,0,0,0,0,0,0,0,0,0,0,0,0,0,0,0,0,0,0,0,0,0,
0,0,0,0,0,0,0,0,0,0,0,0,0,0,0,0,0,0,0,0,0,0,0,0,0,0,0,0,0,0,0,0,0,0,0,
0,56,0,0,0,0,0,0,0,2147483704,0,0,0,0,0,0,0,0,0,0,0,0,0,0,0,56,0,0,0,0,0,0,0,2147483704,0,
0,1073741880,0,0,0,0,0,0,0,3221225528,0,0,0,0,0,0,0,0,0,0,0,0,0,0,0,1073741880,0,0,0,0,0,0,0,3221225528,0,
0,0,0,0,0,0,0,0,0,0,0,0,0,0,0,0,0,0,0,0,0,0,0,0,0,0,0,0,0,0,0,0,0,0,0,
0,0,0,0,0,0,0,0,0,0,0,0,0,0,0,0,0,0,0,0,0,0,0,0,0,0,0,0,0,0,0,0,0,0,0,
0,0,0,0,0,0,0,0,0,0,0,0,0,0,0,0,0,0,0,0,0,0,0,0,0,0,0,0,0,0,0,0,0,0,0,
0,0,0,0,0,0,0,0,0,0,0,0,0,0,0,0,0,0,0,0,0,0,0,0,0,0,0,0,0,0,0,0,0,0,0,
0,3404,0,0,0,0,0,0,0,0,0,0,0,0,0,0,0,0,0,0,0,0,0,0,0,0,0,0,0,0,0,0,0,3404,0,
0,3436,0,0,0,0,0,0,0,0,0,0,0,0,0,0,0,0,0,0,0,0,0,0,0,0,0,0,0,0,0,0,0,3436,0,
0,3436,0,0,0,0,0,0,0,0,0,0,0,0,0,0,0,0,0,0,0,0,0,0,0,0,0,0,0,0,0,0,0,3436,0,
0,3436,0,0,0,0,0,0,0,0,0,0,0,0,0,0,0,0,0,0,0,0,0,0,0,0,0,0,0,0,0,0,0,3436,0,
0,3436,0,0,0,0,0,0,0,0,0,0,0,0,0,0,0,0,0,0,0,0,0,0,0,0,0,0,0,0,0,0,0,3436,0,
0,3436,0,0,0,0,0,0,0,0,0,0,0,0,0,0,0,0,0,0,0,0,0,0,0,0,0,0,0,0,0,0,0,3436,0,
0,3436,0,0,0,0,0,0,0,0,0,0,0,0,0,0,0,0,0,0,0,0,0,0,0,0,0,0,0,0,0,0,0,3436,0,
0,3468,0,0,0,0,0,0,0,0,0,0,0,0,0,0,0,0,0,0,0,0,0,0,0,0,0,0,0,0,0,0,0,3468,0,
0,0,0,0,0,0,0,0,0,0,0,0,0,0,0,0,0,0,0,0,0,0,0,0,0,0,0,0,0,0,0,0,0,0,0,
0,0,0,0,0,0,0,0,0,0,0,0,0,0,0,0,0,0,0,0,0,0,0,0,0,0,0,0,0,0,0,0,0,0,0,
0,0,0,0,0,0,0,0,0,0,0,0,0,0,0,0,0,0,0,0,0,0,0,0,0,0,0,0,0,0,0,0,0,0,0,
0,0,0,0,0,0,0,0,0,0,0,0,0,0,0,0,0,0,0,0,0,0,0,0,0,0,0,0,0,0,0,0,0,0,0,
0,0,0,0,0,0,0,0,0,0,0,0,0,0,0,0,0,0,0,0,0,0,0,0,0,0,0,0,0,0,0,0,0,0,0,
0,0,0,0,0,0,0,0,0,0,0,0,0,0,0,0,0,0,0,0,0,0,0,0,0,0,0,0,0,0,0,0,0,0,0,
0,0,0,0,0,0,0,0,0,0,0,0,0,0,0,0,0,0,0,0,0,0,0,0,0,0,0,0,0,0,0,0,0,0,0,
0,0,0,0,0,0,0,0,0,0,0,0,0,0,0,0,0,0,0,0,0,0,0,0,0,0,0,0,0,0,0,0,0,0,0,
0,0,0,0,0,0,0,0,0,0,0,0,0,0,0,0,0,0,0,0,0,0,0,0,0,0,0,0,0,0,0,0,0,0,0,
0,0,0,0,0,0,0,0,0,0,0,0,0,0,0,0,0,0,0,0,0,0,0,0,0,0,0,0,0,0,0,0,0,0,0,
0,0,0,0,0,0,0,0,0,0,0,0,0,0,0,0,0,0,0,0,0,0,0,0,0,0,0,0,0,0,0,0,0,0,0,
0,0,0,0,0,0,0,0,0,0,0,0,0,0,0,0,0,0,0,0,0,0,0,0,0,0,0,0,0,0,0,0,0,0,0,
0,0,0,0,0,0,0,0,0,0,0,0,0,0,0,0,0,0,0,0,0,0,0,0,0,0,0,0,0,0,0,0,0,0,0,
0,0,0,0,0,0,0,0,0,0,0,0,0,0,0,0,0,0,0,0,0,0,0,0,0,0,0,0,0,0,0,0,0,0,0,
0,0,0,0,0,0,0,0,0,0,0,0,0,0,0,0,0,0,0,0,0,0,0,0,0,0,0,0,0,0,0,0,0,0,0
</data>
 </layer>
 <layer id="7" name="Paths" width="35" height="40">
  <data encoding="csv">
0,0,0,0,0,0,0,0,0,0,0,0,0,0,0,0,0,0,0,0,0,0,0,0,0,0,0,0,0,0,0,0,0,0,0,
0,0,0,0,0,0,0,0,0,0,0,0,0,0,0,0,0,0,0,0,0,0,0,0,0,0,0,0,0,0,0,0,0,0,0,
0,0,0,0,0,0,0,0,0,0,0,0,0,0,0,0,0,0,0,0,0,0,0,0,0,0,0,0,0,0,0,0,0,0,0,
0,0,0,0,0,0,0,0,0,0,0,0,0,0,0,0,0,0,0,0,0,0,0,0,0,0,0,0,0,0,0,0,0,0,0,
0,0,0,0,0,0,0,0,0,0,0,0,0,0,0,0,0,0,0,0,0,0,0,0,0,0,0,0,0,0,0,0,0,0,0,
0,0,3511,0,0,0,0,0,0,0,0,0,0,0,0,0,0,0,0,0,0,0,0,0,0,0,0,0,0,0,0,0,0,0,0,
0,0,0,0,0,0,0,0,0,3511,0,0,0,0,0,0,0,0,0,0,0,0,0,0,0,0,0,0,3511,0,0,0,0,0,3511,
0,3511,0,3511,0,0,3511,0,3511,0,0,3511,0,0,0,0,0,0,0,0,0,0,0,0,3511,0,0,3511,0,0,0,3511,3511,0,0,
0,0,0,0,0,0,0,0,0,0,0,0,0,0,0,0,0,0,0,0,0,0,0,0,0,0,0,0,0,0,0,0,0,0,3511,
3511,0,0,0,0,0,0,0,0,0,0,0,0,0,0,0,0,0,0,0,0,0,0,0,0,0,0,0,0,0,0,0,0,0,0,
0,0,0,0,0,0,0,0,0,0,0,0,0,0,0,0,0,0,0,0,0,0,0,0,0,0,0,0,0,0,0,0,0,0,3511,
0,0,0,0,0,0,0,0,0,0,0,0,0,0,0,0,0,0,0,0,0,0,0,0,0,0,0,0,0,0,0,0,0,0,0,
0,0,0,0,0,0,0,0,0,0,0,0,0,0,0,0,0,0,0,0,0,0,0,0,0,0,0,0,0,0,0,0,0,0,0,
0,0,0,0,0,0,0,0,0,0,0,0,0,0,0,0,0,0,0,0,0,0,0,0,0,0,0,0,0,0,0,0,0,0,0,
0,0,0,0,0,0,0,0,0,0,0,0,0,0,0,0,0,0,0,0,0,0,0,0,0,0,0,0,0,0,0,0,0,0,0,
0,0,0,0,0,0,0,0,0,0,0,0,0,0,0,0,0,0,0,0,0,0,0,0,0,0,0,0,0,0,0,0,0,0,0,
0,0,0,0,0,0,0,0,0,0,0,0,0,0,0,0,0,0,0,0,0,0,0,0,0,0,0,0,0,0,0,0,0,0,0,
0,0,0,0,0,0,0,0,0,0,0,0,0,0,0,0,0,0,0,0,0,0,0,0,0,0,0,0,0,0,0,0,0,0,0,
0,0,0,0,0,0,0,0,0,0,0,0,0,0,0,0,0,0,0,0,0,0,0,0,0,0,0,0,0,0,0,0,0,0,0,
0,0,0,0,0,0,0,0,0,0,0,0,0,0,0,0,0,0,0,0,0,0,0,0,0,0,0,0,0,0,0,0,0,0,0,
0,0,0,0,0,0,0,0,0,0,0,0,0,0,0,0,0,0,0,0,0,0,0,0,0,0,0,0,0,0,0,0,0,0,0,
0,0,0,0,0,0,0,0,0,0,0,0,0,0,0,0,0,0,0,0,0,0,0,0,0,0,0,0,0,0,0,0,0,0,0,
0,0,0,0,0,0,0,0,0,0,0,0,0,0,0,0,0,0,0,0,0,0,0,0,0,0,0,0,0,0,0,0,0,0,0,
3511,0,0,0,0,0,0,0,0,0,0,0,0,0,0,0,0,0,0,0,0,0,0,0,0,0,0,0,0,0,0,0,0,0,0,
0,0,0,0,0,0,0,0,0,0,0,0,0,0,0,0,0,0,0,0,0,0,0,0,0,0,0,0,0,0,0,0,0,0,0,
0,0,0,0,0,3511,0,0,0,0,3511,0,0,0,0,0,0,0,0,0,0,0,0,0,0,0,0,3511,0,0,3511,0,0,0,3511,
0,0,3511,0,0,0,0,0,0,0,0,3511,0,0,0,0,0,0,0,0,0,0,0,0,3511,0,0,0,0,0,0,0,3511,0,0,
3511,0,0,3511,0,0,0,3511,0,0,0,0,0,0,0,0,0,0,0,0,0,0,0,3511,0,0,0,3511,0,0,0,0,0,0,0,
0,0,0,0,0,0,0,0,0,0,3511,0,0,0,0,0,0,0,0,0,0,0,0,0,0,0,0,0,0,0,0,0,0,0,0,
0,3511,0,0,0,0,3511,0,0,0,0,0,0,3511,3511,0,0,0,0,0,0,0,0,0,0,0,0,0,0,0,0,0,0,0,0,
0,0,0,0,0,0,0,0,0,0,0,0,3511,0,0,0,3511,3511,0,0,0,0,0,0,0,0,0,0,0,3511,0,0,0,0,3511,
0,0,0,0,0,0,0,0,0,0,0,0,0,0,0,0,3511,0,0,3511,0,0,0,0,0,0,0,0,0,0,0,0,0,0,0,
0,0,0,0,0,0,0,0,0,0,0,0,0,0,0,0,0,0,0,0,0,0,0,0,0,0,0,0,0,0,0,0,0,0,0,
0,0,0,0,0,0,0,0,0,0,0,0,0,0,0,0,0,0,0,0,0,0,0,0,0,0,0,0,0,0,0,0,0,0,0,
0,0,0,0,0,0,0,0,0,0,0,0,0,0,0,0,0,0,0,0,0,0,0,0,0,0,0,0,0,0,0,0,0,0,0,
0,0,0,0,0,0,0,0,0,0,0,0,0,0,0,0,0,0,0,0,0,0,0,0,0,0,0,0,0,0,0,0,0,0,0,
0,0,0,0,0,0,0,0,0,0,0,0,0,0,0,0,0,0,0,0,0,0,0,0,0,0,0,0,0,0,0,0,0,0,0,
0,0,0,0,0,0,0,0,0,0,0,0,0,0,0,0,0,0,0,0,0,0,0,0,0,0,0,0,0,0,0,0,0,0,0,
0,0,0,0,0,0,0,0,0,0,0,0,0,0,0,0,0,0,0,0,0,0,0,0,0,0,0,0,0,0,0,0,0,0,0,
3511,3511,0,0,3511,0,0,3511,0,3511,3511,3511,0,0,3511,0,3511,3511,0,3511,0,0,3511,0,3511,0,3511,3511,0,3511,3511,3511,0,3511,0
</data>
 </layer>
 <objectgroup id="8" name="Back"/>
 <objectgroup id="9" name="Back2"/>
 <objectgroup id="10" name="Buildings"/>
 <objectgroup id="11" name="Front"/>
 <objectgroup id="12" name="Front2"/>
 <objectgroup id="13" name="Front3"/>
 <objectgroup id="14" name="Paths"/>
</map>
