<?xml version="1.0" encoding="UTF-8"?>
<map version="1.10" tiledversion="1.11.2" orientation="orthogonal" renderorder="right-down" compressionlevel="0" width="80" height="40" tilewidth="16" tileheight="16" infinite="0" nextlayerid="19" nextobjectid="48">
 <properties>
  <property name="AllowGrassSurviveInWinter" value="T"/>
  <property name="Fall_Objects" value="T"/>
  <property name="Light" value="40 6 1 43 7 1 42 10 1"/>
  <property name="NPCWarp" value="60 10 yuninocorn.CustomNPCAliyahAliyahHouse 5 11"/>
  <property name="Outdoors" value="T"/>
  <property name="Spring_Objects" value="T"/>
  <property name="Summer_Objects" value="T"/>
  <property name="Warp" value="74 34 Railroad 5 43"/>
  <property name="Winter_Objects" value="T"/>
 </properties>
 <tileset firstgid="1" name="outdoors" tilewidth="16" tileheight="16" tilecount="1975" columns="25">
  <image source="spring_outdoorsTileSheet" width="400" height="1264"/>
  <tile id="150">
   <properties>
    <property name="Spawnable" value="T"/>
    <property name="Type" value="Grass"/>
   </properties>
   <animation>
    <frame tileid="150" duration="100"/>
    <frame tileid="150" duration="100"/>
    <frame tileid="150" duration="100"/>
    <frame tileid="150" duration="100"/>
    <frame tileid="150" duration="100"/>
    <frame tileid="150" duration="100"/>
    <frame tileid="150" duration="100"/>
    <frame tileid="150" duration="100"/>
    <frame tileid="150" duration="100"/>
    <frame tileid="150" duration="100"/>
    <frame tileid="150" duration="100"/>
    <frame tileid="150" duration="100"/>
    <frame tileid="150" duration="100"/>
    <frame tileid="150" duration="100"/>
    <frame tileid="150" duration="100"/>
    <frame tileid="150" duration="100"/>
    <frame tileid="150" duration="100"/>
    <frame tileid="150" duration="100"/>
    <frame tileid="150" duration="100"/>
    <frame tileid="150" duration="100"/>
    <frame tileid="420" duration="100"/>
    <frame tileid="421" duration="100"/>
    <frame tileid="422" duration="100"/>
    <frame tileid="423" duration="100"/>
    <frame tileid="420" duration="100"/>
    <frame tileid="150" duration="100"/>
    <frame tileid="150" duration="100"/>
    <frame tileid="150" duration="100"/>
    <frame tileid="150" duration="100"/>
    <frame tileid="150" duration="100"/>
    <frame tileid="150" duration="100"/>
    <frame tileid="150" duration="100"/>
    <frame tileid="150" duration="100"/>
    <frame tileid="150" duration="100"/>
    <frame tileid="150" duration="100"/>
   </animation>
  </tile>
  <tile id="151">
   <properties>
    <property name="Type" value="Grass"/>
   </properties>
   <animation>
    <frame tileid="151" duration="1000"/>
    <frame tileid="152" duration="1000"/>
   </animation>
  </tile>
  <tile id="152">
   <properties>
    <property name="Type" value="Grass"/>
   </properties>
   <animation>
    <frame tileid="152" duration="1000"/>
    <frame tileid="151" duration="1000"/>
   </animation>
  </tile>
  <tile id="156">
   <properties>
    <property name="Spawnable" value="T"/>
    <property name="Type" value="Grass"/>
   </properties>
  </tile>
  <tile id="175">
   <properties>
    <property name="Spawnable" value="T"/>
    <property name="Type" value="Grass"/>
   </properties>
  </tile>
  <tile id="176">
   <properties>
    <property name="Diggable" value="T"/>
    <property name="Type" value="Dirt"/>
   </properties>
  </tile>
  <tile id="177">
   <properties>
    <property name="Type" value="Dirt"/>
   </properties>
  </tile>
  <tile id="178">
   <properties>
    <property name="Type" value="Dirt"/>
   </properties>
  </tile>
  <tile id="179">
   <properties>
    <property name="Type" value="Grass"/>
   </properties>
  </tile>
  <tile id="180">
   <properties>
    <property name="Spawnable" value="T"/>
    <property name="Type" value="Grass"/>
   </properties>
  </tile>
  <tile id="181">
   <properties>
    <property name="Type" value="Dirt"/>
   </properties>
  </tile>
  <tile id="182">
   <properties>
    <property name="Type" value="Dirt"/>
   </properties>
  </tile>
  <tile id="183">
   <animation>
    <frame tileid="183" duration="1000"/>
    <frame tileid="1182" duration="1000"/>
   </animation>
  </tile>
  <tile id="184">
   <animation>
    <frame tileid="184" duration="1000"/>
    <frame tileid="1183" duration="1000"/>
   </animation>
  </tile>
  <tile id="185">
   <animation>
    <frame tileid="185" duration="1000"/>
    <frame tileid="1184" duration="1000"/>
   </animation>
  </tile>
  <tile id="186">
   <animation>
    <frame tileid="186" duration="1000"/>
    <frame tileid="1185" duration="1000"/>
   </animation>
  </tile>
  <tile id="200">
   <properties>
    <property name="Spawnable" value="T"/>
    <property name="Type" value="Grass"/>
   </properties>
  </tile>
  <tile id="202">
   <properties>
    <property name="Type" value="Dirt"/>
   </properties>
  </tile>
  <tile id="203">
   <properties>
    <property name="Type" value="Grass"/>
   </properties>
  </tile>
  <tile id="204">
   <properties>
    <property name="Type" value="Grass"/>
   </properties>
  </tile>
  <tile id="205">
   <properties>
    <property name="Type" value="Grass"/>
   </properties>
  </tile>
  <tile id="206">
   <properties>
    <property name="Diggable" value="T"/>
    <property name="Type" value="Dirt"/>
   </properties>
  </tile>
  <tile id="207">
   <properties>
    <property name="Diggable" value="T"/>
    <property name="Type" value="Dirt"/>
   </properties>
  </tile>
  <tile id="208">
   <animation>
    <frame tileid="208" duration="1000"/>
    <frame tileid="1207" duration="1000"/>
   </animation>
  </tile>
  <tile id="209">
   <properties>
    <property name="Water" value="T"/>
   </properties>
   <animation>
    <frame tileid="209" duration="1000"/>
    <frame tileid="1208" duration="1000"/>
   </animation>
  </tile>
  <tile id="211">
   <animation>
    <frame tileid="211" duration="1000"/>
    <frame tileid="1210" duration="1000"/>
   </animation>
  </tile>
  <tile id="225">
   <properties>
    <property name="Type" value="Dirt"/>
   </properties>
  </tile>
  <tile id="226">
   <properties>
    <property name="Diggable" value="T"/>
    <property name="Type" value="Dirt"/>
   </properties>
  </tile>
  <tile id="227">
   <properties>
    <property name="Diggable" value="T"/>
    <property name="Type" value="Dirt"/>
   </properties>
  </tile>
  <tile id="228">
   <properties>
    <property name="Type" value="Dirt"/>
   </properties>
  </tile>
  <tile id="229">
   <properties>
    <property name="Type" value="Grass"/>
   </properties>
  </tile>
  <tile id="230">
   <properties>
    <property name="Type" value="Grass"/>
   </properties>
  </tile>
  <tile id="231">
   <properties>
    <property name="Diggable" value="T"/>
    <property name="Type" value="Dirt"/>
   </properties>
  </tile>
  <tile id="233">
   <animation>
    <frame tileid="233" duration="1000"/>
    <frame tileid="1232" duration="1000"/>
   </animation>
  </tile>
  <tile id="234">
   <properties>
    <property name="Water" value="T"/>
   </properties>
  </tile>
  <tile id="235">
   <animation>
    <frame tileid="235" duration="1000"/>
    <frame tileid="1290" duration="1000"/>
   </animation>
  </tile>
  <tile id="237">
   <animation>
    <frame tileid="237" duration="1000"/>
    <frame tileid="1291" duration="1000"/>
   </animation>
  </tile>
  <tile id="238">
   <animation>
    <frame tileid="238" duration="1000"/>
    <frame tileid="1292" duration="1000"/>
   </animation>
  </tile>
  <tile id="250">
   <properties>
    <property name="Type" value="Grass"/>
   </properties>
  </tile>
  <tile id="251">
   <properties>
    <property name="Type" value="Dirt"/>
   </properties>
  </tile>
  <tile id="252">
   <properties>
    <property name="Diggable" value="T"/>
    <property name="Type" value="Dirt"/>
   </properties>
  </tile>
  <tile id="253">
   <properties>
    <property name="Type" value="Grass"/>
   </properties>
  </tile>
  <tile id="254">
   <properties>
    <property name="Type" value="Grass"/>
   </properties>
  </tile>
  <tile id="255">
   <properties>
    <property name="Type" value="Grass"/>
   </properties>
  </tile>
  <tile id="256">
   <properties>
    <property name="Type" value="Grass"/>
   </properties>
  </tile>
  <tile id="258">
   <animation>
    <frame tileid="258" duration="1000"/>
    <frame tileid="1257" duration="1000"/>
   </animation>
  </tile>
  <tile id="260">
   <animation>
    <frame tileid="260" duration="1000"/>
    <frame tileid="1315" duration="1000"/>
   </animation>
  </tile>
  <tile id="265">
   <properties>
    <property name="Type" value="Dirt"/>
   </properties>
  </tile>
  <tile id="275">
   <properties>
    <property name="Spawnable" value="t"/>
    <property name="Type" value="Grass"/>
   </properties>
  </tile>
  <tile id="276">
   <properties>
    <property name="Type" value="Grass"/>
   </properties>
  </tile>
  <tile id="277">
   <properties>
    <property name="Spawnable" value="T"/>
    <property name="Type" value="Grass"/>
   </properties>
  </tile>
  <tile id="278">
   <properties>
    <property name="Type" value="Grass"/>
   </properties>
  </tile>
  <tile id="279">
   <properties>
    <property name="Type" value="Grass"/>
   </properties>
  </tile>
  <tile id="283">
   <animation>
    <frame tileid="283" duration="1000"/>
    <frame tileid="1312" duration="1000"/>
   </animation>
  </tile>
  <tile id="284">
   <animation>
    <frame tileid="284" duration="1000"/>
    <frame tileid="1313" duration="1000"/>
   </animation>
  </tile>
  <tile id="285">
   <properties>
    <property name="Water" value="T"/>
   </properties>
  </tile>
  <tile id="300">
   <properties>
    <property name="Type" value="Grass"/>
   </properties>
  </tile>
  <tile id="301">
   <properties>
    <property name="Type" value="Grass"/>
   </properties>
  </tile>
  <tile id="302">
   <properties>
    <property name="Spawnable" value="T"/>
    <property name="Type" value="Grass"/>
   </properties>
  </tile>
  <tile id="303">
   <properties>
    <property name="Type" value="Grass"/>
   </properties>
  </tile>
  <tile id="304">
   <properties>
    <property name="Type" value="Grass"/>
   </properties>
  </tile>
  <tile id="305">
   <properties>
    <property name="Type" value="Grass"/>
   </properties>
  </tile>
  <tile id="308">
   <properties>
    <property name="Water" value="T"/>
   </properties>
  </tile>
  <tile id="309">
   <properties>
    <property name="Water" value="T"/>
   </properties>
   <animation>
    <frame tileid="309" duration="1000"/>
    <frame tileid="1317" duration="1000"/>
   </animation>
  </tile>
  <tile id="310">
   <properties>
    <property name="Water" value="T"/>
   </properties>
  </tile>
  <tile id="312">
   <properties>
    <property name="Type" value="Wood"/>
   </properties>
  </tile>
  <tile id="313">
   <properties>
    <property name="Type" value="Wood"/>
   </properties>
  </tile>
  <tile id="314">
   <properties>
    <property name="Type" value="Wood"/>
   </properties>
  </tile>
  <tile id="325">
   <properties>
    <property name="Type" value="Grass"/>
   </properties>
  </tile>
  <tile id="326">
   <properties>
    <property name="Type" value="Grass"/>
   </properties>
  </tile>
  <tile id="327">
   <properties>
    <property name="Type" value="Grass"/>
   </properties>
  </tile>
  <tile id="328">
   <properties>
    <property name="Type" value="Grass"/>
   </properties>
  </tile>
  <tile id="329">
   <properties>
    <property name="Type" value="Grass"/>
   </properties>
  </tile>
  <tile id="333">
   <properties>
    <property name="Water" value="T"/>
   </properties>
  </tile>
  <tile id="334">
   <properties>
    <property name="Water" value="T"/>
   </properties>
  </tile>
  <tile id="335">
   <properties>
    <property name="Water" value="T"/>
   </properties>
  </tile>
  <tile id="336">
   <properties>
    <property name="Water" value="T"/>
   </properties>
  </tile>
  <tile id="337">
   <properties>
    <property name="Type" value="Wood"/>
   </properties>
  </tile>
  <tile id="338">
   <properties>
    <property name="Type" value="Wood"/>
   </properties>
  </tile>
  <tile id="339">
   <properties>
    <property name="Type" value="Wood"/>
   </properties>
  </tile>
  <tile id="350">
   <properties>
    <property name="Type" value="Grass"/>
   </properties>
  </tile>
  <tile id="351">
   <properties>
    <property name="Spawnable" value="T"/>
    <property name="Type" value="Grass"/>
   </properties>
  </tile>
  <tile id="352">
   <properties>
    <property name="Type" value="Grass"/>
   </properties>
  </tile>
  <tile id="353">
   <properties>
    <property name="Type" value="Grass"/>
   </properties>
  </tile>
  <tile id="354">
   <properties>
    <property name="Type" value="Grass"/>
   </properties>
  </tile>
  <tile id="355">
   <properties>
    <property name="Type" value="Grass"/>
   </properties>
  </tile>
  <tile id="356">
   <properties>
    <property name="Type" value="Grass"/>
   </properties>
  </tile>
  <tile id="375">
   <properties>
    <property name="Type" value="Grass"/>
   </properties>
  </tile>
  <tile id="376">
   <properties>
    <property name="Type" value="Grass"/>
   </properties>
  </tile>
  <tile id="377">
   <properties>
    <property name="Type" value="Grass"/>
   </properties>
  </tile>
  <tile id="378">
   <properties>
    <property name="Type" value="Grass"/>
   </properties>
  </tile>
  <tile id="379">
   <properties>
    <property name="Type" value="Grass"/>
   </properties>
  </tile>
  <tile id="380">
   <properties>
    <property name="Spawnable" value="T"/>
    <property name="Type" value="Grass"/>
   </properties>
  </tile>
  <tile id="381">
   <properties>
    <property name="Type" value="Grass"/>
   </properties>
  </tile>
  <tile id="400">
   <properties>
    <property name="Type" value="Grass"/>
   </properties>
  </tile>
  <tile id="401">
   <properties>
    <property name="Type" value="Grass"/>
   </properties>
  </tile>
  <tile id="402">
   <properties>
    <property name="Spawnable" value="T"/>
    <property name="Type" value="Grass"/>
   </properties>
  </tile>
  <tile id="403">
   <properties>
    <property name="Spawnable" value="T"/>
    <property name="Type" value="Grass"/>
   </properties>
  </tile>
  <tile id="404">
   <properties>
    <property name="Type" value="Grass"/>
   </properties>
  </tile>
  <tile id="405">
   <properties>
    <property name="Type" value="Grass"/>
   </properties>
  </tile>
  <tile id="406">
   <properties>
    <property name="Type" value="Grass"/>
   </properties>
  </tile>
  <tile id="512">
   <properties>
    <property name="Type" value="Dirt"/>
   </properties>
  </tile>
  <tile id="534">
   <properties>
    <property name="Type" value="Dirt"/>
   </properties>
  </tile>
  <tile id="536">
   <properties>
    <property name="Type" value="Dirt"/>
   </properties>
  </tile>
  <tile id="537">
   <properties>
    <property name="Type" value="Dirt"/>
   </properties>
  </tile>
  <tile id="538">
   <properties>
    <property name="Type" value="Dirt"/>
   </properties>
  </tile>
  <tile id="558">
   <properties>
    <property name="Diggable" value="T"/>
    <property name="Type" value="Dirt"/>
   </properties>
  </tile>
  <tile id="560">
   <properties>
    <property name="Diggable" value="T"/>
    <property name="Type" value="Dirt"/>
   </properties>
  </tile>
  <tile id="561">
   <properties>
    <property name="Type" value="Dirt"/>
   </properties>
  </tile>
  <tile id="562">
   <properties>
    <property name="Type" value="Dirt"/>
   </properties>
  </tile>
  <tile id="563">
   <properties>
    <property name="Type" value="Dirt"/>
   </properties>
  </tile>
  <tile id="564">
   <properties>
    <property name="Diggable" value="T"/>
    <property name="Type" value="Dirt"/>
   </properties>
  </tile>
  <tile id="565">
   <properties>
    <property name="Type" value="Dirt"/>
   </properties>
  </tile>
  <tile id="566">
   <properties>
    <property name="Type" value="Dirt"/>
   </properties>
  </tile>
  <tile id="567">
   <properties>
    <property name="Spawnable" value="T"/>
    <property name="Type" value="Grass"/>
   </properties>
  </tile>
  <tile id="568">
   <properties>
    <property name="Type" value="Grass"/>
   </properties>
  </tile>
  <tile id="569">
   <properties>
    <property name="Spawnable" value="T"/>
    <property name="Type" value="Grass"/>
   </properties>
  </tile>
  <tile id="570">
   <properties>
    <property name="Type" value="Grass"/>
   </properties>
  </tile>
  <tile id="583">
   <properties>
    <property name="Diggable" value="T"/>
    <property name="Type" value="Dirt"/>
   </properties>
  </tile>
  <tile id="585">
   <properties>
    <property name="Diggable" value="T"/>
    <property name="Type" value="Dirt"/>
   </properties>
  </tile>
  <tile id="586">
   <properties>
    <property name="Type" value="Dirt"/>
   </properties>
  </tile>
  <tile id="587">
   <properties>
    <property name="Diggable" value="T"/>
    <property name="Type" value="Dirt"/>
   </properties>
  </tile>
  <tile id="588">
   <properties>
    <property name="Type" value="Dirt"/>
   </properties>
  </tile>
  <tile id="589">
   <properties>
    <property name="Diggable" value="T"/>
    <property name="Type" value="Dirt"/>
   </properties>
  </tile>
  <tile id="590">
   <properties>
    <property name="Type" value="Dirt"/>
   </properties>
  </tile>
  <tile id="591">
   <properties>
    <property name="Type" value="Dirt"/>
   </properties>
  </tile>
  <tile id="592">
   <properties>
    <property name="Type" value="Grass"/>
   </properties>
  </tile>
  <tile id="593">
   <properties>
    <property name="Type" value="Grass"/>
   </properties>
  </tile>
  <tile id="594">
   <properties>
    <property name="Type" value="Grass"/>
   </properties>
  </tile>
  <tile id="595">
   <properties>
    <property name="Type" value="Grass"/>
   </properties>
  </tile>
  <tile id="596">
   <properties>
    <property name="Type" value="Dirt"/>
   </properties>
  </tile>
  <tile id="597">
   <properties>
    <property name="Type" value="Dirt"/>
   </properties>
  </tile>
  <tile id="598">
   <properties>
    <property name="Type" value="Stone"/>
   </properties>
  </tile>
  <tile id="599">
   <properties>
    <property name="Type" value="Stone"/>
   </properties>
  </tile>
  <tile id="606">
   <properties>
    <property name="Diggable" value="T"/>
    <property name="Type" value="Dirt"/>
   </properties>
  </tile>
  <tile id="607">
   <properties>
    <property name="Diggable" value="T"/>
    <property name="Type" value="Dirt"/>
   </properties>
  </tile>
  <tile id="608">
   <properties>
    <property name="Diggable" value="T"/>
    <property name="Type" value="Dirt"/>
   </properties>
  </tile>
  <tile id="610">
   <properties>
    <property name="Diggable" value="T"/>
    <property name="Type" value="Dirt"/>
   </properties>
  </tile>
  <tile id="611">
   <properties>
    <property name="Type" value="Dirt"/>
   </properties>
  </tile>
  <tile id="612">
   <properties>
    <property name="Type" value="Dirt"/>
   </properties>
  </tile>
  <tile id="613">
   <properties>
    <property name="Type" value="Dirt"/>
   </properties>
  </tile>
  <tile id="614">
   <properties>
    <property name="Diggable" value="T"/>
    <property name="Type" value="Dirt"/>
   </properties>
  </tile>
  <tile id="615">
   <properties>
    <property name="Type" value="Dirt"/>
   </properties>
  </tile>
  <tile id="616">
   <properties>
    <property name="Type" value="Dirt"/>
   </properties>
  </tile>
  <tile id="617">
   <properties>
    <property name="Type" value="Dirt"/>
   </properties>
  </tile>
  <tile id="619">
   <properties>
    <property name="Type" value="Grass"/>
   </properties>
  </tile>
  <tile id="620">
   <properties>
    <property name="Type" value="Dirt"/>
   </properties>
  </tile>
  <tile id="621">
   <properties>
    <property name="Type" value="Dirt"/>
   </properties>
  </tile>
  <tile id="622">
   <properties>
    <property name="Type" value="Dirt"/>
   </properties>
  </tile>
  <tile id="623">
   <properties>
    <property name="Type" value="Stone"/>
   </properties>
  </tile>
  <tile id="628">
   <properties>
    <property name="Water" value="T"/>
   </properties>
  </tile>
  <tile id="629">
   <properties>
    <property name="Water" value="T"/>
   </properties>
  </tile>
  <tile id="630">
   <properties>
    <property name="Diggable" value="T"/>
    <property name="Type" value="Dirt"/>
   </properties>
  </tile>
  <tile id="631">
   <properties>
    <property name="Type" value="Dirt"/>
   </properties>
  </tile>
  <tile id="632">
   <properties>
    <property name="Diggable" value="T"/>
    <property name="Type" value="Dirt"/>
   </properties>
  </tile>
  <tile id="633">
   <properties>
    <property name="Type" value="Grass"/>
   </properties>
  </tile>
  <tile id="634">
   <properties>
    <property name="Spawnable" value="T"/>
    <property name="Type" value="Grass"/>
   </properties>
  </tile>
  <tile id="635">
   <properties>
    <property name="Type" value="Dirt"/>
   </properties>
  </tile>
  <tile id="636">
   <properties>
    <property name="Type" value="Dirt"/>
   </properties>
  </tile>
  <tile id="653">
   <properties>
    <property name="Water" value="T"/>
   </properties>
  </tile>
  <tile id="654">
   <properties>
    <property name="Type" value="Grass"/>
   </properties>
  </tile>
  <tile id="655">
   <properties>
    <property name="Type" value="Dirt"/>
   </properties>
  </tile>
  <tile id="656">
   <properties>
    <property name="Type" value="Dirt"/>
   </properties>
  </tile>
  <tile id="657">
   <properties>
    <property name="Type" value="Grass"/>
   </properties>
  </tile>
  <tile id="658">
   <properties>
    <property name="Type" value="Grass"/>
   </properties>
  </tile>
  <tile id="659">
   <properties>
    <property name="Type" value="Grass"/>
   </properties>
  </tile>
  <tile id="679">
   <properties>
    <property name="Type" value="Dirt"/>
   </properties>
  </tile>
  <tile id="680">
   <properties>
    <property name="Diggable" value="T"/>
    <property name="Type" value="Dirt"/>
   </properties>
  </tile>
  <tile id="681">
   <properties>
    <property name="Diggable" value="T"/>
    <property name="Type" value="Dirt"/>
   </properties>
  </tile>
  <tile id="682">
   <properties>
    <property name="Type" value="Dirt"/>
   </properties>
  </tile>
  <tile id="683">
   <properties>
    <property name="Type" value="Grass"/>
   </properties>
  </tile>
  <tile id="684">
   <properties>
    <property name="Type" value="Grass"/>
   </properties>
  </tile>
  <tile id="685">
   <properties>
    <property name="Diggable" value="T"/>
    <property name="Type" value="Dirt"/>
   </properties>
  </tile>
  <tile id="704">
   <properties>
    <property name="Type" value="Grass"/>
   </properties>
  </tile>
  <tile id="705">
   <properties>
    <property name="Type" value="Dirt"/>
   </properties>
  </tile>
  <tile id="706">
   <properties>
    <property name="Diggable" value="T"/>
    <property name="Type" value="Dirt"/>
   </properties>
  </tile>
  <tile id="707">
   <properties>
    <property name="Type" value="Grass"/>
   </properties>
  </tile>
  <tile id="709">
   <animation>
    <frame tileid="709" duration="1000"/>
    <frame tileid="1235" duration="1000"/>
   </animation>
  </tile>
  <tile id="734">
   <properties>
    <property name="Water" value="T"/>
   </properties>
  </tile>
  <tile id="759">
   <properties>
    <property name="Water" value="T"/>
   </properties>
  </tile>
  <tile id="779">
   <properties>
    <property name="Passable" value="T"/>
    <property name="Type" value="Wood"/>
   </properties>
  </tile>
  <tile id="780">
   <properties>
    <property name="Passable" value="T"/>
    <property name="Type" value="Wood"/>
   </properties>
  </tile>
  <tile id="781">
   <properties>
    <property name="Passable" value="T"/>
    <property name="Type" value="Wood"/>
   </properties>
  </tile>
  <tile id="782">
   <properties>
    <property name="Passable" value="T"/>
    <property name="Type" value="Wood"/>
   </properties>
  </tile>
  <tile id="809">
   <properties>
    <property name="Passable" value="T"/>
    <property name="Type" value="Wood"/>
   </properties>
  </tile>
  <tile id="812">
   <properties>
    <property name="Type" value="Stone"/>
   </properties>
  </tile>
  <tile id="813">
   <properties>
    <property name="Type" value="Stone"/>
   </properties>
  </tile>
  <tile id="834">
   <properties>
    <property name="Passable" value="T"/>
    <property name="Type" value="Wood"/>
   </properties>
  </tile>
  <tile id="859">
   <properties>
    <property name="Passable" value="T"/>
    <property name="Type" value="Wood"/>
   </properties>
  </tile>
  <tile id="860">
   <properties>
    <property name="Passable" value="T"/>
    <property name="Type" value="Wood"/>
   </properties>
  </tile>
  <tile id="884">
   <properties>
    <property name="Passable" value="T"/>
    <property name="Type" value="Wood"/>
   </properties>
  </tile>
  <tile id="885">
   <properties>
    <property name="Passable" value="T"/>
    <property name="Type" value="Wood"/>
   </properties>
  </tile>
  <tile id="910">
   <properties>
    <property name="Passable" value="T"/>
    <property name="Type" value="Wood"/>
   </properties>
  </tile>
  <tile id="947">
   <properties>
    <property name="Type" value="Stone"/>
   </properties>
  </tile>
  <tile id="948">
   <properties>
    <property name="Type" value="Stone"/>
   </properties>
  </tile>
  <tile id="949">
   <properties>
    <property name="Type" value="Stone"/>
   </properties>
  </tile>
  <tile id="972">
   <properties>
    <property name="Type" value="Stone"/>
   </properties>
  </tile>
  <tile id="973">
   <properties>
    <property name="Type" value="Stone"/>
   </properties>
  </tile>
  <tile id="974">
   <properties>
    <property name="Type" value="Stone"/>
   </properties>
  </tile>
  <tile id="998">
   <properties>
    <property name="Type" value="Stone"/>
   </properties>
  </tile>
  <tile id="999">
   <properties>
    <property name="Type" value="Stone"/>
   </properties>
  </tile>
  <tile id="1186">
   <properties>
    <property name="Water" value="T"/>
   </properties>
  </tile>
  <tile id="1187">
   <properties>
    <property name="Water" value="T"/>
   </properties>
  </tile>
  <tile id="1188">
   <properties>
    <property name="Water" value="T"/>
   </properties>
  </tile>
  <tile id="1211">
   <properties>
    <property name="Water" value="T"/>
   </properties>
  </tile>
  <tile id="1212">
   <properties>
    <property name="Water" value="T"/>
   </properties>
  </tile>
  <tile id="1213">
   <properties>
    <property name="Water" value="T"/>
   </properties>
  </tile>
  <tile id="1225">
   <animation>
    <frame tileid="1225" duration="100"/>
    <frame tileid="1226" duration="100"/>
    <frame tileid="1250" duration="100"/>
    <frame tileid="1251" duration="100"/>
    <frame tileid="1275" duration="100"/>
    <frame tileid="1276" duration="100"/>
   </animation>
  </tile>
  <tile id="1227">
   <properties>
    <property name="Water" value="T"/>
   </properties>
  </tile>
  <tile id="1228">
   <properties>
    <property name="Water" value="T"/>
   </properties>
  </tile>
  <tile id="1229">
   <properties>
    <property name="Water" value="T"/>
   </properties>
  </tile>
  <tile id="1230">
   <properties>
    <property name="Water" value="T"/>
   </properties>
  </tile>
  <tile id="1231">
   <properties>
    <property name="Water" value="T"/>
   </properties>
  </tile>
  <tile id="1237">
   <properties>
    <property name="Water" value="T"/>
   </properties>
  </tile>
  <tile id="1238">
   <properties>
    <property name="Water" value="T"/>
   </properties>
  </tile>
  <tile id="1239">
   <properties>
    <property name="Water" value="T"/>
   </properties>
  </tile>
  <tile id="1240">
   <properties>
    <property name="Water" value="T"/>
   </properties>
  </tile>
  <tile id="1241">
   <properties>
    <property name="Water" value="T"/>
   </properties>
  </tile>
  <tile id="1242">
   <properties>
    <property name="Water" value="T"/>
   </properties>
  </tile>
  <tile id="1243">
   <properties>
    <property name="Water" value="T"/>
   </properties>
  </tile>
  <tile id="1244">
   <properties>
    <property name="Water" value="T"/>
   </properties>
  </tile>
  <tile id="1245">
   <properties>
    <property name="Water" value="T"/>
   </properties>
  </tile>
  <tile id="1246">
   <properties>
    <property name="Passable" value="F"/>
    <property name="Water" value="T"/>
   </properties>
  </tile>
  <tile id="1247">
   <properties>
    <property name="Water" value="T"/>
   </properties>
  </tile>
  <tile id="1248">
   <properties>
    <property name="Passable" value="F"/>
    <property name="Water" value="T"/>
   </properties>
  </tile>
  <tile id="1249">
   <properties>
    <property name="Passable" value="F"/>
    <property name="Water" value="T"/>
   </properties>
  </tile>
  <tile id="1252">
   <properties>
    <property name="Water" value="T"/>
   </properties>
  </tile>
  <tile id="1253">
   <properties>
    <property name="Water" value="T"/>
   </properties>
  </tile>
  <tile id="1254">
   <properties>
    <property name="Water" value="T"/>
   </properties>
  </tile>
  <tile id="1255">
   <properties>
    <property name="Water" value="T"/>
   </properties>
  </tile>
  <tile id="1256">
   <properties>
    <property name="Water" value="T"/>
   </properties>
  </tile>
  <tile id="1263">
   <properties>
    <property name="Water" value="T"/>
   </properties>
  </tile>
  <tile id="1264">
   <properties>
    <property name="Water" value="T"/>
   </properties>
  </tile>
  <tile id="1265">
   <properties>
    <property name="Water" value="T"/>
   </properties>
  </tile>
  <tile id="1266">
   <properties>
    <property name="Passable" value="F"/>
    <property name="Water" value="T"/>
   </properties>
  </tile>
  <tile id="1267">
   <properties>
    <property name="Passable" value="F"/>
    <property name="Water" value="T"/>
   </properties>
  </tile>
  <tile id="1268">
   <properties>
    <property name="Water" value="T"/>
   </properties>
  </tile>
  <tile id="1269">
   <properties>
    <property name="Water" value="T"/>
   </properties>
  </tile>
  <tile id="1270">
   <properties>
    <property name="Water" value="T"/>
   </properties>
  </tile>
  <tile id="1271">
   <properties>
    <property name="Passable" value="F"/>
    <property name="Water" value="T"/>
   </properties>
  </tile>
  <tile id="1272">
   <properties>
    <property name="Water" value="T"/>
   </properties>
  </tile>
  <tile id="1273">
   <properties>
    <property name="Water" value="T"/>
   </properties>
  </tile>
  <tile id="1274">
   <properties>
    <property name="Water" value="T"/>
   </properties>
  </tile>
  <tile id="1277">
   <properties>
    <property name="Water" value="T"/>
   </properties>
  </tile>
  <tile id="1278">
   <properties>
    <property name="Water" value="T"/>
   </properties>
  </tile>
  <tile id="1279">
   <properties>
    <property name="Water" value="T"/>
   </properties>
  </tile>
  <tile id="1280">
   <properties>
    <property name="Water" value="T"/>
   </properties>
  </tile>
  <tile id="1281">
   <properties>
    <property name="Water" value="T"/>
   </properties>
  </tile>
  <tile id="1293">
   <animation>
    <frame tileid="1293" duration="500"/>
    <frame tileid="1294" duration="500"/>
    <frame tileid="1295" duration="500"/>
    <frame tileid="1296" duration="500"/>
   </animation>
  </tile>
  <tile id="1297">
   <properties>
    <property name="Water" value="T"/>
   </properties>
  </tile>
  <tile id="1298">
   <properties>
    <property name="Water" value="T"/>
   </properties>
  </tile>
  <tile id="1299">
   <properties>
    <property name="Passable" value="F"/>
    <property name="Water" value="T"/>
   </properties>
  </tile>
  <tile id="1302">
   <properties>
    <property name="Water" value="T"/>
   </properties>
  </tile>
  <tile id="1303">
   <properties>
    <property name="Water" value="T"/>
   </properties>
  </tile>
  <tile id="1304">
   <properties>
    <property name="Water" value="T"/>
   </properties>
  </tile>
  <tile id="1305">
   <properties>
    <property name="Water" value="T"/>
   </properties>
  </tile>
  <tile id="1306">
   <properties>
    <property name="Water" value="T"/>
   </properties>
  </tile>
  <tile id="1318">
   <animation>
    <frame tileid="1318" duration="450"/>
    <frame tileid="1319" duration="450"/>
    <frame tileid="1320" duration="450"/>
    <frame tileid="1321" duration="450"/>
   </animation>
  </tile>
  <tile id="1322">
   <properties>
    <property name="Water" value="T"/>
   </properties>
  </tile>
  <tile id="1323">
   <properties>
    <property name="Water" value="T"/>
   </properties>
  </tile>
  <tile id="1324">
   <properties>
    <property name="Water" value="T"/>
   </properties>
  </tile>
  <tile id="1345">
   <properties>
    <property name="Passable" value="T"/>
   </properties>
  </tile>
  <tile id="1370">
   <animation>
    <frame tileid="1370" duration="100"/>
    <frame tileid="1370" duration="100"/>
    <frame tileid="1370" duration="100"/>
    <frame tileid="1370" duration="100"/>
    <frame tileid="1370" duration="100"/>
    <frame tileid="1370" duration="100"/>
    <frame tileid="1370" duration="100"/>
    <frame tileid="1370" duration="100"/>
    <frame tileid="1370" duration="100"/>
    <frame tileid="1370" duration="100"/>
    <frame tileid="1370" duration="100"/>
    <frame tileid="1370" duration="100"/>
    <frame tileid="1370" duration="100"/>
    <frame tileid="1370" duration="100"/>
    <frame tileid="1370" duration="100"/>
    <frame tileid="1370" duration="100"/>
    <frame tileid="1371" duration="100"/>
    <frame tileid="1372" duration="100"/>
    <frame tileid="1373" duration="100"/>
    <frame tileid="1374" duration="100"/>
    <frame tileid="1424" duration="100"/>
   </animation>
  </tile>
  <tile id="1474">
   <animation>
    <frame tileid="1474" duration="100"/>
    <frame tileid="1395" duration="100"/>
    <frame tileid="1395" duration="100"/>
    <frame tileid="1395" duration="100"/>
    <frame tileid="1395" duration="100"/>
    <frame tileid="1395" duration="100"/>
    <frame tileid="1395" duration="100"/>
    <frame tileid="1395" duration="100"/>
    <frame tileid="1395" duration="100"/>
    <frame tileid="1395" duration="100"/>
    <frame tileid="1395" duration="100"/>
    <frame tileid="1395" duration="100"/>
    <frame tileid="1395" duration="100"/>
    <frame tileid="1395" duration="100"/>
    <frame tileid="1395" duration="100"/>
    <frame tileid="1395" duration="100"/>
    <frame tileid="1395" duration="100"/>
    <frame tileid="1395" duration="100"/>
    <frame tileid="1395" duration="100"/>
    <frame tileid="1399" duration="100"/>
    <frame tileid="1449" duration="100"/>
   </animation>
  </tile>
  <tile id="1637">
   <properties>
    <property name="Type" value="Wood"/>
   </properties>
  </tile>
  <tile id="1638">
   <properties>
    <property name="Type" value="Wood"/>
   </properties>
  </tile>
  <tile id="1639">
   <properties>
    <property name="Type" value="Wood"/>
   </properties>
  </tile>
  <tile id="1662">
   <properties>
    <property name="Type" value="Wood"/>
   </properties>
  </tile>
  <tile id="1663">
   <properties>
    <property name="Type" value="Wood"/>
   </properties>
  </tile>
  <tile id="1664">
   <properties>
    <property name="Type" value="Wood"/>
   </properties>
  </tile>
  <tile id="1716">
   <properties>
    <property name="Water" value="T"/>
   </properties>
  </tile>
  <tile id="1717">
   <properties>
    <property name="Water" value="T"/>
   </properties>
  </tile>
  <tile id="1718">
   <properties>
    <property name="Water" value="T"/>
   </properties>
  </tile>
  <tile id="1719">
   <animation>
    <frame tileid="1719" duration="950"/>
    <frame tileid="1720" duration="950"/>
   </animation>
  </tile>
  <tile id="1964">
   <properties>
    <property name="Type" value="Stone"/>
   </properties>
  </tile>
  <tile id="1965">
   <properties>
    <property name="Type" value="Stone"/>
   </properties>
  </tile>
  <tile id="1966">
   <properties>
    <property name="Type" value="Stone"/>
   </properties>
  </tile>
 </tileset>
 <tileset firstgid="1976" name="Paths" tilewidth="16" tileheight="16" tilecount="64" columns="4">
  <image source="paths" width="64" height="256"/>
  <tile id="35">
   <properties>
    <property name="GreenRain" value="asdf"/>
   </properties>
  </tile>
 </tileset>
 <tileset firstgid="2040" name="untitled tile sheet2" tilewidth="16" tileheight="16" tilecount="1120" columns="16">
  <image source="spring_outdoorsTileSheet2" width="256" height="1120"/>
  <tile id="536">
   <animation>
    <frame tileid="536" duration="1000"/>
    <frame tileid="540" duration="1000"/>
   </animation>
  </tile>
  <tile id="537">
   <animation>
    <frame tileid="537" duration="1000"/>
    <frame tileid="541" duration="1000"/>
   </animation>
  </tile>
  <tile id="538">
   <animation>
    <frame tileid="538" duration="1000"/>
    <frame tileid="542" duration="1000"/>
   </animation>
  </tile>
  <tile id="552">
   <animation>
    <frame tileid="552" duration="1000"/>
    <frame tileid="556" duration="1000"/>
   </animation>
  </tile>
  <tile id="554">
   <animation>
    <frame tileid="554" duration="1000"/>
    <frame tileid="558" duration="1000"/>
   </animation>
  </tile>
  <tile id="568">
   <animation>
    <frame tileid="568" duration="1000"/>
    <frame tileid="572" duration="1000"/>
   </animation>
  </tile>
  <tile id="570">
   <animation>
    <frame tileid="570" duration="1000"/>
    <frame tileid="574" duration="1000"/>
   </animation>
  </tile>
  <tile id="584">
   <animation>
    <frame tileid="584" duration="1000"/>
    <frame tileid="588" duration="1000"/>
   </animation>
  </tile>
  <tile id="600">
   <animation>
    <frame tileid="600" duration="1000"/>
    <frame tileid="604" duration="1000"/>
   </animation>
  </tile>
  <tile id="602">
   <animation>
    <frame tileid="602" duration="1000"/>
    <frame tileid="606" duration="1000"/>
   </animation>
  </tile>
  <tile id="616">
   <animation>
    <frame tileid="616" duration="1000"/>
    <frame tileid="620" duration="1000"/>
   </animation>
  </tile>
  <tile id="617">
   <animation>
    <frame tileid="617" duration="1000"/>
    <frame tileid="621" duration="1000"/>
   </animation>
  </tile>
  <tile id="618">
   <animation>
    <frame tileid="618" duration="1000"/>
    <frame tileid="622" duration="1000"/>
   </animation>
  </tile>
  <tile id="632">
   <animation>
    <frame tileid="632" duration="1000"/>
    <frame tileid="636" duration="1000"/>
   </animation>
  </tile>
  <tile id="633">
   <animation>
    <frame tileid="633" duration="1000"/>
    <frame tileid="637" duration="1000"/>
   </animation>
  </tile>
  <tile id="665">
   <animation>
    <frame tileid="665" duration="1000"/>
    <frame tileid="669" duration="1000"/>
   </animation>
  </tile>
  <tile id="740">
   <properties>
    <property name="Type" value="Grass"/>
   </properties>
  </tile>
  <tile id="741">
   <properties>
    <property name="Type" value="Grass"/>
   </properties>
  </tile>
  <tile id="752">
   <properties>
    <property name="Type" value="Wood"/>
   </properties>
  </tile>
  <tile id="753">
   <properties>
    <property name="Type" value="Wood"/>
   </properties>
  </tile>
  <tile id="754">
   <properties>
    <property name="Type" value="Wood"/>
   </properties>
  </tile>
  <tile id="755">
   <properties>
    <property name="Type" value="Wood"/>
   </properties>
  </tile>
  <tile id="756">
   <properties>
    <property name="Type" value="Grass"/>
   </properties>
  </tile>
  <tile id="757">
   <properties>
    <property name="Type" value="Grass"/>
   </properties>
  </tile>
  <tile id="772">
   <properties>
    <property name="Type" value="Grass"/>
   </properties>
  </tile>
  <tile id="773">
   <properties>
    <property name="Type" value="Grass"/>
   </properties>
  </tile>
  <tile id="816">
   <properties>
    <property name="Water" value="T"/>
   </properties>
  </tile>
  <tile id="817">
   <properties>
    <property name="Water" value="T"/>
   </properties>
  </tile>
  <tile id="820">
   <properties>
    <property name="Water" value="T"/>
   </properties>
  </tile>
  <tile id="821">
   <properties>
    <property name="Water" value="T"/>
   </properties>
  </tile>
  <tile id="822">
   <properties>
    <property name="Water" value="T"/>
   </properties>
  </tile>
  <tile id="832">
   <properties>
    <property name="Water" value="T"/>
   </properties>
  </tile>
  <tile id="833">
   <properties>
    <property name="Water" value="T"/>
   </properties>
  </tile>
  <tile id="834">
   <properties>
    <property name="Water" value="T"/>
   </properties>
  </tile>
  <tile id="835">
   <properties>
    <property name="Water" value="T"/>
   </properties>
  </tile>
  <tile id="836">
   <properties>
    <property name="Water" value="T"/>
   </properties>
  </tile>
  <tile id="837">
   <properties>
    <property name="Water" value="T"/>
   </properties>
  </tile>
  <tile id="838">
   <properties>
    <property name="Water" value="T"/>
   </properties>
  </tile>
  <tile id="848">
   <properties>
    <property name="Water" value="T"/>
   </properties>
  </tile>
  <tile id="849">
   <properties>
    <property name="Water" value="T"/>
   </properties>
  </tile>
  <tile id="850">
   <properties>
    <property name="Water" value="T"/>
   </properties>
  </tile>
  <tile id="851">
   <properties>
    <property name="Water" value="T"/>
   </properties>
  </tile>
  <tile id="852">
   <properties>
    <property name="Water" value="T"/>
   </properties>
  </tile>
  <tile id="853">
   <properties>
    <property name="Water" value="T"/>
   </properties>
  </tile>
  <tile id="854">
   <properties>
    <property name="Water" value="T"/>
   </properties>
  </tile>
  <tile id="864">
   <properties>
    <property name="Water" value="T"/>
   </properties>
  </tile>
  <tile id="865">
   <properties>
    <property name="Water" value="T"/>
   </properties>
  </tile>
  <tile id="866">
   <properties>
    <property name="Water" value="T"/>
   </properties>
  </tile>
  <tile id="867">
   <properties>
    <property name="Water" value="T"/>
   </properties>
  </tile>
  <tile id="868">
   <properties>
    <property name="Water" value="T"/>
   </properties>
  </tile>
  <tile id="869">
   <properties>
    <property name="Water" value="T"/>
   </properties>
  </tile>
  <tile id="870">
   <properties>
    <property name="Water" value="T"/>
   </properties>
  </tile>
  <tile id="880">
   <properties>
    <property name="Water" value="T"/>
   </properties>
  </tile>
  <tile id="881">
   <properties>
    <property name="Water" value="T"/>
   </properties>
  </tile>
  <tile id="882">
   <properties>
    <property name="Water" value="T"/>
   </properties>
  </tile>
  <tile id="883">
   <properties>
    <property name="Water" value="T"/>
   </properties>
  </tile>
  <tile id="897">
   <animation>
    <frame tileid="897" duration="1000"/>
    <frame tileid="929" duration="1000"/>
   </animation>
  </tile>
  <tile id="912">
   <animation>
    <frame tileid="912" duration="1000"/>
    <frame tileid="944" duration="1000"/>
   </animation>
  </tile>
  <tile id="913">
   <animation>
    <frame tileid="913" duration="1000"/>
    <frame tileid="945" duration="1000"/>
   </animation>
  </tile>
  <tile id="914">
   <animation>
    <frame tileid="914" duration="1000"/>
    <frame tileid="915" duration="1000"/>
   </animation>
  </tile>
  <tile id="930">
   <animation>
    <frame tileid="930" duration="1000"/>
    <frame tileid="931" duration="1000"/>
   </animation>
  </tile>
  <tile id="960">
   <animation>
    <frame tileid="960" duration="1000"/>
    <frame tileid="992" duration="1000"/>
   </animation>
  </tile>
  <tile id="962">
   <animation>
    <frame tileid="962" duration="1000"/>
    <frame tileid="963" duration="1000"/>
   </animation>
  </tile>
  <tile id="968">
   <animation>
    <frame tileid="968" duration="1000"/>
    <frame tileid="1000" duration="1000"/>
   </animation>
  </tile>
  <tile id="976">
   <animation>
    <frame tileid="976" duration="1000"/>
    <frame tileid="1008" duration="1000"/>
   </animation>
  </tile>
  <tile id="977">
   <animation>
    <frame tileid="977" duration="1000"/>
    <frame tileid="1009" duration="1000"/>
   </animation>
  </tile>
  <tile id="978">
   <animation>
    <frame tileid="978" duration="1000"/>
    <frame tileid="979" duration="1000"/>
   </animation>
  </tile>
  <tile id="984">
   <animation>
    <frame tileid="984" duration="1000"/>
    <frame tileid="1016" duration="1000"/>
   </animation>
  </tile>
  <tile id="986">
   <animation>
    <frame tileid="986" duration="1000"/>
    <frame tileid="987" duration="1000"/>
   </animation>
  </tile>
  <tile id="1056">
   <animation>
    <frame tileid="1056" duration="1000"/>
    <frame tileid="1057" duration="1000"/>
   </animation>
  </tile>
  <tile id="1067">
   <animation>
    <frame tileid="1067" duration="1000"/>
    <frame tileid="1066" duration="1000"/>
   </animation>
  </tile>
 </tileset>
 <tileset firstgid="3160" name="v16_Shadows" tilewidth="16" tileheight="16" tilecount="475" columns="19">
  <image source="spring_Shadows" width="304" height="400"/>
 </tileset>
 <tileset firstgid="3635" name="v16_Waterfalls" tilewidth="16" tileheight="16" tilecount="900" columns="36">
  <image source="spring_Waterfalls" width="576" height="400"/>
  <tile id="145">
   <animation>
    <frame tileid="145" duration="100"/>
    <frame tileid="151" duration="100"/>
    <frame tileid="157" duration="100"/>
    <frame tileid="163" duration="100"/>
    <frame tileid="169" duration="100"/>
    <frame tileid="175" duration="100"/>
    <frame tileid="397" duration="100"/>
    <frame tileid="403" duration="100"/>
    <frame tileid="409" duration="100"/>
    <frame tileid="415" duration="100"/>
    <frame tileid="421" duration="100"/>
    <frame tileid="427" duration="100"/>
    <frame tileid="649" duration="100"/>
    <frame tileid="655" duration="100"/>
    <frame tileid="661" duration="100"/>
    <frame tileid="667" duration="100"/>
    <frame tileid="673" duration="100"/>
   </animation>
  </tile>
  <tile id="146">
   <animation>
    <frame tileid="146" duration="100"/>
    <frame tileid="152" duration="100"/>
    <frame tileid="158" duration="100"/>
    <frame tileid="164" duration="100"/>
    <frame tileid="170" duration="100"/>
    <frame tileid="176" duration="100"/>
    <frame tileid="398" duration="100"/>
    <frame tileid="404" duration="100"/>
    <frame tileid="410" duration="100"/>
    <frame tileid="416" duration="100"/>
    <frame tileid="422" duration="100"/>
    <frame tileid="428" duration="100"/>
    <frame tileid="650" duration="100"/>
    <frame tileid="656" duration="100"/>
    <frame tileid="662" duration="100"/>
    <frame tileid="668" duration="100"/>
    <frame tileid="674" duration="100"/>
   </animation>
  </tile>
  <tile id="147">
   <animation>
    <frame tileid="147" duration="100"/>
    <frame tileid="153" duration="100"/>
    <frame tileid="159" duration="100"/>
    <frame tileid="165" duration="100"/>
    <frame tileid="171" duration="100"/>
    <frame tileid="177" duration="100"/>
    <frame tileid="399" duration="100"/>
    <frame tileid="405" duration="100"/>
    <frame tileid="411" duration="100"/>
    <frame tileid="417" duration="100"/>
    <frame tileid="423" duration="100"/>
    <frame tileid="429" duration="100"/>
    <frame tileid="651" duration="100"/>
    <frame tileid="657" duration="100"/>
    <frame tileid="663" duration="100"/>
    <frame tileid="669" duration="100"/>
    <frame tileid="675" duration="100"/>
   </animation>
  </tile>
  <tile id="148">
   <animation>
    <frame tileid="148" duration="100"/>
    <frame tileid="154" duration="100"/>
    <frame tileid="160" duration="100"/>
    <frame tileid="166" duration="100"/>
    <frame tileid="172" duration="100"/>
    <frame tileid="178" duration="100"/>
    <frame tileid="400" duration="100"/>
    <frame tileid="406" duration="100"/>
    <frame tileid="412" duration="100"/>
    <frame tileid="418" duration="100"/>
    <frame tileid="424" duration="100"/>
    <frame tileid="430" duration="100"/>
    <frame tileid="652" duration="100"/>
    <frame tileid="658" duration="100"/>
    <frame tileid="664" duration="100"/>
    <frame tileid="670" duration="100"/>
    <frame tileid="676" duration="100"/>
   </animation>
  </tile>
  <tile id="181">
   <animation>
    <frame tileid="181" duration="100"/>
    <frame tileid="187" duration="100"/>
    <frame tileid="193" duration="100"/>
    <frame tileid="199" duration="100"/>
    <frame tileid="205" duration="100"/>
    <frame tileid="211" duration="100"/>
    <frame tileid="433" duration="100"/>
    <frame tileid="439" duration="100"/>
    <frame tileid="445" duration="100"/>
    <frame tileid="451" duration="100"/>
    <frame tileid="457" duration="100"/>
    <frame tileid="463" duration="100"/>
    <frame tileid="685" duration="100"/>
    <frame tileid="691" duration="100"/>
    <frame tileid="697" duration="100"/>
    <frame tileid="703" duration="100"/>
    <frame tileid="709" duration="100"/>
   </animation>
  </tile>
  <tile id="182">
   <animation>
    <frame tileid="182" duration="100"/>
    <frame tileid="188" duration="100"/>
    <frame tileid="194" duration="100"/>
    <frame tileid="200" duration="100"/>
    <frame tileid="206" duration="100"/>
    <frame tileid="212" duration="100"/>
    <frame tileid="434" duration="100"/>
    <frame tileid="440" duration="100"/>
    <frame tileid="446" duration="100"/>
    <frame tileid="452" duration="100"/>
    <frame tileid="458" duration="100"/>
    <frame tileid="464" duration="100"/>
    <frame tileid="686" duration="100"/>
    <frame tileid="692" duration="100"/>
    <frame tileid="698" duration="100"/>
    <frame tileid="704" duration="100"/>
    <frame tileid="710" duration="100"/>
   </animation>
  </tile>
  <tile id="183">
   <animation>
    <frame tileid="183" duration="100"/>
    <frame tileid="189" duration="100"/>
    <frame tileid="195" duration="100"/>
    <frame tileid="201" duration="100"/>
    <frame tileid="207" duration="100"/>
    <frame tileid="213" duration="100"/>
    <frame tileid="435" duration="100"/>
    <frame tileid="441" duration="100"/>
    <frame tileid="447" duration="100"/>
    <frame tileid="453" duration="100"/>
    <frame tileid="459" duration="100"/>
    <frame tileid="465" duration="100"/>
    <frame tileid="687" duration="100"/>
    <frame tileid="693" duration="100"/>
    <frame tileid="699" duration="100"/>
    <frame tileid="705" duration="100"/>
    <frame tileid="711" duration="100"/>
   </animation>
  </tile>
  <tile id="184">
   <animation>
    <frame tileid="184" duration="100"/>
    <frame tileid="190" duration="100"/>
    <frame tileid="196" duration="100"/>
    <frame tileid="202" duration="100"/>
    <frame tileid="208" duration="100"/>
    <frame tileid="214" duration="100"/>
    <frame tileid="436" duration="100"/>
    <frame tileid="442" duration="100"/>
    <frame tileid="448" duration="100"/>
    <frame tileid="454" duration="100"/>
    <frame tileid="460" duration="100"/>
    <frame tileid="466" duration="100"/>
    <frame tileid="688" duration="100"/>
    <frame tileid="694" duration="100"/>
    <frame tileid="700" duration="100"/>
    <frame tileid="706" duration="100"/>
    <frame tileid="712" duration="100"/>
   </animation>
  </tile>
  <tile id="217">
   <animation>
    <frame tileid="217" duration="100"/>
    <frame tileid="223" duration="100"/>
    <frame tileid="229" duration="100"/>
    <frame tileid="235" duration="100"/>
    <frame tileid="241" duration="100"/>
    <frame tileid="247" duration="100"/>
    <frame tileid="469" duration="100"/>
    <frame tileid="475" duration="100"/>
    <frame tileid="481" duration="100"/>
    <frame tileid="487" duration="100"/>
    <frame tileid="493" duration="100"/>
    <frame tileid="499" duration="100"/>
    <frame tileid="721" duration="100"/>
    <frame tileid="727" duration="100"/>
    <frame tileid="733" duration="100"/>
    <frame tileid="739" duration="100"/>
    <frame tileid="745" duration="100"/>
   </animation>
  </tile>
  <tile id="218">
   <animation>
    <frame tileid="218" duration="100"/>
    <frame tileid="224" duration="100"/>
    <frame tileid="230" duration="100"/>
    <frame tileid="236" duration="100"/>
    <frame tileid="242" duration="100"/>
    <frame tileid="248" duration="100"/>
    <frame tileid="470" duration="100"/>
    <frame tileid="476" duration="100"/>
    <frame tileid="482" duration="100"/>
    <frame tileid="488" duration="100"/>
    <frame tileid="494" duration="100"/>
    <frame tileid="500" duration="100"/>
    <frame tileid="722" duration="100"/>
    <frame tileid="728" duration="100"/>
    <frame tileid="734" duration="100"/>
    <frame tileid="740" duration="100"/>
    <frame tileid="746" duration="100"/>
   </animation>
  </tile>
  <tile id="219">
   <animation>
    <frame tileid="219" duration="100"/>
    <frame tileid="225" duration="100"/>
    <frame tileid="231" duration="100"/>
    <frame tileid="237" duration="100"/>
    <frame tileid="243" duration="100"/>
    <frame tileid="249" duration="100"/>
    <frame tileid="471" duration="100"/>
    <frame tileid="477" duration="100"/>
    <frame tileid="483" duration="100"/>
    <frame tileid="489" duration="100"/>
    <frame tileid="495" duration="100"/>
    <frame tileid="501" duration="100"/>
    <frame tileid="723" duration="100"/>
    <frame tileid="729" duration="100"/>
    <frame tileid="735" duration="100"/>
    <frame tileid="741" duration="100"/>
    <frame tileid="747" duration="100"/>
   </animation>
  </tile>
  <tile id="220">
   <animation>
    <frame tileid="220" duration="100"/>
    <frame tileid="226" duration="100"/>
    <frame tileid="232" duration="100"/>
    <frame tileid="238" duration="100"/>
    <frame tileid="244" duration="100"/>
    <frame tileid="250" duration="100"/>
    <frame tileid="472" duration="100"/>
    <frame tileid="478" duration="100"/>
    <frame tileid="484" duration="100"/>
    <frame tileid="490" duration="100"/>
    <frame tileid="496" duration="100"/>
    <frame tileid="502" duration="100"/>
    <frame tileid="724" duration="100"/>
    <frame tileid="730" duration="100"/>
    <frame tileid="736" duration="100"/>
    <frame tileid="742" duration="100"/>
    <frame tileid="748" duration="100"/>
   </animation>
  </tile>
  <tile id="253">
   <animation>
    <frame tileid="253" duration="100"/>
    <frame tileid="259" duration="100"/>
    <frame tileid="265" duration="100"/>
    <frame tileid="271" duration="100"/>
    <frame tileid="277" duration="100"/>
    <frame tileid="283" duration="100"/>
    <frame tileid="505" duration="100"/>
    <frame tileid="511" duration="100"/>
    <frame tileid="517" duration="100"/>
    <frame tileid="523" duration="100"/>
    <frame tileid="529" duration="100"/>
    <frame tileid="535" duration="100"/>
    <frame tileid="757" duration="100"/>
    <frame tileid="763" duration="100"/>
    <frame tileid="769" duration="100"/>
    <frame tileid="775" duration="100"/>
    <frame tileid="781" duration="100"/>
   </animation>
  </tile>
  <tile id="254">
   <animation>
    <frame tileid="254" duration="100"/>
    <frame tileid="260" duration="100"/>
    <frame tileid="266" duration="100"/>
    <frame tileid="272" duration="100"/>
    <frame tileid="278" duration="100"/>
    <frame tileid="284" duration="100"/>
    <frame tileid="506" duration="100"/>
    <frame tileid="512" duration="100"/>
    <frame tileid="518" duration="100"/>
    <frame tileid="524" duration="100"/>
    <frame tileid="530" duration="100"/>
    <frame tileid="536" duration="100"/>
    <frame tileid="758" duration="100"/>
    <frame tileid="764" duration="100"/>
    <frame tileid="770" duration="100"/>
    <frame tileid="776" duration="100"/>
    <frame tileid="782" duration="100"/>
   </animation>
  </tile>
  <tile id="255">
   <animation>
    <frame tileid="255" duration="100"/>
    <frame tileid="261" duration="100"/>
    <frame tileid="267" duration="100"/>
    <frame tileid="273" duration="100"/>
    <frame tileid="279" duration="100"/>
    <frame tileid="285" duration="100"/>
    <frame tileid="507" duration="100"/>
    <frame tileid="513" duration="100"/>
    <frame tileid="519" duration="100"/>
    <frame tileid="525" duration="100"/>
    <frame tileid="531" duration="100"/>
    <frame tileid="537" duration="100"/>
    <frame tileid="759" duration="100"/>
    <frame tileid="765" duration="100"/>
    <frame tileid="771" duration="100"/>
    <frame tileid="777" duration="100"/>
    <frame tileid="783" duration="100"/>
   </animation>
  </tile>
  <tile id="256">
   <animation>
    <frame tileid="256" duration="100"/>
    <frame tileid="262" duration="100"/>
    <frame tileid="268" duration="100"/>
    <frame tileid="274" duration="100"/>
    <frame tileid="280" duration="100"/>
    <frame tileid="286" duration="100"/>
    <frame tileid="508" duration="100"/>
    <frame tileid="514" duration="100"/>
    <frame tileid="520" duration="100"/>
    <frame tileid="526" duration="100"/>
    <frame tileid="532" duration="100"/>
    <frame tileid="538" duration="100"/>
    <frame tileid="760" duration="100"/>
    <frame tileid="766" duration="100"/>
    <frame tileid="772" duration="100"/>
    <frame tileid="778" duration="100"/>
    <frame tileid="784" duration="100"/>
   </animation>
  </tile>
  <tile id="288">
   <animation>
    <frame tileid="288" duration="100"/>
    <frame tileid="294" duration="100"/>
    <frame tileid="300" duration="100"/>
    <frame tileid="306" duration="100"/>
    <frame tileid="312" duration="100"/>
    <frame tileid="318" duration="100"/>
    <frame tileid="540" duration="100"/>
    <frame tileid="546" duration="100"/>
    <frame tileid="552" duration="100"/>
    <frame tileid="558" duration="100"/>
    <frame tileid="564" duration="100"/>
    <frame tileid="570" duration="100"/>
    <frame tileid="792" duration="100"/>
    <frame tileid="798" duration="100"/>
    <frame tileid="804" duration="100"/>
    <frame tileid="810" duration="100"/>
    <frame tileid="816" duration="100"/>
   </animation>
  </tile>
  <tile id="289">
   <animation>
    <frame tileid="289" duration="100"/>
    <frame tileid="295" duration="100"/>
    <frame tileid="301" duration="100"/>
    <frame tileid="307" duration="100"/>
    <frame tileid="313" duration="100"/>
    <frame tileid="319" duration="100"/>
    <frame tileid="541" duration="100"/>
    <frame tileid="547" duration="100"/>
    <frame tileid="553" duration="100"/>
    <frame tileid="559" duration="100"/>
    <frame tileid="565" duration="100"/>
    <frame tileid="571" duration="100"/>
    <frame tileid="793" duration="100"/>
    <frame tileid="799" duration="100"/>
    <frame tileid="805" duration="100"/>
    <frame tileid="811" duration="100"/>
    <frame tileid="817" duration="100"/>
   </animation>
  </tile>
  <tile id="290">
   <animation>
    <frame tileid="290" duration="100"/>
    <frame tileid="296" duration="100"/>
    <frame tileid="302" duration="100"/>
    <frame tileid="308" duration="100"/>
    <frame tileid="314" duration="100"/>
    <frame tileid="320" duration="100"/>
    <frame tileid="542" duration="100"/>
    <frame tileid="548" duration="100"/>
    <frame tileid="554" duration="100"/>
    <frame tileid="560" duration="100"/>
    <frame tileid="566" duration="100"/>
    <frame tileid="572" duration="100"/>
    <frame tileid="794" duration="100"/>
    <frame tileid="800" duration="100"/>
    <frame tileid="806" duration="100"/>
    <frame tileid="812" duration="100"/>
    <frame tileid="818" duration="100"/>
   </animation>
  </tile>
  <tile id="291">
   <animation>
    <frame tileid="291" duration="100"/>
    <frame tileid="297" duration="100"/>
    <frame tileid="303" duration="100"/>
    <frame tileid="309" duration="100"/>
    <frame tileid="315" duration="100"/>
    <frame tileid="321" duration="100"/>
    <frame tileid="543" duration="100"/>
    <frame tileid="549" duration="100"/>
    <frame tileid="555" duration="100"/>
    <frame tileid="561" duration="100"/>
    <frame tileid="567" duration="100"/>
    <frame tileid="573" duration="100"/>
    <frame tileid="795" duration="100"/>
    <frame tileid="801" duration="100"/>
    <frame tileid="807" duration="100"/>
    <frame tileid="813" duration="100"/>
    <frame tileid="819" duration="100"/>
   </animation>
  </tile>
  <tile id="292">
   <animation>
    <frame tileid="292" duration="100"/>
    <frame tileid="298" duration="100"/>
    <frame tileid="304" duration="100"/>
    <frame tileid="310" duration="100"/>
    <frame tileid="316" duration="100"/>
    <frame tileid="322" duration="100"/>
    <frame tileid="544" duration="100"/>
    <frame tileid="550" duration="100"/>
    <frame tileid="556" duration="100"/>
    <frame tileid="562" duration="100"/>
    <frame tileid="568" duration="100"/>
    <frame tileid="574" duration="100"/>
    <frame tileid="796" duration="100"/>
    <frame tileid="802" duration="100"/>
    <frame tileid="808" duration="100"/>
    <frame tileid="814" duration="100"/>
    <frame tileid="820" duration="100"/>
   </animation>
  </tile>
  <tile id="293">
   <animation>
    <frame tileid="293" duration="100"/>
    <frame tileid="299" duration="100"/>
    <frame tileid="305" duration="100"/>
    <frame tileid="311" duration="100"/>
    <frame tileid="317" duration="100"/>
    <frame tileid="323" duration="100"/>
    <frame tileid="545" duration="100"/>
    <frame tileid="551" duration="100"/>
    <frame tileid="557" duration="100"/>
    <frame tileid="563" duration="100"/>
    <frame tileid="569" duration="100"/>
    <frame tileid="575" duration="100"/>
    <frame tileid="797" duration="100"/>
    <frame tileid="803" duration="100"/>
    <frame tileid="809" duration="100"/>
    <frame tileid="815" duration="100"/>
    <frame tileid="821" duration="100"/>
   </animation>
  </tile>
  <tile id="324">
   <animation>
    <frame tileid="324" duration="100"/>
    <frame tileid="330" duration="100"/>
    <frame tileid="336" duration="100"/>
    <frame tileid="342" duration="100"/>
    <frame tileid="348" duration="100"/>
    <frame tileid="354" duration="100"/>
    <frame tileid="576" duration="100"/>
    <frame tileid="582" duration="100"/>
    <frame tileid="588" duration="100"/>
    <frame tileid="594" duration="100"/>
    <frame tileid="600" duration="100"/>
    <frame tileid="606" duration="100"/>
    <frame tileid="828" duration="100"/>
    <frame tileid="834" duration="100"/>
    <frame tileid="840" duration="100"/>
    <frame tileid="846" duration="100"/>
    <frame tileid="852" duration="100"/>
   </animation>
  </tile>
  <tile id="325">
   <animation>
    <frame tileid="325" duration="100"/>
    <frame tileid="331" duration="100"/>
    <frame tileid="337" duration="100"/>
    <frame tileid="343" duration="100"/>
    <frame tileid="349" duration="100"/>
    <frame tileid="355" duration="100"/>
    <frame tileid="577" duration="100"/>
    <frame tileid="583" duration="100"/>
    <frame tileid="589" duration="100"/>
    <frame tileid="595" duration="100"/>
    <frame tileid="601" duration="100"/>
    <frame tileid="607" duration="100"/>
    <frame tileid="829" duration="100"/>
    <frame tileid="835" duration="100"/>
    <frame tileid="841" duration="100"/>
    <frame tileid="847" duration="100"/>
    <frame tileid="853" duration="100"/>
   </animation>
  </tile>
  <tile id="326">
   <animation>
    <frame tileid="326" duration="100"/>
    <frame tileid="332" duration="100"/>
    <frame tileid="338" duration="100"/>
    <frame tileid="344" duration="100"/>
    <frame tileid="350" duration="100"/>
    <frame tileid="356" duration="100"/>
    <frame tileid="578" duration="100"/>
    <frame tileid="584" duration="100"/>
    <frame tileid="590" duration="100"/>
    <frame tileid="596" duration="100"/>
    <frame tileid="602" duration="100"/>
    <frame tileid="608" duration="100"/>
    <frame tileid="830" duration="100"/>
    <frame tileid="836" duration="100"/>
    <frame tileid="842" duration="100"/>
    <frame tileid="848" duration="100"/>
    <frame tileid="854" duration="100"/>
   </animation>
  </tile>
  <tile id="327">
   <animation>
    <frame tileid="327" duration="100"/>
    <frame tileid="333" duration="100"/>
    <frame tileid="339" duration="100"/>
    <frame tileid="345" duration="100"/>
    <frame tileid="351" duration="100"/>
    <frame tileid="357" duration="100"/>
    <frame tileid="579" duration="100"/>
    <frame tileid="585" duration="100"/>
    <frame tileid="591" duration="100"/>
    <frame tileid="597" duration="100"/>
    <frame tileid="603" duration="100"/>
    <frame tileid="609" duration="100"/>
    <frame tileid="831" duration="100"/>
    <frame tileid="837" duration="100"/>
    <frame tileid="843" duration="100"/>
    <frame tileid="849" duration="100"/>
    <frame tileid="855" duration="100"/>
   </animation>
  </tile>
  <tile id="328">
   <animation>
    <frame tileid="328" duration="100"/>
    <frame tileid="334" duration="100"/>
    <frame tileid="340" duration="100"/>
    <frame tileid="346" duration="100"/>
    <frame tileid="352" duration="100"/>
    <frame tileid="358" duration="100"/>
    <frame tileid="580" duration="100"/>
    <frame tileid="586" duration="100"/>
    <frame tileid="592" duration="100"/>
    <frame tileid="598" duration="100"/>
    <frame tileid="604" duration="100"/>
    <frame tileid="610" duration="100"/>
    <frame tileid="832" duration="100"/>
    <frame tileid="838" duration="100"/>
    <frame tileid="844" duration="100"/>
    <frame tileid="850" duration="100"/>
    <frame tileid="856" duration="100"/>
   </animation>
  </tile>
  <tile id="329">
   <animation>
    <frame tileid="329" duration="100"/>
    <frame tileid="335" duration="100"/>
    <frame tileid="341" duration="100"/>
    <frame tileid="347" duration="100"/>
    <frame tileid="353" duration="100"/>
    <frame tileid="359" duration="100"/>
    <frame tileid="581" duration="100"/>
    <frame tileid="587" duration="100"/>
    <frame tileid="593" duration="100"/>
    <frame tileid="599" duration="100"/>
    <frame tileid="605" duration="100"/>
    <frame tileid="611" duration="100"/>
    <frame tileid="833" duration="100"/>
    <frame tileid="839" duration="100"/>
    <frame tileid="845" duration="100"/>
    <frame tileid="851" duration="100"/>
    <frame tileid="857" duration="100"/>
   </animation>
  </tile>
  <tile id="360">
   <animation>
    <frame tileid="360" duration="100"/>
    <frame tileid="366" duration="100"/>
    <frame tileid="372" duration="100"/>
    <frame tileid="378" duration="100"/>
    <frame tileid="384" duration="100"/>
    <frame tileid="390" duration="100"/>
    <frame tileid="612" duration="100"/>
    <frame tileid="618" duration="100"/>
    <frame tileid="624" duration="100"/>
    <frame tileid="630" duration="100"/>
    <frame tileid="636" duration="100"/>
    <frame tileid="642" duration="100"/>
    <frame tileid="864" duration="100"/>
    <frame tileid="870" duration="100"/>
    <frame tileid="876" duration="100"/>
    <frame tileid="882" duration="100"/>
    <frame tileid="888" duration="100"/>
   </animation>
  </tile>
  <tile id="361">
   <animation>
    <frame tileid="361" duration="100"/>
    <frame tileid="367" duration="100"/>
    <frame tileid="373" duration="100"/>
    <frame tileid="379" duration="100"/>
    <frame tileid="385" duration="100"/>
    <frame tileid="391" duration="100"/>
    <frame tileid="613" duration="100"/>
    <frame tileid="619" duration="100"/>
    <frame tileid="625" duration="100"/>
    <frame tileid="631" duration="100"/>
    <frame tileid="637" duration="100"/>
    <frame tileid="643" duration="100"/>
    <frame tileid="865" duration="100"/>
    <frame tileid="871" duration="100"/>
    <frame tileid="877" duration="100"/>
    <frame tileid="883" duration="100"/>
    <frame tileid="889" duration="100"/>
   </animation>
  </tile>
  <tile id="362">
   <animation>
    <frame tileid="362" duration="100"/>
    <frame tileid="368" duration="100"/>
    <frame tileid="374" duration="100"/>
    <frame tileid="380" duration="100"/>
    <frame tileid="386" duration="100"/>
    <frame tileid="392" duration="100"/>
    <frame tileid="614" duration="100"/>
    <frame tileid="620" duration="100"/>
    <frame tileid="626" duration="100"/>
    <frame tileid="632" duration="100"/>
    <frame tileid="638" duration="100"/>
    <frame tileid="644" duration="100"/>
    <frame tileid="866" duration="100"/>
    <frame tileid="872" duration="100"/>
    <frame tileid="878" duration="100"/>
    <frame tileid="884" duration="100"/>
    <frame tileid="890" duration="100"/>
   </animation>
  </tile>
  <tile id="363">
   <animation>
    <frame tileid="363" duration="100"/>
    <frame tileid="369" duration="100"/>
    <frame tileid="375" duration="100"/>
    <frame tileid="381" duration="100"/>
    <frame tileid="387" duration="100"/>
    <frame tileid="393" duration="100"/>
    <frame tileid="615" duration="100"/>
    <frame tileid="621" duration="100"/>
    <frame tileid="627" duration="100"/>
    <frame tileid="633" duration="100"/>
    <frame tileid="639" duration="100"/>
    <frame tileid="645" duration="100"/>
    <frame tileid="867" duration="100"/>
    <frame tileid="873" duration="100"/>
    <frame tileid="879" duration="100"/>
    <frame tileid="885" duration="100"/>
    <frame tileid="891" duration="100"/>
   </animation>
  </tile>
  <tile id="364">
   <animation>
    <frame tileid="364" duration="100"/>
    <frame tileid="370" duration="100"/>
    <frame tileid="376" duration="100"/>
    <frame tileid="382" duration="100"/>
    <frame tileid="388" duration="100"/>
    <frame tileid="394" duration="100"/>
    <frame tileid="616" duration="100"/>
    <frame tileid="622" duration="100"/>
    <frame tileid="628" duration="100"/>
    <frame tileid="634" duration="100"/>
    <frame tileid="640" duration="100"/>
    <frame tileid="646" duration="100"/>
    <frame tileid="868" duration="100"/>
    <frame tileid="874" duration="100"/>
    <frame tileid="880" duration="100"/>
    <frame tileid="886" duration="100"/>
    <frame tileid="892" duration="100"/>
   </animation>
  </tile>
  <tile id="365">
   <animation>
    <frame tileid="365" duration="100"/>
    <frame tileid="371" duration="100"/>
    <frame tileid="377" duration="100"/>
    <frame tileid="383" duration="100"/>
    <frame tileid="389" duration="100"/>
    <frame tileid="395" duration="100"/>
    <frame tileid="617" duration="100"/>
    <frame tileid="623" duration="100"/>
    <frame tileid="629" duration="100"/>
    <frame tileid="635" duration="100"/>
    <frame tileid="641" duration="100"/>
    <frame tileid="647" duration="100"/>
    <frame tileid="869" duration="100"/>
    <frame tileid="875" duration="100"/>
    <frame tileid="881" duration="100"/>
    <frame tileid="887" duration="100"/>
    <frame tileid="893" duration="100"/>
   </animation>
  </tile>
  <tile id="409">
   <animation>
    <frame tileid="409" duration="100"/>
    <frame tileid="415" duration="100"/>
    <frame tileid="421" duration="100"/>
    <frame tileid="427" duration="100"/>
    <frame tileid="649" duration="100"/>
    <frame tileid="655" duration="100"/>
    <frame tileid="661" duration="100"/>
    <frame tileid="667" duration="100"/>
    <frame tileid="673" duration="100"/>
    <frame tileid="145" duration="100"/>
    <frame tileid="151" duration="100"/>
    <frame tileid="157" duration="100"/>
    <frame tileid="163" duration="100"/>
    <frame tileid="169" duration="100"/>
    <frame tileid="175" duration="100"/>
    <frame tileid="397" duration="100"/>
    <frame tileid="403" duration="100"/>
   </animation>
  </tile>
  <tile id="410">
   <animation>
    <frame tileid="410" duration="100"/>
    <frame tileid="416" duration="100"/>
    <frame tileid="422" duration="100"/>
    <frame tileid="428" duration="100"/>
    <frame tileid="650" duration="100"/>
    <frame tileid="656" duration="100"/>
    <frame tileid="662" duration="100"/>
    <frame tileid="668" duration="100"/>
    <frame tileid="674" duration="100"/>
    <frame tileid="146" duration="100"/>
    <frame tileid="152" duration="100"/>
    <frame tileid="158" duration="100"/>
    <frame tileid="164" duration="100"/>
    <frame tileid="170" duration="100"/>
    <frame tileid="176" duration="100"/>
    <frame tileid="398" duration="100"/>
    <frame tileid="404" duration="100"/>
   </animation>
  </tile>
  <tile id="411">
   <animation>
    <frame tileid="411" duration="100"/>
    <frame tileid="417" duration="100"/>
    <frame tileid="423" duration="100"/>
    <frame tileid="429" duration="100"/>
    <frame tileid="651" duration="100"/>
    <frame tileid="657" duration="100"/>
    <frame tileid="663" duration="100"/>
    <frame tileid="669" duration="100"/>
    <frame tileid="675" duration="100"/>
    <frame tileid="147" duration="100"/>
    <frame tileid="153" duration="100"/>
    <frame tileid="159" duration="100"/>
    <frame tileid="165" duration="100"/>
    <frame tileid="171" duration="100"/>
    <frame tileid="177" duration="100"/>
    <frame tileid="399" duration="100"/>
    <frame tileid="405" duration="100"/>
   </animation>
  </tile>
  <tile id="412">
   <animation>
    <frame tileid="412" duration="100"/>
    <frame tileid="418" duration="100"/>
    <frame tileid="424" duration="100"/>
    <frame tileid="430" duration="100"/>
    <frame tileid="652" duration="100"/>
    <frame tileid="658" duration="100"/>
    <frame tileid="664" duration="100"/>
    <frame tileid="670" duration="100"/>
    <frame tileid="676" duration="100"/>
    <frame tileid="148" duration="100"/>
    <frame tileid="154" duration="100"/>
    <frame tileid="160" duration="100"/>
    <frame tileid="166" duration="100"/>
    <frame tileid="172" duration="100"/>
    <frame tileid="178" duration="100"/>
    <frame tileid="400" duration="100"/>
    <frame tileid="406" duration="100"/>
   </animation>
  </tile>
  <tile id="445">
   <animation>
    <frame tileid="445" duration="100"/>
    <frame tileid="451" duration="100"/>
    <frame tileid="457" duration="100"/>
    <frame tileid="463" duration="100"/>
    <frame tileid="685" duration="100"/>
    <frame tileid="691" duration="100"/>
    <frame tileid="697" duration="100"/>
    <frame tileid="703" duration="100"/>
    <frame tileid="709" duration="100"/>
    <frame tileid="181" duration="100"/>
    <frame tileid="187" duration="100"/>
    <frame tileid="193" duration="100"/>
    <frame tileid="199" duration="100"/>
    <frame tileid="205" duration="100"/>
    <frame tileid="211" duration="100"/>
    <frame tileid="433" duration="100"/>
    <frame tileid="439" duration="100"/>
   </animation>
  </tile>
  <tile id="446">
   <animation>
    <frame tileid="446" duration="100"/>
    <frame tileid="452" duration="100"/>
    <frame tileid="458" duration="100"/>
    <frame tileid="464" duration="100"/>
    <frame tileid="686" duration="100"/>
    <frame tileid="692" duration="100"/>
    <frame tileid="698" duration="100"/>
    <frame tileid="704" duration="100"/>
    <frame tileid="710" duration="100"/>
    <frame tileid="182" duration="100"/>
    <frame tileid="188" duration="100"/>
    <frame tileid="194" duration="100"/>
    <frame tileid="200" duration="100"/>
    <frame tileid="206" duration="100"/>
    <frame tileid="212" duration="100"/>
    <frame tileid="434" duration="100"/>
    <frame tileid="440" duration="100"/>
   </animation>
  </tile>
  <tile id="447">
   <animation>
    <frame tileid="447" duration="100"/>
    <frame tileid="453" duration="100"/>
    <frame tileid="459" duration="100"/>
    <frame tileid="465" duration="100"/>
    <frame tileid="687" duration="100"/>
    <frame tileid="693" duration="100"/>
    <frame tileid="699" duration="100"/>
    <frame tileid="705" duration="100"/>
    <frame tileid="711" duration="100"/>
    <frame tileid="183" duration="100"/>
    <frame tileid="189" duration="100"/>
    <frame tileid="195" duration="100"/>
    <frame tileid="201" duration="100"/>
    <frame tileid="207" duration="100"/>
    <frame tileid="213" duration="100"/>
    <frame tileid="435" duration="100"/>
    <frame tileid="441" duration="100"/>
   </animation>
  </tile>
  <tile id="448">
   <animation>
    <frame tileid="448" duration="100"/>
    <frame tileid="454" duration="100"/>
    <frame tileid="460" duration="100"/>
    <frame tileid="466" duration="100"/>
    <frame tileid="688" duration="100"/>
    <frame tileid="694" duration="100"/>
    <frame tileid="700" duration="100"/>
    <frame tileid="706" duration="100"/>
    <frame tileid="712" duration="100"/>
    <frame tileid="184" duration="100"/>
    <frame tileid="190" duration="100"/>
    <frame tileid="196" duration="100"/>
    <frame tileid="202" duration="100"/>
    <frame tileid="208" duration="100"/>
    <frame tileid="214" duration="100"/>
    <frame tileid="436" duration="100"/>
    <frame tileid="442" duration="100"/>
   </animation>
  </tile>
  <tile id="481">
   <animation>
    <frame tileid="481" duration="100"/>
    <frame tileid="487" duration="100"/>
    <frame tileid="493" duration="100"/>
    <frame tileid="499" duration="100"/>
    <frame tileid="721" duration="100"/>
    <frame tileid="727" duration="100"/>
    <frame tileid="733" duration="100"/>
    <frame tileid="739" duration="100"/>
    <frame tileid="745" duration="100"/>
    <frame tileid="217" duration="100"/>
    <frame tileid="223" duration="100"/>
    <frame tileid="229" duration="100"/>
    <frame tileid="235" duration="100"/>
    <frame tileid="241" duration="100"/>
    <frame tileid="247" duration="100"/>
    <frame tileid="469" duration="100"/>
    <frame tileid="475" duration="100"/>
   </animation>
  </tile>
  <tile id="482">
   <animation>
    <frame tileid="482" duration="100"/>
    <frame tileid="488" duration="100"/>
    <frame tileid="494" duration="100"/>
    <frame tileid="500" duration="100"/>
    <frame tileid="722" duration="100"/>
    <frame tileid="728" duration="100"/>
    <frame tileid="734" duration="100"/>
    <frame tileid="740" duration="100"/>
    <frame tileid="746" duration="100"/>
    <frame tileid="218" duration="100"/>
    <frame tileid="224" duration="100"/>
    <frame tileid="230" duration="100"/>
    <frame tileid="236" duration="100"/>
    <frame tileid="242" duration="100"/>
    <frame tileid="248" duration="100"/>
    <frame tileid="470" duration="100"/>
    <frame tileid="476" duration="100"/>
   </animation>
  </tile>
  <tile id="483">
   <animation>
    <frame tileid="483" duration="100"/>
    <frame tileid="489" duration="100"/>
    <frame tileid="495" duration="100"/>
    <frame tileid="501" duration="100"/>
    <frame tileid="723" duration="100"/>
    <frame tileid="729" duration="100"/>
    <frame tileid="735" duration="100"/>
    <frame tileid="741" duration="100"/>
    <frame tileid="747" duration="100"/>
    <frame tileid="219" duration="100"/>
    <frame tileid="225" duration="100"/>
    <frame tileid="231" duration="100"/>
    <frame tileid="237" duration="100"/>
    <frame tileid="243" duration="100"/>
    <frame tileid="249" duration="100"/>
    <frame tileid="471" duration="100"/>
    <frame tileid="477" duration="100"/>
   </animation>
  </tile>
  <tile id="484">
   <animation>
    <frame tileid="484" duration="100"/>
    <frame tileid="490" duration="100"/>
    <frame tileid="496" duration="100"/>
    <frame tileid="502" duration="100"/>
    <frame tileid="724" duration="100"/>
    <frame tileid="730" duration="100"/>
    <frame tileid="736" duration="100"/>
    <frame tileid="742" duration="100"/>
    <frame tileid="748" duration="100"/>
    <frame tileid="220" duration="100"/>
    <frame tileid="226" duration="100"/>
    <frame tileid="232" duration="100"/>
    <frame tileid="238" duration="100"/>
    <frame tileid="244" duration="100"/>
    <frame tileid="250" duration="100"/>
    <frame tileid="472" duration="100"/>
    <frame tileid="478" duration="100"/>
   </animation>
  </tile>
  <tile id="517">
   <animation>
    <frame tileid="517" duration="100"/>
    <frame tileid="523" duration="100"/>
    <frame tileid="529" duration="100"/>
    <frame tileid="535" duration="100"/>
    <frame tileid="757" duration="100"/>
    <frame tileid="763" duration="100"/>
    <frame tileid="769" duration="100"/>
    <frame tileid="775" duration="100"/>
    <frame tileid="781" duration="100"/>
    <frame tileid="253" duration="100"/>
    <frame tileid="259" duration="100"/>
    <frame tileid="265" duration="100"/>
    <frame tileid="271" duration="100"/>
    <frame tileid="277" duration="100"/>
    <frame tileid="283" duration="100"/>
    <frame tileid="505" duration="100"/>
    <frame tileid="511" duration="100"/>
   </animation>
  </tile>
  <tile id="518">
   <animation>
    <frame tileid="518" duration="100"/>
    <frame tileid="524" duration="100"/>
    <frame tileid="530" duration="100"/>
    <frame tileid="536" duration="100"/>
    <frame tileid="758" duration="100"/>
    <frame tileid="764" duration="100"/>
    <frame tileid="770" duration="100"/>
    <frame tileid="776" duration="100"/>
    <frame tileid="782" duration="100"/>
    <frame tileid="254" duration="100"/>
    <frame tileid="260" duration="100"/>
    <frame tileid="266" duration="100"/>
    <frame tileid="272" duration="100"/>
    <frame tileid="278" duration="100"/>
    <frame tileid="284" duration="100"/>
    <frame tileid="506" duration="100"/>
    <frame tileid="512" duration="100"/>
   </animation>
  </tile>
  <tile id="519">
   <animation>
    <frame tileid="519" duration="100"/>
    <frame tileid="525" duration="100"/>
    <frame tileid="531" duration="100"/>
    <frame tileid="537" duration="100"/>
    <frame tileid="759" duration="100"/>
    <frame tileid="765" duration="100"/>
    <frame tileid="771" duration="100"/>
    <frame tileid="777" duration="100"/>
    <frame tileid="783" duration="100"/>
    <frame tileid="255" duration="100"/>
    <frame tileid="261" duration="100"/>
    <frame tileid="267" duration="100"/>
    <frame tileid="273" duration="100"/>
    <frame tileid="279" duration="100"/>
    <frame tileid="285" duration="100"/>
    <frame tileid="507" duration="100"/>
    <frame tileid="513" duration="100"/>
   </animation>
  </tile>
  <tile id="520">
   <animation>
    <frame tileid="520" duration="100"/>
    <frame tileid="526" duration="100"/>
    <frame tileid="532" duration="100"/>
    <frame tileid="538" duration="100"/>
    <frame tileid="760" duration="100"/>
    <frame tileid="766" duration="100"/>
    <frame tileid="772" duration="100"/>
    <frame tileid="778" duration="100"/>
    <frame tileid="784" duration="100"/>
    <frame tileid="256" duration="100"/>
    <frame tileid="262" duration="100"/>
    <frame tileid="268" duration="100"/>
    <frame tileid="274" duration="100"/>
    <frame tileid="280" duration="100"/>
    <frame tileid="286" duration="100"/>
    <frame tileid="508" duration="100"/>
    <frame tileid="514" duration="100"/>
   </animation>
  </tile>
  <tile id="552">
   <animation>
    <frame tileid="552" duration="100"/>
    <frame tileid="558" duration="100"/>
    <frame tileid="564" duration="100"/>
    <frame tileid="570" duration="100"/>
    <frame tileid="792" duration="100"/>
    <frame tileid="798" duration="100"/>
    <frame tileid="804" duration="100"/>
    <frame tileid="810" duration="100"/>
    <frame tileid="816" duration="100"/>
    <frame tileid="288" duration="100"/>
    <frame tileid="294" duration="100"/>
    <frame tileid="300" duration="100"/>
    <frame tileid="306" duration="100"/>
    <frame tileid="312" duration="100"/>
    <frame tileid="318" duration="100"/>
    <frame tileid="540" duration="100"/>
    <frame tileid="546" duration="100"/>
   </animation>
  </tile>
  <tile id="553">
   <animation>
    <frame tileid="553" duration="100"/>
    <frame tileid="559" duration="100"/>
    <frame tileid="565" duration="100"/>
    <frame tileid="571" duration="100"/>
    <frame tileid="793" duration="100"/>
    <frame tileid="799" duration="100"/>
    <frame tileid="805" duration="100"/>
    <frame tileid="811" duration="100"/>
    <frame tileid="817" duration="100"/>
    <frame tileid="289" duration="100"/>
    <frame tileid="295" duration="100"/>
    <frame tileid="301" duration="100"/>
    <frame tileid="307" duration="100"/>
    <frame tileid="313" duration="100"/>
    <frame tileid="319" duration="100"/>
    <frame tileid="541" duration="100"/>
    <frame tileid="547" duration="100"/>
   </animation>
  </tile>
  <tile id="554">
   <animation>
    <frame tileid="554" duration="100"/>
    <frame tileid="560" duration="100"/>
    <frame tileid="566" duration="100"/>
    <frame tileid="572" duration="100"/>
    <frame tileid="794" duration="100"/>
    <frame tileid="800" duration="100"/>
    <frame tileid="806" duration="100"/>
    <frame tileid="812" duration="100"/>
    <frame tileid="818" duration="100"/>
    <frame tileid="290" duration="100"/>
    <frame tileid="296" duration="100"/>
    <frame tileid="302" duration="100"/>
    <frame tileid="308" duration="100"/>
    <frame tileid="314" duration="100"/>
    <frame tileid="320" duration="100"/>
    <frame tileid="542" duration="100"/>
    <frame tileid="548" duration="100"/>
   </animation>
  </tile>
  <tile id="555">
   <animation>
    <frame tileid="555" duration="100"/>
    <frame tileid="561" duration="100"/>
    <frame tileid="567" duration="100"/>
    <frame tileid="573" duration="100"/>
    <frame tileid="795" duration="100"/>
    <frame tileid="801" duration="100"/>
    <frame tileid="807" duration="100"/>
    <frame tileid="813" duration="100"/>
    <frame tileid="819" duration="100"/>
    <frame tileid="291" duration="100"/>
    <frame tileid="297" duration="100"/>
    <frame tileid="303" duration="100"/>
    <frame tileid="309" duration="100"/>
    <frame tileid="315" duration="100"/>
    <frame tileid="321" duration="100"/>
    <frame tileid="543" duration="100"/>
    <frame tileid="549" duration="100"/>
   </animation>
  </tile>
  <tile id="556">
   <animation>
    <frame tileid="556" duration="100"/>
    <frame tileid="562" duration="100"/>
    <frame tileid="568" duration="100"/>
    <frame tileid="574" duration="100"/>
    <frame tileid="796" duration="100"/>
    <frame tileid="802" duration="100"/>
    <frame tileid="808" duration="100"/>
    <frame tileid="814" duration="100"/>
    <frame tileid="820" duration="100"/>
    <frame tileid="292" duration="100"/>
    <frame tileid="298" duration="100"/>
    <frame tileid="304" duration="100"/>
    <frame tileid="310" duration="100"/>
    <frame tileid="316" duration="100"/>
    <frame tileid="322" duration="100"/>
    <frame tileid="544" duration="100"/>
    <frame tileid="550" duration="100"/>
   </animation>
  </tile>
  <tile id="557">
   <animation>
    <frame tileid="557" duration="100"/>
    <frame tileid="563" duration="100"/>
    <frame tileid="569" duration="100"/>
    <frame tileid="575" duration="100"/>
    <frame tileid="797" duration="100"/>
    <frame tileid="803" duration="100"/>
    <frame tileid="809" duration="100"/>
    <frame tileid="815" duration="100"/>
    <frame tileid="821" duration="100"/>
    <frame tileid="293" duration="100"/>
    <frame tileid="299" duration="100"/>
    <frame tileid="305" duration="100"/>
    <frame tileid="311" duration="100"/>
    <frame tileid="317" duration="100"/>
    <frame tileid="323" duration="100"/>
    <frame tileid="545" duration="100"/>
    <frame tileid="551" duration="100"/>
   </animation>
  </tile>
  <tile id="588">
   <animation>
    <frame tileid="588" duration="100"/>
    <frame tileid="594" duration="100"/>
    <frame tileid="600" duration="100"/>
    <frame tileid="606" duration="100"/>
    <frame tileid="828" duration="100"/>
    <frame tileid="834" duration="100"/>
    <frame tileid="840" duration="100"/>
    <frame tileid="846" duration="100"/>
    <frame tileid="852" duration="100"/>
    <frame tileid="324" duration="100"/>
    <frame tileid="330" duration="100"/>
    <frame tileid="336" duration="100"/>
    <frame tileid="342" duration="100"/>
    <frame tileid="348" duration="100"/>
    <frame tileid="354" duration="100"/>
    <frame tileid="576" duration="100"/>
    <frame tileid="582" duration="100"/>
   </animation>
  </tile>
  <tile id="589">
   <animation>
    <frame tileid="589" duration="100"/>
    <frame tileid="595" duration="100"/>
    <frame tileid="601" duration="100"/>
    <frame tileid="607" duration="100"/>
    <frame tileid="829" duration="100"/>
    <frame tileid="835" duration="100"/>
    <frame tileid="841" duration="100"/>
    <frame tileid="847" duration="100"/>
    <frame tileid="853" duration="100"/>
    <frame tileid="325" duration="100"/>
    <frame tileid="331" duration="100"/>
    <frame tileid="337" duration="100"/>
    <frame tileid="343" duration="100"/>
    <frame tileid="349" duration="100"/>
    <frame tileid="355" duration="100"/>
    <frame tileid="577" duration="100"/>
    <frame tileid="583" duration="100"/>
   </animation>
  </tile>
  <tile id="590">
   <animation>
    <frame tileid="590" duration="100"/>
    <frame tileid="596" duration="100"/>
    <frame tileid="602" duration="100"/>
    <frame tileid="608" duration="100"/>
    <frame tileid="830" duration="100"/>
    <frame tileid="836" duration="100"/>
    <frame tileid="842" duration="100"/>
    <frame tileid="848" duration="100"/>
    <frame tileid="854" duration="100"/>
    <frame tileid="326" duration="100"/>
    <frame tileid="332" duration="100"/>
    <frame tileid="338" duration="100"/>
    <frame tileid="344" duration="100"/>
    <frame tileid="350" duration="100"/>
    <frame tileid="356" duration="100"/>
    <frame tileid="578" duration="100"/>
    <frame tileid="584" duration="100"/>
   </animation>
  </tile>
  <tile id="591">
   <animation>
    <frame tileid="591" duration="100"/>
    <frame tileid="597" duration="100"/>
    <frame tileid="603" duration="100"/>
    <frame tileid="609" duration="100"/>
    <frame tileid="831" duration="100"/>
    <frame tileid="837" duration="100"/>
    <frame tileid="843" duration="100"/>
    <frame tileid="849" duration="100"/>
    <frame tileid="855" duration="100"/>
    <frame tileid="327" duration="100"/>
    <frame tileid="333" duration="100"/>
    <frame tileid="339" duration="100"/>
    <frame tileid="345" duration="100"/>
    <frame tileid="351" duration="100"/>
    <frame tileid="357" duration="100"/>
    <frame tileid="579" duration="100"/>
    <frame tileid="585" duration="100"/>
   </animation>
  </tile>
  <tile id="592">
   <animation>
    <frame tileid="592" duration="100"/>
    <frame tileid="598" duration="100"/>
    <frame tileid="604" duration="100"/>
    <frame tileid="610" duration="100"/>
    <frame tileid="832" duration="100"/>
    <frame tileid="838" duration="100"/>
    <frame tileid="844" duration="100"/>
    <frame tileid="850" duration="100"/>
    <frame tileid="856" duration="100"/>
    <frame tileid="328" duration="100"/>
    <frame tileid="334" duration="100"/>
    <frame tileid="340" duration="100"/>
    <frame tileid="346" duration="100"/>
    <frame tileid="352" duration="100"/>
    <frame tileid="358" duration="100"/>
    <frame tileid="580" duration="100"/>
    <frame tileid="586" duration="100"/>
   </animation>
  </tile>
  <tile id="593">
   <animation>
    <frame tileid="593" duration="100"/>
    <frame tileid="599" duration="100"/>
    <frame tileid="605" duration="100"/>
    <frame tileid="611" duration="100"/>
    <frame tileid="833" duration="100"/>
    <frame tileid="839" duration="100"/>
    <frame tileid="845" duration="100"/>
    <frame tileid="851" duration="100"/>
    <frame tileid="857" duration="100"/>
    <frame tileid="329" duration="100"/>
    <frame tileid="335" duration="100"/>
    <frame tileid="341" duration="100"/>
    <frame tileid="347" duration="100"/>
    <frame tileid="353" duration="100"/>
    <frame tileid="359" duration="100"/>
    <frame tileid="581" duration="100"/>
    <frame tileid="587" duration="100"/>
   </animation>
  </tile>
  <tile id="624">
   <animation>
    <frame tileid="624" duration="100"/>
    <frame tileid="630" duration="100"/>
    <frame tileid="636" duration="100"/>
    <frame tileid="642" duration="100"/>
    <frame tileid="864" duration="100"/>
    <frame tileid="870" duration="100"/>
    <frame tileid="876" duration="100"/>
    <frame tileid="882" duration="100"/>
    <frame tileid="888" duration="100"/>
    <frame tileid="360" duration="100"/>
    <frame tileid="366" duration="100"/>
    <frame tileid="372" duration="100"/>
    <frame tileid="378" duration="100"/>
    <frame tileid="384" duration="100"/>
    <frame tileid="390" duration="100"/>
    <frame tileid="612" duration="100"/>
    <frame tileid="618" duration="100"/>
   </animation>
  </tile>
  <tile id="625">
   <animation>
    <frame tileid="625" duration="100"/>
    <frame tileid="631" duration="100"/>
    <frame tileid="637" duration="100"/>
    <frame tileid="643" duration="100"/>
    <frame tileid="865" duration="100"/>
    <frame tileid="871" duration="100"/>
    <frame tileid="877" duration="100"/>
    <frame tileid="883" duration="100"/>
    <frame tileid="889" duration="100"/>
    <frame tileid="361" duration="100"/>
    <frame tileid="367" duration="100"/>
    <frame tileid="373" duration="100"/>
    <frame tileid="379" duration="100"/>
    <frame tileid="385" duration="100"/>
    <frame tileid="391" duration="100"/>
    <frame tileid="613" duration="100"/>
    <frame tileid="619" duration="100"/>
   </animation>
  </tile>
  <tile id="626">
   <animation>
    <frame tileid="626" duration="100"/>
    <frame tileid="632" duration="100"/>
    <frame tileid="638" duration="100"/>
    <frame tileid="644" duration="100"/>
    <frame tileid="866" duration="100"/>
    <frame tileid="872" duration="100"/>
    <frame tileid="878" duration="100"/>
    <frame tileid="884" duration="100"/>
    <frame tileid="890" duration="100"/>
    <frame tileid="362" duration="100"/>
    <frame tileid="368" duration="100"/>
    <frame tileid="374" duration="100"/>
    <frame tileid="380" duration="100"/>
    <frame tileid="386" duration="100"/>
    <frame tileid="392" duration="100"/>
    <frame tileid="614" duration="100"/>
    <frame tileid="620" duration="100"/>
   </animation>
  </tile>
  <tile id="627">
   <animation>
    <frame tileid="627" duration="100"/>
    <frame tileid="633" duration="100"/>
    <frame tileid="639" duration="100"/>
    <frame tileid="645" duration="100"/>
    <frame tileid="867" duration="100"/>
    <frame tileid="873" duration="100"/>
    <frame tileid="879" duration="100"/>
    <frame tileid="885" duration="100"/>
    <frame tileid="891" duration="100"/>
    <frame tileid="363" duration="100"/>
    <frame tileid="369" duration="100"/>
    <frame tileid="375" duration="100"/>
    <frame tileid="381" duration="100"/>
    <frame tileid="387" duration="100"/>
    <frame tileid="393" duration="100"/>
    <frame tileid="615" duration="100"/>
    <frame tileid="621" duration="100"/>
   </animation>
  </tile>
  <tile id="628">
   <animation>
    <frame tileid="628" duration="100"/>
    <frame tileid="634" duration="100"/>
    <frame tileid="640" duration="100"/>
    <frame tileid="646" duration="100"/>
    <frame tileid="868" duration="100"/>
    <frame tileid="874" duration="100"/>
    <frame tileid="880" duration="100"/>
    <frame tileid="886" duration="100"/>
    <frame tileid="892" duration="100"/>
    <frame tileid="364" duration="100"/>
    <frame tileid="370" duration="100"/>
    <frame tileid="376" duration="100"/>
    <frame tileid="382" duration="100"/>
    <frame tileid="388" duration="100"/>
    <frame tileid="394" duration="100"/>
    <frame tileid="616" duration="100"/>
    <frame tileid="622" duration="100"/>
   </animation>
  </tile>
  <tile id="629">
   <animation>
    <frame tileid="629" duration="100"/>
    <frame tileid="635" duration="100"/>
    <frame tileid="641" duration="100"/>
    <frame tileid="647" duration="100"/>
    <frame tileid="869" duration="100"/>
    <frame tileid="875" duration="100"/>
    <frame tileid="881" duration="100"/>
    <frame tileid="887" duration="100"/>
    <frame tileid="893" duration="100"/>
    <frame tileid="365" duration="100"/>
    <frame tileid="371" duration="100"/>
    <frame tileid="377" duration="100"/>
    <frame tileid="383" duration="100"/>
    <frame tileid="389" duration="100"/>
    <frame tileid="395" duration="100"/>
    <frame tileid="617" duration="100"/>
    <frame tileid="623" duration="100"/>
   </animation>
  </tile>
 </tileset>
 <tileset firstgid="4535" name="aliyahassets" tilewidth="16" tileheight="16" tilecount="200" columns="10">
  <image source="aliyahassets.png" width="160" height="320"/>
  <tile id="68">
   <animation>
    <frame tileid="68" duration="150"/>
    <frame tileid="69" duration="150"/>
    <frame tileid="78" duration="150"/>
    <frame tileid="79" duration="150"/>
   </animation>
  </tile>
  <tile id="70">
   <animation>
    <frame tileid="70" duration="150"/>
    <frame tileid="71" duration="150"/>
    <frame tileid="72" duration="150"/>
    <frame tileid="73" duration="150"/>
   </animation>
  </tile>
  <tile id="74">
   <animation>
    <frame tileid="75" duration="150"/>
    <frame tileid="76" duration="150"/>
    <frame tileid="77" duration="150"/>
    <frame tileid="74" duration="150"/>
   </animation>
  </tile>
  <tile id="80">
   <animation>
    <frame tileid="83" duration="150"/>
    <frame tileid="80" duration="150"/>
    <frame tileid="81" duration="150"/>
    <frame tileid="82" duration="150"/>
   </animation>
  </tile>
  <tile id="84">
   <animation>
    <frame tileid="84" duration="150"/>
    <frame tileid="85" duration="150"/>
    <frame tileid="86" duration="150"/>
    <frame tileid="87" duration="150"/>
   </animation>
  </tile>
  <tile id="90">
   <animation>
    <frame tileid="92" duration="150"/>
    <frame tileid="93" duration="150"/>
    <frame tileid="90" duration="150"/>
    <frame tileid="91" duration="150"/>
   </animation>
  </tile>
  <tile id="94">
   <animation>
    <frame tileid="97" duration="150"/>
    <frame tileid="94" duration="150"/>
    <frame tileid="95" duration="150"/>
    <frame tileid="96" duration="150"/>
   </animation>
  </tile>
  <tile id="99">
   <animation>
    <frame tileid="99" duration="150"/>
    <frame tileid="88" duration="150"/>
    <frame tileid="89" duration="150"/>
    <frame tileid="98" duration="150"/>
   </animation>
  </tile>
 </tileset>
 <layer id="1" name="Back" width="80" height="40">
  <data encoding="csv">
176,176,176,176,176,176,176,176,176,176,176,176,176,176,176,176,176,176,176,176,176,176,176,176,176,176,176,176,176,176,176,176,176,176,176,176,176,176,176,176,176,176,176,176,176,176,176,176,176,176,176,176,176,176,176,176,176,176,176,176,176,176,176,176,176,176,176,176,176,176,176,176,176,176,176,176,176,176,176,176,
176,176,176,176,176,176,176,176,176,176,176,176,176,176,176,176,176,352,352,176,176,176,176,176,176,176,176,176,176,176,176,176,176,176,176,176,176,176,176,176,176,227,176,176,176,176,176,176,176,176,176,176,176,176,176,176,176,176,176,176,176,176,176,176,176,176,176,176,176,176,176,176,176,176,176,176,176,176,176,176,
176,176,176,176,176,176,176,176,176,176,176,176,176,176,176,176,352,352,352,176,352,176,176,176,176,176,176,176,176,176,176,176,176,176,176,1247,176,1247,1298,1247,227,227,176,176,176,176,176,176,176,176,326,327,328,176,176,176,176,176,176,176,176,176,176,176,176,176,176,176,176,176,176,176,176,176,176,176,176,176,176,176,
176,176,176,176,176,176,176,176,176,176,176,176,176,176,352,352,352,352,352,352,352,352,352,352,352,353,176,176,176,176,176,176,176,176,227,1247,1247,1250,1247,1247,227,227,176,176,176,176,176,176,176,176,351,352,379,328,176,176,176,176,176,176,176,176,176,176,176,176,176,176,176,176,176,176,176,176,176,176,176,176,176,176,
176,176,176,176,176,176,176,176,176,176,176,352,352,352,352,352,305,352,352,352,352,352,352,301,352,353,176,176,176,176,176,176,227,227,227,1247,1247,1247,1247,227,227,227,176,176,176,176,176,176,151,176,351,352,352,379,328,176,176,176,176,176,176,176,176,176,176,176,176,176,176,176,176,1247,1247,1247,518,176,176,176,176,176,
176,176,176,176,176,176,176,176,176,176,352,352,352,352,352,352,352,352,352,352,352,352,305,352,2147484052,378,176,176,176,151,176,176,227,227,1247,1247,1325,1247,1247,227,227,176,176,176,176,176,176,176,176,326,329,352,352,352,379,328,176,176,176,176,176,176,176,176,176,176,176,176,176,227,1247,1247,1247,1247,518,176,176,176,176,176,
176,176,176,176,176,176,176,176,352,352,352,352,352,352,352,352,352,305,352,352,352,352,352,2147484052,378,176,176,176,176,176,176,227,227,1247,1247,1247,1273,1247,227,227,227,176,176,176,326,327,327,327,327,329,352,352,352,352,352,379,328,176,176,176,176,176,176,176,176,176,176,176,176,251,253,1247,1247,1247,518,151,176,176,176,176,
176,176,176,176,176,176,176,176,352,352,352,301,352,352,352,352,352,352,352,352,306,352,2147484052,378,176,176,176,176,176,176,227,227,227,1247,1247,1324,1247,1247,227,227,254,176,176,326,329,352,352,352,352,352,352,352,352,352,352,2147484052,378,176,176,176,176,176,176,176,176,176,176,176,176,176,226,227,1247,1247,154,518,176,176,176,176,
176,176,176,176,176,176,176,176,352,352,352,352,352,306,352,352,352,352,301,2147484052,377,377,378,176,176,176,152,176,176,227,227,227,1247,1247,1299,1247,1247,1247,227,227,176,176,326,329,352,352,352,352,352,352,352,352,352,352,2147484052,378,1965,1966,1967,176,176,176,176,176,176,176,176,176,176,176,251,253,1247,1247,154,518,176,176,176,176,
176,176,176,176,176,176,176,176,176,377,377,404,352,352,352,352,352,2147484052,377,378,176,176,176,151,176,176,176,176,227,227,227,1247,1247,1323,1247,1247,1247,227,227,176,176,176,351,352,352,352,352,352,352,352,352,2147484052,377,377,378,151,176,176,176,176,176,176,377,377,377,378,176,176,176,176,176,226,1247,1247,154,518,176,176,176,176,
176,327,327,328,176,176,176,176,176,176,176,376,377,377,377,377,377,378,152,176,176,176,176,176,176,176,227,227,227,1247,1247,1247,1247,1247,1250,1247,1247,227,176,176,176,326,329,352,352,352,352,2147484052,377,377,377,378,176,176,176,176,176,176,176,376,179,378,176,176,176,176,176,176,176,176,176,226,1247,1247,176,176,176,176,176,176,
352,352,352,379,327,328,152,176,151,176,176,176,176,176,176,176,176,176,176,176,176,152,176,176,176,227,227,227,1247,1247,1247,1247,1247,1247,1247,1247,227,227,176,176,176,351,352,352,352,2147484052,377,378,176,176,176,176,176,152,176,176,176,176,176,176,228,176,176,176,176,176,176,176,176,176,176,226,232,1247,1247,227,152,176,176,176,
352,306,352,352,352,379,328,176,176,176,176,176,176,176,176,176,176,176,176,176,176,176,176,227,227,227,227,1247,1247,1247,1247,1247,1298,1247,1247,227,227,176,176,176,151,351,352,2147484052,377,378,176,176,176,176,176,176,176,176,176,176,176,176,182,228,228,176,151,176,176,201,2147483828,180,2147483828,180,2147483828,203,227,1247,1247,227,176,176,176,151,
352,301,352,176,352,301,353,176,176,176,176,176,176,176,151,176,176,176,176,176,176,227,227,227,227,1247,1247,1247,1247,1247,1247,1325,1247,1247,227,227,176,176,176,176,176,376,377,378,176,176,176,176,176,176,176,176,176,176,176,176,232,228,228,176,176,176,176,201,2147483828,203,1247,1638,1640,1247,227,207,176,1247,1247,227,518,176,176,176,
305,352,352,352,352,352,353,176,176,176,176,176,176,176,176,176,176,176,227,227,227,227,227,1247,1247,1247,1247,1247,1247,1323,1247,1247,1247,227,227,176,176,176,176,176,176,176,176,176,176,176,176,176,176,176,228,228,228,228,228,228,228,176,176,176,152,176,201,203,1247,1247,1247,1688,1690,1247,1247,176,1247,1247,1247,227,518,176,176,176,
352,352,352,352,352,305,353,176,176,176,176,176,176,227,227,227,227,227,227,227,1247,1247,1247,1247,1247,1247,1247,1247,1247,1247,1247,1247,227,227,227,176,176,176,176,176,176,176,176,176,176,176,176,176,208,228,228,176,176,176,176,176,176,176,176,176,176,201,203,1247,1247,1247,1247,1247,1247,1247,1247,1247,1247,1247,179,254,518,176,176,176,
352,352,352,352,352,352,353,352,176,152,176,176,176,1247,1247,227,227,227,1247,1247,1247,1247,1247,1247,1247,1274,1247,1325,1247,1247,1247,227,227,227,176,176,176,176,176,176,176,176,176,176,176,176,228,228,228,176,176,176,176,176,176,176,152,176,176,176,176,226,1247,1247,1247,1324,1247,1247,1247,1247,1247,179,252,252,254,176,518,176,176,176,
352,352,352,352,352,352,353,352,176,176,176,176,1231,1247,1247,1247,1247,1247,1247,1247,1247,1323,1247,1325,1247,1247,1247,1247,1247,227,227,227,176,176,176,176,176,176,176,176,176,176,176,176,176,228,228,176,176,176,176,176,176,176,176,176,326,327,328,176,176,226,1247,1247,1247,1247,1247,1247,1247,1247,179,254,176,176,176,176,176,176,176,176,
352,352,352,352,352,352,353,176,176,176,176,176,176,1247,1247,1247,1247,1247,1274,1247,1247,1273,1247,1247,1324,1247,1247,1247,227,227,227,176,176,176,176,176,176,176,176,176,152,176,176,176,228,228,176,176,176,176,176,176,176,176,176,326,329,352,353,176,176,226,1247,1247,1247,1247,1298,1247,1247,179,254,176,176,176,176,176,176,176,176,176,
352,352,352,306,352,352,353,176,176,176,176,176,176,176,1275,1247,1247,1247,1247,1324,1247,1247,1247,1247,1247,1247,227,227,227,227,176,176,176,176,176,176,176,176,176,176,176,176,176,228,207,228,176,176,176,176,151,176,326,327,327,329,352,352,353,176,176,251,252,253,1247,1247,1247,1247,179,254,176,176,176,176,176,176,176,176,176,176,
352,352,352,352,352,352,353,176,176,176,176,151,176,176,176,176,1275,1247,1247,1247,1247,1247,1247,1247,1247,227,227,227,176,176,176,176,176,176,176,176,151,176,176,176,176,176,176,228,228,176,176,176,176,176,176,326,329,352,352,352,352,354,378,176,176,176,176,251,252,252,252,252,254,176,176,176,176,176,176,176,176,176,176,176,
301,352,352,352,352,352,353,176,176,176,176,176,176,176,152,176,176,176,1275,1247,1247,1247,227,227,227,227,176,176,176,176,176,176,176,176,176,176,176,176,176,176,176,176,228,228,176,176,176,176,176,176,326,329,352,352,352,352,352,379,328,176,176,176,176,176,176,176,176,176,176,176,176,176,176,176,176,176,176,176,151,176,
352,306,352,352,352,352,353,176,176,176,176,152,176,176,176,176,176,176,227,227,227,227,227,176,176,176,176,176,176,176,176,176,176,176,176,176,176,176,176,176,176,176,228,228,176,176,176,176,176,326,329,352,352,352,352,352,352,352,379,327,328,176,176,176,176,176,176,176,176,176,176,176,176,176,176,176,176,176,176,176,
352,352,352,352,352,354,378,152,176,176,176,176,176,176,176,176,176,176,227,227,227,176,176,176,176,151,176,176,176,176,152,326,327,327,327,328,176,176,176,176,176,176,228,228,176,176,176,176,176,351,352,352,352,352,352,352,352,352,352,352,353,176,176,176,176,176,176,176,176,176,176,176,176,152,176,176,176,176,176,176,
352,352,352,352,354,378,176,176,176,176,176,176,176,176,176,176,176,152,176,176,176,176,176,176,176,176,176,176,176,326,327,329,352,352,352,379,328,176,176,176,176,228,228,176,176,176,176,176,176,351,352,352,352,352,352,352,352,2147484052,377,377,378,176,176,176,176,176,176,176,176,176,176,176,176,151,151,176,176,176,176,176,
352,352,352,352,353,176,176,176,176,176,176,176,176,176,176,151,176,176,176,176,176,176,176,176,326,327,327,327,327,329,352,352,352,352,352,352,353,176,176,152,176,228,228,176,176,176,176,176,176,351,352,352,352,352,352,2147484052,377,378,176,176,176,176,176,176,176,176,176,176,176,176,176,176,176,176,151,176,176,176,176,176,
352,352,352,305,353,176,176,176,176,176,176,176,176,176,176,176,176,176,176,176,176,176,176,326,329,352,352,352,352,352,352,352,352,352,352,354,378,151,176,176,176,228,228,176,176,176,176,176,176,376,404,352,352,352,2147484052,378,176,176,176,176,176,176,176,176,176,176,176,176,176,176,176,176,176,176,176,176,176,152,176,176,
352,352,352,352,353,176,176,176,176,176,176,176,176,176,176,176,176,176,176,176,176,176,176,351,352,352,352,352,352,352,352,352,352,352,354,378,176,176,176,176,176,228,228,228,176,176,176,176,176,176,376,377,377,377,378,176,176,151,176,176,176,176,176,176,176,176,176,176,176,176,176,176,176,176,176,176,393,176,176,176,
352,352,352,352,353,176,176,176,176,176,176,176,494,176,176,176,176,176,176,176,176,176,176,376,404,352,352,352,352,352,352,352,354,377,378,176,176,176,176,176,228,228,228,228,176,176,176,176,176,176,176,176,176,176,176,176,176,176,176,176,176,176,176,176,176,176,176,176,176,176,176,176,176,176,176,176,393,176,176,176,
352,352,352,352,353,176,176,176,176,151,176,176,176,176,176,176,176,176,176,176,176,151,176,176,376,377,377,377,377,377,377,377,378,176,176,176,176,176,176,176,228,228,208,228,176,176,176,176,176,176,176,176,151,176,176,176,176,176,176,176,151,176,176,176,176,176,176,176,176,176,176,176,176,176,176,176,176,176,176,176,
352,301,352,352,353,176,176,176,176,176,176,176,176,176,176,176,176,176,176,176,152,176,176,176,176,176,176,176,176,176,176,176,176,176,176,176,176,176,228,228,228,228,228,183,228,228,176,176,176,176,176,176,176,176,176,176,176,176,176,176,176,176,152,176,176,176,176,176,176,176,176,176,176,176,176,176,176,176,176,176,
352,352,352,352,379,328,176,176,176,176,152,176,176,176,176,176,176,176,176,176,176,228,228,228,228,228,228,228,228,228,228,228,228,228,228,228,228,228,228,228,228,228,228,228,228,228,228,176,176,176,176,176,176,176,176,176,176,176,228,228,228,228,228,228,228,228,228,228,228,228,176,151,176,176,176,176,176,176,176,176,
352,352,352,352,352,352,176,176,176,176,176,518,176,176,176,176,228,228,228,228,228,228,228,208,182,228,228,232,228,228,228,228,228,228,228,228,228,228,228,228,207,228,228,228,228,208,228,228,228,228,228,228,228,228,228,228,228,228,228,228,228,228,228,208,228,228,228,232,228,228,228,228,228,228,176,176,176,176,176,176,
352,352,306,352,352,352,353,176,176,176,176,518,176,431,431,529,530,431,431,431,431,431,431,431,431,431,431,431,431,431,431,431,431,431,431,431,431,431,431,431,431,431,431,431,431,431,431,431,431,431,431,431,431,431,431,431,431,431,431,431,431,431,431,431,431,431,431,431,431,431,431,431,431,2147484178,2147484177,176,176,176,176,176,
352,352,352,352,352,352,353,176,176,176,176,518,176,456,456,554,555,456,456,456,456,456,456,456,456,456,456,456,456,456,456,456,456,456,456,456,456,456,456,456,456,456,456,456,456,456,456,456,456,456,456,456,456,456,456,456,456,456,456,456,456,456,456,456,456,456,456,456,456,456,456,456,456,2147484203,2147484202,176,176,176,151,176,
352,352,352,352,301,352,353,176,176,176,176,518,176,353,176,228,228,228,207,228,183,228,228,228,228,228,228,228,228,228,228,228,228,228,228,228,228,228,228,228,228,228,228,232,228,228,228,228,228,228,228,228,228,228,228,228,228,228,182,228,207,228,228,228,228,228,228,228,228,228,228,228,228,228,228,176,176,176,176,176,
352,352,352,352,305,352,353,176,176,152,519,518,354,378,176,176,176,228,228,228,228,228,228,228,228,228,176,176,176,176,176,176,176,176,228,228,228,228,228,228,228,228,228,228,228,176,176,176,176,176,176,176,152,176,176,228,228,228,228,228,228,228,228,228,228,228,228,228,228,176,176,176,176,176,176,176,176,176,176,176,
352,352,352,352,352,352,378,176,151,176,519,352,353,176,176,176,176,176,176,176,176,176,176,176,176,176,176,176,176,176,176,176,176,176,176,176,176,176,176,176,176,176,176,176,176,176,151,176,176,176,176,176,176,176,176,176,176,176,176,176,176,176,176,176,176,176,176,176,176,176,176,176,176,176,176,176,176,176,176,176,
352,352,352,352,352,352,176,176,176,176,519,352,379,328,176,176,176,176,176,176,176,176,176,176,176,176,176,176,176,176,176,176,176,176,176,176,176,176,176,176,176,176,176,176,176,176,176,176,176,176,176,176,176,176,176,176,176,176,176,176,176,176,176,176,176,176,176,176,176,176,176,176,176,176,176,176,176,176,176,176,
352,352,352,352,176,176,176,176,176,176,519,176,176,176,176,176,176,176,176,176,176,176,176,176,176,176,176,176,176,176,176,176,176,176,176,176,176,176,176,176,176,176,176,176,176,176,176,176,176,176,176,176,176,176,176,176,176,176,176,176,176,176,176,176,176,176,176,176,176,176,176,176,176,176,176,176,176,176,176,176
</data>
 </layer>
 <layer id="2" name="Back2" width="80" height="40">
  <properties>
   <property name="Draw" value="Back"/>
  </properties>
  <data encoding="csv">
0,0,0,0,0,0,0,0,0,0,0,0,0,0,0,0,0,0,0,0,0,0,0,0,0,0,0,0,0,0,0,0,0,0,0,0,0,0,0,0,0,0,0,0,0,0,0,0,0,0,0,0,0,0,0,0,0,0,0,0,0,0,0,0,0,0,0,0,0,0,0,0,0,0,0,0,0,0,0,0,
0,0,0,0,0,0,0,0,0,0,0,0,0,0,0,0,0,0,0,0,0,0,0,0,0,0,0,0,0,0,0,0,0,0,0,0,0,0,0,0,0,0,0,0,0,0,0,0,0,0,0,0,0,0,0,0,0,0,0,0,0,0,0,0,0,0,0,0,0,0,0,0,0,0,0,0,0,0,0,0,
0,0,0,0,0,0,0,0,0,0,0,0,0,0,0,0,0,0,0,0,0,0,0,0,0,0,0,0,0,0,0,0,0,0,0,0,0,0,0,0,0,229,0,0,0,0,0,0,0,0,0,0,0,0,0,0,0,0,0,0,0,0,0,0,0,0,0,0,0,0,0,0,0,0,0,0,0,0,0,0,
0,0,0,0,0,0,0,0,0,0,0,0,0,0,0,0,0,0,0,0,0,0,0,0,0,0,0,0,0,0,0,0,0,0,0,0,0,0,0,0,0,229,0,0,0,0,0,0,0,0,0,0,0,0,0,0,0,0,0,0,0,0,0,0,0,0,0,0,0,0,0,0,0,0,0,0,0,0,0,0,
0,0,0,0,0,0,0,0,0,0,0,0,0,0,0,0,0,0,0,0,0,0,0,0,0,0,0,0,0,0,0,0,226,0,0,0,0,0,0,0,0,229,0,0,0,0,0,0,0,0,0,0,0,0,0,0,0,0,0,0,0,0,0,0,0,0,0,0,0,0,0,0,0,0,0,0,0,0,0,0,
0,0,0,0,0,0,0,0,0,0,0,0,0,0,0,0,0,0,0,0,0,0,0,0,0,0,0,0,0,0,0,201,203,0,0,0,0,0,0,0,179,254,0,0,0,0,0,0,0,0,0,0,0,0,0,0,0,0,0,0,0,0,0,0,0,0,0,0,0,0,0,0,0,0,0,0,0,0,0,0,
0,0,0,0,0,0,0,0,0,0,0,0,0,0,0,0,0,0,0,0,0,0,0,0,0,0,0,0,0,0,201,203,0,0,0,0,0,0,0,0,229,0,0,0,0,0,0,0,0,0,0,0,0,0,0,0,0,0,0,0,0,0,0,0,0,0,0,0,0,0,0,0,0,0,0,0,0,0,0,0,
0,0,0,0,0,0,0,0,0,0,0,0,0,0,0,0,0,0,0,0,0,0,0,0,0,0,0,0,0,201,203,0,0,0,0,0,0,0,0,4635,4636,0,0,0,0,0,0,0,0,0,0,0,0,0,0,0,0,0,0,0,0,0,0,0,0,0,0,0,0,0,0,0,0,0,544,0,0,0,0,0,
0,0,0,0,0,0,0,0,0,0,0,0,0,0,0,0,0,0,0,0,0,0,0,0,0,0,0,0,201,203,0,0,0,0,0,0,0,0,0,4645,4646,4647,0,0,0,0,0,0,0,0,0,0,0,0,0,0,0,0,0,0,0,0,0,0,0,0,0,0,0,0,0,0,0,0,0,0,0,0,0,0,
0,0,0,0,0,0,0,0,0,0,0,0,0,0,0,0,0,0,0,0,0,0,0,0,0,0,0,201,203,0,0,0,0,0,0,0,0,0,179,254,4656,4657,4658,0,0,0,0,0,0,0,0,0,0,0,0,0,0,0,0,0,0,0,0,0,0,0,0,0,0,0,0,0,0,0,0,0,0,0,0,0,
0,0,0,0,0,0,0,0,0,0,0,0,0,0,0,0,0,0,0,0,0,0,0,0,0,201,202,203,0,0,0,0,0,0,0,0,0,179,254,0,0,0,0,0,0,0,0,0,0,0,0,0,0,0,0,0,0,0,0,201,4597,0,0,0,0,0,0,0,0,0,0,0,0,0,0,544,0,0,0,0,
0,0,0,0,0,0,0,0,0,0,0,0,0,0,0,0,0,0,0,0,0,0,0,0,201,203,0,0,0,0,0,0,0,0,0,0,0,229,0,0,0,0,0,0,0,0,0,0,0,0,0,0,0,0,0,0,0,201,202,203,229,0,0,0,0,0,0,0,0,0,0,0,0,0,0,0,0,0,0,0,
0,0,0,0,0,0,0,0,0,0,0,0,0,0,0,0,0,0,0,0,0,0,201,202,203,0,0,0,0,0,0,0,0,0,0,0,179,254,0,0,0,0,0,0,0,0,0,0,0,0,0,0,0,0,0,201,202,203,0,179,254,0,0,0,0,0,0,0,0,0,0,0,0,0,0,0,0,0,0,0,
0,0,0,0,0,0,0,0,0,0,0,0,0,0,0,0,0,0,0,0,201,202,203,0,0,0,0,0,0,0,0,0,0,0,0,179,254,0,0,0,0,0,0,0,0,0,0,0,0,201,202,2147483850,202,2147483850,202,203,0,179,252,254,0,0,0,0,0,0,0,0,0,0,0,0,0,0,0,0,0,0,0,0,
0,0,0,0,0,0,0,0,0,0,0,0,0,0,0,0,0,201,2147483850,202,203,0,0,0,0,0,0,0,0,0,0,0,0,0,179,254,0,0,0,0,0,0,0,0,0,0,0,201,202,203,179,252,253,179,252,252,252,254,0,0,0,0,0,0,0,0,0,0,0,0,0,0,0,0,0,0,0,0,0,0,
0,0,0,0,0,0,0,0,0,0,0,0,0,2147483850,202,2147483850,202,203,0,0,0,0,0,0,0,0,0,0,0,0,0,0,0,0,229,0,0,0,0,0,0,0,0,0,0,0,201,203,0,179,254,0,251,254,0,0,0,0,0,0,0,0,0,0,0,0,0,0,0,0,0,0,0,0,0,0,0,0,0,0,
0,0,0,0,0,0,0,0,0,0,0,0,227,0,0,0,0,0,0,0,0,0,0,0,0,0,0,0,0,0,0,0,179,252,254,0,0,0,0,0,0,0,0,0,0,201,203,179,252,254,0,0,0,0,0,0,0,0,0,0,0,0,0,0,0,0,0,0,0,0,0,0,0,0,0,0,544,0,0,0,
0,0,0,0,0,0,0,0,0,0,0,0,227,0,0,0,0,0,0,0,0,0,0,0,0,0,0,0,0,0,0,179,254,0,0,0,0,0,0,0,0,0,0,0,201,203,179,254,0,0,0,0,0,0,0,0,0,0,0,0,0,0,0,0,0,0,0,0,0,0,0,0,0,0,0,0,0,0,0,0,
0,0,0,0,0,0,0,0,0,0,0,0,0,0,0,0,0,0,0,0,0,0,0,0,0,0,0,0,0,0,179,254,0,0,0,0,0,0,0,0,0,0,0,201,203,179,254,0,0,0,0,0,0,0,0,0,0,0,0,0,0,0,0,0,0,0,0,0,0,0,0,0,0,0,0,0,0,0,0,0,
0,0,0,0,0,0,0,0,0,0,0,0,0,0,0,0,0,0,0,0,0,0,0,0,0,0,0,0,179,252,254,0,0,0,0,0,0,0,0,0,0,0,0,226,0,229,0,0,0,0,0,0,0,0,0,0,0,0,0,0,0,0,0,0,0,0,0,0,0,0,0,0,0,0,0,0,0,0,0,0,
0,0,0,0,0,0,0,0,0,0,0,0,0,0,0,0,0,0,0,0,0,0,0,0,0,0,179,252,254,0,0,0,0,0,0,0,0,0,0,0,0,0,201,203,179,254,0,0,0,0,0,0,0,0,0,0,0,0,0,0,0,0,0,0,0,0,0,0,0,0,0,0,0,0,0,0,0,0,0,0,
0,0,0,0,0,0,0,0,0,0,0,0,0,0,0,0,0,0,0,0,0,0,0,179,252,252,254,0,0,0,0,0,0,0,0,0,0,0,0,0,0,0,226,179,254,0,0,0,0,0,0,0,0,0,0,0,0,0,0,0,0,0,0,0,0,0,0,0,0,0,0,0,0,0,0,0,0,0,0,0,
0,0,0,0,0,0,0,0,0,0,0,0,0,0,0,0,0,0,0,0,0,179,252,254,0,0,0,0,0,0,0,0,0,0,0,0,0,0,0,0,0,0,226,229,0,0,0,0,0,0,0,0,0,0,0,0,0,0,0,0,0,0,0,0,0,0,0,0,0,0,0,0,0,0,0,0,0,0,0,0,
0,0,0,0,0,0,0,0,0,0,0,0,0,0,0,0,0,0,252,252,252,254,0,0,0,0,0,0,0,0,0,0,0,0,0,0,0,0,0,0,0,201,203,229,0,0,0,0,0,0,0,0,0,0,0,0,0,0,0,0,0,0,0,0,0,0,0,0,0,0,0,0,0,0,0,0,0,0,0,0,
0,0,0,0,0,0,0,0,0,0,0,0,0,0,0,0,0,0,0,0,0,0,0,0,0,0,0,0,0,0,0,0,0,0,0,0,0,0,0,0,0,226,179,254,0,0,0,0,0,0,0,0,0,0,0,0,0,0,0,0,0,0,0,0,0,0,0,0,0,0,0,0,0,0,0,0,0,0,0,0,
0,0,0,0,0,0,0,0,0,0,0,0,0,0,0,0,0,0,0,0,0,0,0,0,0,0,0,0,0,0,0,0,0,0,0,0,0,0,0,0,0,226,229,0,0,0,0,0,0,0,0,0,0,0,0,0,0,0,0,0,0,0,0,0,0,0,0,0,0,0,0,0,0,0,0,0,0,0,0,0,
0,0,0,0,0,0,0,0,0,0,0,0,0,0,0,0,0,0,0,0,0,0,0,0,0,0,0,0,0,0,0,0,0,0,0,0,0,0,0,0,0,226,229,0,0,0,0,0,0,0,0,0,0,0,0,0,0,0,0,0,0,0,0,0,0,0,0,0,0,0,0,0,0,0,0,0,0,0,0,0,
0,0,0,0,0,0,0,0,0,0,0,0,0,0,0,0,0,0,0,0,0,0,0,0,0,0,0,0,0,0,0,0,0,0,0,0,0,0,0,0,0,226,178,204,0,0,0,0,0,0,0,0,0,0,0,0,0,0,0,0,0,0,0,0,0,0,0,0,0,0,0,0,0,0,0,0,0,0,0,0,
0,0,0,0,0,0,0,0,0,0,0,0,0,0,0,0,0,0,0,0,0,0,0,0,0,0,0,0,0,0,0,0,0,0,0,0,0,0,0,0,201,203,0,229,0,0,0,0,0,0,0,0,0,0,0,0,0,0,0,0,0,0,0,0,0,0,0,0,0,0,0,0,0,0,0,0,0,0,0,0,
0,0,0,0,0,0,0,0,0,0,0,0,0,0,0,0,0,0,0,0,0,0,0,0,0,0,0,0,0,0,0,0,0,0,0,0,0,0,0,0,226,0,0,178,2147483850,2147483849,0,0,0,0,0,0,0,0,0,0,0,0,0,0,0,0,0,0,0,0,0,0,0,0,0,0,0,0,0,0,0,0,0,0,
0,0,0,0,0,0,0,0,0,0,0,0,0,0,0,0,0,0,0,0,0,0,0,0,0,0,0,0,0,0,0,0,0,0,0,0,0,0,201,202,203,0,0,0,0,178,204,0,0,0,0,0,0,0,0,0,0,0,0,0,0,0,0,0,0,0,0,0,0,0,0,0,0,0,0,0,0,0,0,0,
0,0,0,0,0,0,0,0,0,0,0,0,0,0,0,0,0,0,0,0,0,201,180,181,2147483829,2147483828,180,181,2147483829,2147483828,180,181,2147483829,2147483828,180,181,2147483829,2147483828,203,0,0,0,0,0,0,0,178,204,0,0,0,0,0,0,0,0,0,0,201,180,181,2147483829,2147483828,180,181,2147483829,2147483828,180,2147483828,204,0,0,0,0,0,0,0,0,0,0,
0,0,0,0,0,0,0,0,0,0,0,0,0,0,0,2147483850,202,2147483850,202,2147483850,202,203,0,0,0,0,0,0,0,0,0,0,0,0,0,0,0,0,0,0,0,0,0,0,0,0,0,178,2147483850,180,181,2147483829,2147483828,180,181,2147483829,2147483828,202,203,0,0,0,0,0,0,0,0,0,0,2147483851,2147483850,202,2147483850,202,0,0,0,0,0,0,
0,0,0,0,0,0,0,0,0,0,0,0,0,0,0,0,0,0,0,0,0,0,0,0,0,0,0,0,0,0,0,0,0,0,0,0,0,0,0,0,0,0,0,0,0,0,0,0,0,0,0,0,0,0,0,0,0,0,0,0,0,0,0,0,0,0,0,0,0,0,0,0,0,0,0,0,0,0,0,0,
0,0,0,0,0,0,0,0,0,0,0,0,0,0,0,0,0,0,0,0,0,0,0,0,0,0,0,0,0,0,0,0,0,0,0,0,0,0,0,0,0,0,0,0,0,0,0,0,0,0,0,0,0,0,0,0,0,0,0,0,0,0,0,0,0,0,0,0,0,0,0,0,0,0,0,0,0,0,0,0,
0,0,0,0,0,0,0,0,0,0,0,0,0,0,0,252,252,253,0,0,0,0,0,0,0,179,252,252,252,252,252,252,252,252,253,0,0,0,0,0,0,0,0,0,179,252,252,252,253,179,252,252,252,252,252,253,0,0,0,0,0,0,0,0,0,0,0,0,179,252,252,252,252,252,252,0,0,0,0,0,
0,0,0,0,0,0,0,0,0,0,0,0,0,0,0,0,0,2147483902,252,252,252,252,252,252,252,254,0,0,0,0,0,0,0,0,2147483902,252,252,252,252,252,252,252,252,252,254,0,0,0,2147483902,254,0,0,0,0,0,2147483902,252,252,252,252,252,252,252,252,252,252,252,252,254,0,0,0,0,0,0,0,0,0,0,0,
0,0,0,0,0,0,0,0,0,0,0,601,0,0,0,0,0,0,0,0,0,0,0,0,0,0,0,0,0,0,0,0,0,0,0,0,0,0,0,0,0,0,0,0,0,0,0,0,0,0,0,0,0,0,0,0,0,0,0,0,0,0,0,0,0,0,0,0,0,0,0,0,0,0,0,0,0,0,0,0,
0,0,0,0,0,0,0,0,0,0,0,0,0,0,0,0,0,0,0,0,0,0,0,0,0,0,0,0,0,0,0,0,0,0,0,0,0,0,0,0,0,0,0,0,0,0,0,0,0,0,0,0,0,0,0,0,0,0,0,0,0,0,0,0,0,0,0,0,0,0,0,0,0,0,0,0,0,0,0,0,
0,0,0,0,0,0,0,0,0,0,0,0,0,0,0,0,0,0,0,0,0,0,0,0,0,0,0,0,0,0,0,0,0,0,0,0,0,0,0,0,0,0,0,0,0,0,0,0,0,0,0,0,0,0,0,0,0,0,0,0,0,0,0,0,0,0,0,0,0,0,0,0,0,0,0,0,0,0,0,0
</data>
 </layer>
 <layer id="3" name="Back3" width="80" height="40">
  <properties>
   <property name="Draw" value="Back"/>
  </properties>
  <data encoding="csv">
0,0,0,0,0,0,0,0,0,0,0,0,0,0,0,0,0,0,0,0,0,0,0,0,0,0,0,0,0,0,0,0,0,0,0,0,0,0,0,0,0,0,0,0,0,0,0,0,0,0,0,0,0,0,0,0,0,0,0,0,0,0,0,0,0,0,0,0,0,0,0,0,0,0,0,0,0,0,0,0,
0,0,0,0,0,0,0,0,0,0,0,0,0,0,0,0,0,0,0,0,0,0,0,0,0,0,0,0,0,0,0,0,0,0,0,0,0,0,0,0,0,0,0,0,0,0,0,0,0,0,0,0,0,0,0,0,0,0,0,0,0,0,0,0,0,0,0,0,0,0,0,0,0,0,0,0,0,0,0,0,
0,0,0,0,0,0,0,0,0,0,0,0,0,0,0,0,0,0,0,0,0,0,0,0,0,0,0,0,0,0,0,0,0,0,0,0,0,0,0,0,0,0,0,0,0,0,0,0,0,0,0,0,0,0,0,0,0,0,0,0,0,0,0,0,0,0,0,0,0,0,0,0,0,0,0,0,0,0,0,0,
0,0,0,0,0,0,0,0,0,0,0,0,0,0,0,0,0,0,0,0,0,0,0,0,0,0,0,0,0,0,0,0,0,0,0,0,0,0,0,0,0,0,0,0,0,0,0,0,0,0,0,0,0,0,0,0,0,755,0,0,0,0,0,0,0,0,0,0,0,0,0,0,0,0,0,0,0,0,0,0,
0,0,0,0,0,0,0,0,0,0,0,0,0,0,0,0,0,0,0,0,0,0,0,0,0,0,0,0,0,0,0,0,0,0,0,0,0,0,0,0,0,0,0,0,0,0,0,0,0,0,0,0,0,0,0,0,0,755,0,0,0,0,0,0,0,0,0,0,0,0,184,0,0,0,0,0,0,0,0,0,
0,0,0,0,0,0,0,0,0,0,0,0,0,0,0,0,0,0,0,0,0,0,0,0,0,0,0,0,0,0,0,0,0,0,0,0,0,0,0,0,0,0,0,0,0,0,0,0,0,0,0,0,0,0,0,0,0,756,0,0,0,0,0,0,0,0,0,0,0,0,259,0,0,0,0,0,0,0,0,0,
0,0,0,0,0,0,0,0,0,0,0,0,0,0,0,0,0,0,0,0,0,0,0,0,0,0,0,0,0,0,0,0,0,0,0,0,0,0,0,0,0,0,0,0,0,0,0,0,0,0,0,0,0,0,0,0,0,0,0,0,0,0,0,0,0,0,0,0,0,0,0,213,0,0,0,0,0,0,0,0,
0,0,0,0,0,0,0,0,0,0,0,0,0,0,0,0,0,0,0,0,0,0,0,0,0,0,0,0,0,0,0,0,0,0,0,0,0,0,0,0,0,0,0,0,0,0,0,0,0,0,0,0,0,0,0,0,0,0,0,0,0,0,0,0,0,0,0,0,0,0,0,0,0,0,0,0,0,0,0,0,
0,0,0,0,0,0,0,0,0,0,0,0,0,0,0,0,0,0,0,0,0,0,0,0,0,0,0,0,0,0,0,0,0,0,0,0,0,0,0,0,0,0,0,0,0,0,0,0,0,0,0,0,0,0,0,0,0,0,0,0,0,0,0,0,0,0,0,0,0,0,0,0,0,0,0,0,0,0,0,0,
0,0,0,0,0,0,0,0,0,0,0,0,0,0,0,0,0,0,0,0,0,0,0,0,0,0,0,0,0,0,0,0,0,0,0,0,0,0,0,0,0,0,0,0,0,0,0,0,0,0,0,0,0,0,0,0,0,0,0,0,0,0,0,0,0,0,0,0,0,0,0,0,0,0,0,0,0,0,0,0,
0,0,0,0,0,0,0,0,0,0,0,0,0,0,0,0,0,0,0,0,0,0,0,0,0,0,0,0,0,0,0,0,0,0,0,0,0,0,0,0,0,0,0,0,0,0,0,0,0,0,0,0,0,0,0,0,0,0,0,0,0,0,0,0,0,0,0,0,0,0,0,0,0,0,0,0,0,0,0,0,
0,0,0,0,0,0,0,0,0,0,0,0,0,0,0,0,0,0,0,0,0,0,0,0,0,0,0,0,0,0,0,0,0,0,0,0,0,0,0,0,0,0,0,0,0,0,0,0,0,0,0,0,0,0,0,0,0,0,0,0,0,0,0,0,0,0,0,0,0,0,0,0,0,0,0,0,0,0,0,0,
0,0,0,0,0,0,0,0,0,0,0,0,0,0,0,0,0,0,0,0,0,0,0,0,0,0,0,0,0,0,0,0,0,0,0,0,0,0,0,0,0,0,0,0,0,0,0,0,0,0,0,0,0,0,0,0,0,0,0,0,0,0,0,0,0,0,0,0,0,0,0,0,0,0,0,0,0,0,0,0,
0,0,0,0,0,0,0,0,0,0,0,0,0,0,0,0,0,0,0,0,0,0,0,0,0,0,0,0,0,0,0,0,0,0,0,0,0,0,0,0,0,0,0,0,0,0,0,0,0,0,0,0,0,0,0,0,0,0,0,0,0,0,0,0,0,0,0,0,0,0,0,0,0,0,0,0,0,0,0,0,
0,0,0,0,0,0,0,0,0,0,0,0,0,0,0,0,0,0,0,0,0,0,0,0,0,0,0,0,0,0,0,0,0,0,0,0,0,0,0,0,0,0,0,0,0,0,0,0,0,0,0,0,0,0,0,0,0,0,0,0,0,0,0,0,0,0,0,0,0,0,0,0,0,0,0,0,0,0,0,0,
0,0,0,0,0,0,0,0,0,0,0,0,0,0,0,0,0,0,0,0,0,0,0,0,0,0,0,0,0,0,0,0,0,0,0,0,0,0,0,0,0,0,0,0,0,0,0,0,0,0,0,0,0,0,0,0,0,0,0,0,0,0,0,0,0,0,0,0,0,0,0,0,0,0,0,0,0,0,0,0,
0,0,0,0,0,0,0,0,0,0,0,0,0,0,0,0,0,0,0,0,0,0,0,0,0,0,0,0,0,0,0,0,0,0,0,0,0,0,0,0,0,0,0,0,0,0,0,0,0,0,0,0,0,0,0,0,0,0,0,0,0,0,0,0,0,0,0,0,0,0,0,0,0,0,0,0,0,0,0,0,
0,0,0,0,0,0,0,0,0,0,0,0,0,0,0,0,0,0,0,0,0,0,0,0,0,0,0,0,0,0,0,0,0,0,0,0,0,0,0,0,0,0,0,0,0,0,0,0,0,0,0,0,0,0,0,0,0,0,0,0,0,0,0,0,0,0,0,0,0,0,0,0,0,0,0,0,0,0,0,0,
0,0,0,0,0,0,0,0,0,0,0,0,0,0,0,0,0,0,0,0,0,0,0,0,0,0,0,0,0,0,0,0,0,0,0,0,0,0,0,0,0,0,0,0,0,0,0,0,0,0,0,0,0,0,0,0,0,0,0,0,0,0,0,0,0,0,0,0,0,0,0,0,0,0,0,0,0,0,0,0,
0,0,0,0,0,0,0,0,0,0,0,0,0,0,0,0,0,0,0,0,0,0,0,0,0,0,0,0,0,0,0,0,0,0,0,0,0,0,0,0,0,0,0,0,0,0,0,0,0,0,0,0,0,0,0,0,0,0,0,0,0,0,0,0,0,0,0,0,0,0,0,0,0,0,0,0,0,0,0,0,
0,0,0,0,0,0,0,0,0,0,0,0,0,0,0,0,0,0,0,0,0,0,0,0,0,0,0,0,0,0,0,0,0,0,0,0,0,0,0,0,0,0,0,0,0,0,0,0,0,0,0,0,0,0,0,0,0,0,0,0,0,0,0,0,0,0,0,0,0,0,0,0,0,0,0,0,0,0,0,0,
0,0,0,0,0,0,0,0,0,0,0,0,0,0,0,0,0,0,0,0,0,0,0,0,0,0,0,0,0,0,0,0,0,0,0,0,0,0,0,0,0,0,0,0,0,0,0,0,0,0,0,0,0,0,0,0,0,0,0,0,0,0,0,0,0,0,0,0,0,0,0,0,0,0,0,0,0,0,0,0,
0,0,0,0,0,0,0,0,0,0,0,0,0,0,0,0,0,0,0,0,0,0,0,0,0,0,0,0,0,0,0,0,0,0,0,0,0,0,0,0,0,0,0,0,0,0,0,0,0,0,0,0,0,0,0,0,0,0,0,0,0,0,0,0,0,0,0,0,0,0,0,0,0,0,0,0,0,0,0,0,
0,0,0,0,0,0,0,0,0,0,0,0,0,0,0,0,0,0,0,0,0,0,0,0,0,0,0,0,0,0,0,0,0,0,0,0,0,0,0,0,0,0,0,0,0,0,0,0,0,0,0,0,0,0,0,0,0,0,0,0,0,0,0,0,0,0,0,0,0,0,0,0,0,0,0,0,0,0,0,0,
0,0,0,0,0,0,0,0,0,0,0,0,0,0,0,0,0,0,0,0,0,0,0,0,0,0,0,0,0,0,0,0,0,0,0,0,0,0,0,0,0,0,0,0,0,0,0,0,0,0,0,0,0,0,0,0,0,0,0,0,0,0,0,0,0,0,0,0,0,0,0,0,0,0,0,0,0,0,0,0,
0,0,0,0,0,0,0,0,0,0,0,0,0,0,0,0,0,0,0,0,0,0,0,0,0,0,0,0,0,0,0,0,0,0,0,0,0,0,0,0,0,0,0,0,0,0,0,0,0,0,0,0,0,0,0,0,0,0,0,0,0,0,0,0,0,0,0,0,0,0,0,0,0,0,0,0,0,0,0,0,
0,0,0,0,0,0,0,0,0,0,0,0,0,0,0,0,0,0,0,0,0,0,0,0,0,0,0,0,0,0,0,0,0,0,0,0,0,0,0,0,0,0,0,0,0,0,0,0,0,0,0,0,0,0,0,0,0,0,0,0,0,0,0,0,0,0,0,0,0,0,0,0,0,0,0,0,0,0,0,0,
0,0,0,0,0,0,0,0,0,0,0,0,0,0,0,0,0,0,0,0,0,0,0,0,0,0,0,0,0,0,0,0,0,0,0,0,0,0,0,0,0,0,0,0,0,0,0,0,0,0,0,0,0,0,0,0,0,0,0,0,0,0,0,0,0,0,0,0,0,0,0,0,394,0,0,0,0,0,0,0,
0,0,0,0,0,0,0,0,0,0,0,0,0,0,0,0,0,0,0,0,0,0,0,0,0,0,0,0,0,0,0,0,0,0,0,0,0,0,0,0,0,0,0,0,0,0,0,0,0,0,0,0,0,0,0,0,0,0,0,0,0,0,0,0,0,0,0,0,0,0,0,0,394,0,0,0,0,0,0,0,
0,0,0,0,0,0,0,0,0,0,0,0,0,0,0,0,0,0,0,0,0,0,0,0,0,0,0,0,0,0,0,0,0,0,0,0,0,0,0,0,0,0,0,0,0,0,0,0,0,0,0,0,0,0,0,0,0,0,0,0,0,0,0,0,394,0,0,0,0,0,0,0,394,0,0,0,0,0,0,0,
0,0,0,0,0,0,0,0,0,0,0,0,0,0,0,0,0,0,0,0,0,0,0,0,0,0,0,0,0,0,0,0,0,0,0,0,0,0,0,0,0,0,0,0,0,0,0,0,0,0,0,0,0,0,0,0,0,0,0,0,0,0,0,0,0,0,0,0,0,0,0,0,546,0,0,0,0,0,0,0,
0,0,0,0,0,0,0,0,0,0,0,0,0,0,0,0,0,0,0,0,0,0,0,0,0,0,0,0,0,0,0,0,0,0,0,0,0,0,0,0,0,0,0,0,0,0,0,0,0,0,0,0,0,0,0,0,0,0,0,0,0,0,0,0,0,0,0,0,0,0,0,0,0,0,0,0,0,0,0,0,
0,0,0,0,0,0,0,0,0,0,0,0,0,0,0,0,0,0,0,0,0,0,0,0,0,0,0,0,0,0,0,0,0,0,0,0,0,0,0,0,0,0,0,0,0,0,0,0,0,0,0,0,0,0,0,0,0,0,0,0,0,0,0,0,0,0,0,0,0,0,0,0,0,0,0,0,0,0,0,0,
0,0,0,0,0,0,0,0,0,0,0,0,0,0,0,0,0,0,0,0,0,0,0,0,0,0,0,0,0,0,0,0,0,0,0,0,0,0,0,0,0,0,0,0,0,0,0,0,0,0,0,0,0,0,0,0,0,0,0,0,0,0,0,0,0,0,0,0,0,0,0,0,0,0,0,0,0,0,0,0,
0,0,0,0,0,0,0,0,0,0,0,0,0,0,0,0,0,0,0,0,0,0,0,0,0,0,0,0,0,0,0,0,0,0,0,0,0,0,0,0,0,0,0,0,0,0,0,0,0,0,0,0,0,0,0,0,0,0,0,0,0,0,0,0,0,0,0,0,0,0,0,0,0,0,0,0,0,0,0,0,
0,0,0,0,0,0,0,0,0,0,0,0,0,0,0,0,0,0,0,0,0,0,0,0,0,0,0,0,0,0,0,0,0,0,0,0,0,0,0,0,0,0,0,0,0,0,0,0,0,0,0,0,0,0,0,0,0,0,0,0,0,0,0,0,0,0,0,0,0,0,0,0,0,0,0,0,0,0,0,0,
0,0,0,0,0,0,0,0,0,0,0,0,0,0,0,0,0,0,0,0,0,0,0,0,0,0,0,0,0,0,0,0,0,0,0,0,0,0,0,0,0,0,0,0,0,0,0,0,0,0,0,0,0,0,0,0,0,0,0,0,0,0,0,0,0,0,0,0,0,0,0,0,0,0,0,0,0,0,0,0,
0,0,0,0,0,0,0,0,0,0,0,0,0,0,0,0,0,0,0,0,0,0,0,0,0,0,0,0,0,0,0,0,0,0,0,0,0,0,0,0,0,0,0,0,0,0,0,0,0,0,0,0,0,0,0,0,0,0,0,0,0,0,0,0,0,0,0,0,0,0,0,0,0,0,0,0,0,0,0,0,
0,0,0,0,0,0,0,0,0,0,0,0,0,0,0,0,0,0,0,0,0,0,0,0,0,0,0,0,0,0,0,0,0,0,0,0,0,0,0,0,0,0,0,0,0,0,0,0,0,0,0,0,0,0,0,0,0,0,0,0,0,0,0,0,0,0,0,0,0,0,0,0,0,0,0,0,0,0,0,0,
0,0,0,0,0,0,0,0,0,0,0,0,0,0,0,0,0,0,0,0,0,0,0,0,0,0,0,0,0,0,0,0,0,0,0,0,0,0,0,0,0,0,0,0,0,0,0,0,0,0,0,0,0,0,0,0,0,0,0,0,0,0,0,0,0,0,0,0,0,0,0,0,0,0,0,0,0,0,0,0
</data>
 </layer>
 <layer id="4" name="Buildings" width="80" height="40">
  <data encoding="csv">
0,0,0,0,0,0,0,0,0,0,0,0,0,0,0,0,0,0,0,0,0,0,0,0,0,0,0,0,0,0,0,0,0,0,0,0,0,0,0,0,0,0,0,0,0,0,0,0,0,0,0,0,0,0,0,0,0,0,0,0,0,0,0,0,0,0,0,0,0,0,0,0,0,0,0,0,0,0,0,0,
0,0,0,0,0,0,0,0,0,0,0,0,0,0,0,0,0,0,0,0,0,0,0,0,0,0,0,0,0,0,0,0,0,0,0,0,0,0,0,0,0,0,0,0,0,0,0,0,0,0,0,0,0,0,0,0,0,0,0,0,0,0,0,0,0,0,0,0,0,0,0,0,0,0,0,0,0,0,0,0,
0,0,0,0,0,0,0,0,0,0,0,0,0,0,0,0,0,0,0,0,0,0,0,0,0,0,0,0,0,0,0,0,0,0,0,0,0,0,0,211,0,0,0,0,0,0,0,0,0,0,0,0,0,0,0,0,0,0,0,0,0,0,0,0,0,0,0,0,0,0,0,0,0,0,0,0,0,0,0,0,
0,0,0,0,0,0,0,0,0,0,0,0,0,0,0,0,0,0,0,0,0,0,0,0,0,0,0,0,0,0,0,0,0,0,0,184,284,0,0,261,0,0,0,0,0,0,0,0,0,0,0,0,0,0,258,0,0,934,0,0,0,0,0,0,0,0,0,0,0,0,0,0,0,442,0,0,0,0,0,0,
0,0,0,0,0,0,0,0,0,0,0,0,0,0,0,0,0,0,0,0,0,0,0,0,0,0,0,0,0,0,0,0,0,0,0,209,0,1319,239,0,0,0,0,0,0,0,0,0,0,0,0,0,0,308,0,258,0,959,1498,4536,4537,4538,4539,4540,4541,4542,0,0,0,0,0,0,0,467,392,0,0,0,0,0,
0,0,0,0,0,0,0,0,0,0,0,0,0,0,0,0,0,0,0,0,0,0,0,0,0,0,0,0,0,0,0,0,0,0,184,284,0,0,261,0,0,0,0,0,0,0,0,0,0,0,0,0,0,0,308,0,0,0,1523,4546,4547,4548,4549,4550,4551,4552,0,0,0,0,259,0,0,492,417,0,0,0,0,0,
0,0,0,0,0,0,0,0,0,0,0,0,0,0,0,0,0,0,0,0,0,0,0,0,0,0,0,0,0,0,0,0,0,184,284,0,0,239,0,0,4639,0,0,0,0,0,0,0,0,0,0,169,170,258,0,0,1523,1496,1497,4556,4557,4558,4559,4560,4561,4562,258,258,0,0,0,259,0,517,442,0,0,0,0,0,
0,0,0,0,0,0,0,0,0,0,0,0,0,0,0,0,0,0,0,0,0,0,0,0,0,0,0,0,0,0,0,0,0,209,0,0,0,236,0,0,0,4637,4638,4639,0,0,0,0,0,0,0,0,384,385,386,0,0,1521,1522,4566,4567,4568,4569,4570,4571,4572,258,258,0,308,258,412,234,236,467,392,0,137,0,0,
0,0,0,0,0,0,0,391,415,439,0,0,0,0,0,0,0,0,0,0,0,0,0,0,0,0,0,0,0,0,0,0,184,284,0,1294,0,261,0,0,0,0,4648,0,0,0,0,0,0,0,0,0,0,0,0,0,0,0,0,4576,4577,4578,4579,4580,4581,4582,144,145,0,0,308,387,234,236,492,417,0,0,0,0,
0,0,0,0,0,0,0,0,0,420,0,0,0,0,0,0,0,0,0,0,0,0,0,0,0,0,0,0,0,0,0,184,284,0,0,0,239,0,0,4655,0,0,0,0,0,169,170,0,0,0,0,0,0,0,0,0,0,384,385,4586,4587,4588,258,308,258,0,169,170,0,308,0,412,234,236,517,417,0,0,0,0,
0,0,0,0,0,0,0,0,0,365,0,0,0,0,0,0,0,0,0,0,0,0,0,0,0,0,0,0,0,184,185,284,0,0,0,0,261,0,0,0,0,0,4639,0,0,0,0,0,0,0,0,0,0,0,0,0,0,0,0,149,0,149,0,0,0,0,0,0,0,0,258,412,259,285,186,392,0,0,0,0,
0,0,0,0,0,0,0,0,0,0,2147484086,0,0,0,0,0,0,0,0,0,0,0,0,0,0,0,0,0,184,284,0,0,0,0,0,214,0,0,0,0,0,0,0,0,0,0,0,0,0,0,0,0,0,0,0,0,0,0,0,0,0,0,0,384,385,385,385,385,386,0,0,437,0,238,236,417,0,0,0,0,
0,0,0,0,127,0,0,137,0,0,0,391,439,0,0,0,0,0,0,0,0,0,0,0,0,0,0,184,284,0,0,0,0,0,214,0,0,0,0,0,0,0,0,0,0,0,0,0,0,0,0,0,0,0,0,0,0,0,0,0,0,0,0,0,0,0,0,0,0,0,0,0,0,234,236,442,0,0,0,0,
0,0,0,0,0,0,0,0,0,0,0,0,395,0,0,0,0,0,0,0,0,0,0,0,0,184,185,284,0,0,0,0,0,214,0,0,0,0,0,0,0,0,0,0,0,0,0,0,0,0,0,0,0,0,0,0,0,0,0,0,0,0,0,0,0,0,184,0,0,186,0,0,184,284,236,467,392,158,159,0,
0,0,0,0,0,0,0,0,0,0,0,0,420,0,0,0,0,0,0,0,0,0,0,184,185,284,0,0,0,0,0,0,214,0,0,0,0,0,0,0,0,0,0,0,0,0,0,0,0,0,0,0,0,0,0,0,0,0,0,0,0,0,0,0,184,185,187,0,0,285,185,185,284,310,261,492,417,0,0,0,
0,0,0,0,0,0,0,0,0,0,0,0,395,0,0,0,0,0,0,0,184,185,185,284,0,0,0,0,0,1294,0,214,0,0,0,0,0,0,0,0,0,0,0,0,0,0,0,0,0,0,0,0,0,0,0,0,0,0,0,0,0,0,0,184,187,0,1319,1713,1715,0,1294,260,260,261,0,517,392,0,0,0,
0,0,0,137,0,0,0,105,0,0,0,0,420,184,186,0,0,0,184,185,284,0,0,0,1294,0,0,0,0,260,214,0,0,0,0,0,0,0,0,0,0,0,0,0,0,0,0,0,0,0,0,0,0,0,0,0,0,0,0,0,0,0,184,187,0,0,0,0,0,0,214,0,0,0,0,542,417,176,0,0,
0,0,0,0,0,0,0,130,0,0,0,0,365,284,285,185,185,185,284,0,0,0,0,0,0,0,0,0,214,0,0,0,0,0,0,0,0,0,0,0,0,0,0,0,0,0,0,0,0,0,0,0,0,0,0,0,0,0,0,0,0,0,234,0,1319,0,0,1294,0,214,0,0,0,0,0,0,416,176,0,0,
0,0,0,0,0,0,0,0,0,0,158,159,0,2147484086,0,0,0,0,0,0,0,0,0,0,0,0,260,214,0,0,0,0,0,0,0,0,0,0,0,0,0,0,0,0,0,0,0,0,0,0,0,0,0,0,0,0,0,0,0,0,0,0,259,260,2147483958,0,0,0,214,0,0,158,159,0,0,0,0,176,137,0,
0,0,0,0,0,0,0,0,0,0,0,0,0,0,391,439,0,0,0,0,0,0,0,0,0,214,0,0,0,0,0,0,0,0,0,0,0,0,0,0,0,0,0,0,0,0,0,0,0,0,0,0,0,0,0,0,0,0,0,0,0,0,0,0,259,260,260,214,0,0,0,0,0,0,0,0,176,176,0,0,
0,127,0,0,0,0,0,0,0,0,0,0,0,0,0,413,414,415,439,0,1319,0,260,260,214,0,0,0,0,0,0,0,0,0,0,0,0,0,0,0,0,0,0,0,0,0,0,0,0,0,0,0,0,0,0,0,0,0,0,0,0,0,0,0,0,0,0,0,0,0,0,0,0,0,0,0,176,176,0,0,
0,0,0,0,0,0,0,0,0,0,0,0,0,130,0,0,0,0,420,260,260,214,0,0,0,0,0,0,0,0,0,0,0,0,0,0,0,0,0,0,0,0,0,0,0,0,0,0,0,0,0,0,0,0,0,0,0,0,0,0,0,0,0,0,0,0,0,0,0,0,0,0,0,0,0,0,176,0,0,0,
0,0,0,0,0,158,159,0,0,0,0,0,0,0,0,0,0,0,420,0,0,0,0,0,0,0,0,0,0,0,0,0,0,0,0,0,0,0,0,0,0,0,0,0,0,0,0,0,0,0,0,0,0,0,0,0,0,0,0,0,292,384,385,435,385,435,385,385,385,435,385,386,0,0,416,176,176,0,0,0,
0,0,0,0,0,0,0,0,0,0,0,0,0,137,0,0,0,0,420,0,0,0,0,0,0,0,0,0,0,0,0,0,0,0,0,0,0,0,0,0,0,0,0,0,0,0,0,0,0,0,0,0,0,169,170,0,0,0,0,0,392,1124,0,0,0,0,0,0,0,118,219,220,0,0,176,176,176,0,0,0,
0,0,0,105,0,0,0,0,0,127,0,0,0,0,0,0,127,0,395,0,0,0,0,0,0,0,0,0,0,0,0,0,0,0,0,0,0,0,0,0,0,0,0,0,0,0,0,0,0,0,0,0,0,0,0,0,0,0,0,0,417,0,0,0,0,0,0,0,0,0,0,0,0,0,176,0,0,0,0,0,
0,0,0,130,0,0,0,0,0,0,0,0,0,0,0,0,0,0,445,0,0,0,0,0,0,0,0,0,0,0,0,0,0,0,0,0,0,0,0,0,0,0,0,0,0,0,0,0,0,0,0,0,0,0,0,0,0,0,0,0,442,0,0,0,0,0,0,0,0,0,0,0,442,176,176,0,0,0,0,0,
0,0,0,0,0,0,0,0,0,0,0,0,0,137,0,0,426,469,470,0,0,0,0,0,0,0,0,0,0,0,0,0,0,0,0,0,0,0,0,0,0,0,0,0,0,0,0,0,0,0,0,0,0,0,0,0,0,0,0,0,467,469,468,469,468,300,0,0,0,0,0,0,467,468,469,291,292,0,0,0,
0,0,0,0,0,0,0,0,0,0,0,0,295,296,468,469,451,2147483969,495,0,0,0,0,0,0,0,0,0,0,0,169,170,0,0,0,0,0,0,0,0,0,0,0,0,0,0,0,0,0,0,0,0,0,0,0,0,0,0,0,0,492,494,493,494,493,325,468,469,468,469,468,469,492,493,493,316,442,0,0,0,
0,137,0,0,0,0,0,0,0,0,137,0,395,493,393,321,346,321,520,0,0,0,0,0,0,158,159,0,0,0,0,0,0,0,0,0,0,0,0,0,0,0,0,0,0,0,0,0,0,0,0,0,0,0,0,0,0,0,0,0,517,518,519,519,519,493,493,494,493,494,493,494,517,493,518,515,467,292,158,159,
0,0,0,0,0,0,0,0,0,0,0,0,426,494,428,429,430,346,495,0,0,0,0,0,0,0,0,0,0,0,0,0,0,0,0,0,0,0,0,0,0,0,0,0,0,0,0,0,0,0,0,0,0,0,0,0,0,0,0,0,542,543,544,543,517,519,518,519,518,519,518,519,492,647,648,649,650,317,0,0,
0,0,0,0,0,0,158,159,0,0,0,295,451,452,453,454,455,519,520,0,0,0,0,0,0,0,0,0,0,0,0,0,0,0,0,0,0,0,0,0,0,0,0,0,0,0,0,0,0,0,0,0,0,0,0,0,0,0,0,0,0,0,0,0,542,543,543,544,543,544,543,544,517,672,673,674,675,342,0,0,
0,0,0,0,0,0,0,0,0,0,0,320,476,477,478,479,480,2147484188,545,0,0,0,0,0,0,0,0,0,0,0,0,0,0,0,0,0,0,0,0,0,0,0,0,0,0,0,0,0,0,0,0,0,0,0,0,0,0,0,0,0,0,0,0,0,0,0,0,0,0,0,0,0,542,697,698,699,700,317,0,0,
0,0,0,127,0,0,0,0,0,0,0,445,501,502,503,504,505,0,0,0,0,0,0,0,0,0,0,0,0,0,0,0,0,0,0,0,0,0,0,0,0,0,0,0,0,0,0,0,0,0,0,0,0,0,0,0,0,0,0,0,0,0,0,0,0,0,0,0,0,0,0,0,0,722,723,724,725,342,0,0,
0,0,0,0,0,0,0,0,0,0,295,470,526,527,528,0,0,0,0,0,0,0,0,0,0,0,0,0,0,0,0,0,0,0,0,0,0,0,0,0,0,0,0,0,0,0,0,0,0,0,0,0,0,0,0,0,0,0,0,0,0,0,0,0,0,0,0,0,0,0,0,0,0,0,0,749,750,342,0,137,
0,0,0,0,0,0,0,0,105,0,320,495,551,552,553,0,0,0,0,0,0,0,0,0,0,0,0,0,0,0,0,0,0,0,0,0,0,0,0,0,0,0,0,0,0,0,0,0,0,0,0,0,0,0,0,0,0,0,0,0,0,0,0,0,0,0,0,0,0,0,0,0,0,0,0,774,775,317,0,0,
0,0,0,0,0,0,0,0,130,0,345,520,576,577,578,0,0,0,0,0,0,0,0,0,0,0,0,0,0,0,0,0,0,0,0,0,0,0,0,0,0,0,0,0,0,0,0,0,0,0,0,0,0,0,0,0,0,0,0,0,0,0,0,0,0,0,0,0,0,0,0,0,0,0,0,799,800,342,0,0,
0,0,0,0,0,137,0,0,0,0,370,2147484165,601,0,0,0,0,0,0,0,0,0,0,0,0,0,0,0,0,0,0,0,0,0,0,0,0,0,0,0,0,0,0,0,0,0,0,0,0,0,0,0,0,0,0,0,0,0,0,0,0,0,0,0,0,0,0,0,0,0,0,0,0,0,0,0,0,367,0,0,
0,0,0,0,0,0,0,0,0,0,445,495,0,0,0,0,0,0,0,0,0,0,0,0,0,0,0,0,0,0,0,0,0,0,0,0,0,0,0,0,0,0,0,0,0,0,0,0,0,158,159,0,0,0,0,0,0,0,0,0,0,0,0,0,0,0,0,0,0,0,0,0,0,0,0,0,0,0,0,0,
0,0,0,0,0,0,0,0,0,295,470,520,0,0,0,0,0,0,0,0,0,0,0,0,0,0,0,0,0,0,0,0,0,0,0,0,0,0,0,0,0,0,0,0,0,0,0,0,0,0,0,0,0,0,0,0,0,0,0,0,0,0,0,0,0,0,0,0,0,0,0,0,0,0,0,0,0,0,0,0,
0,0,0,0,0,0,0,0,0,320,0,601,0,0,0,0,0,0,0,0,0,0,0,0,0,0,0,0,0,0,0,0,0,0,0,0,0,0,0,0,0,0,0,0,0,0,0,0,0,0,0,0,0,0,0,0,0,0,0,0,0,0,0,0,0,0,0,0,0,0,0,0,0,0,0,0,0,0,0,0
</data>
 </layer>
 <layer id="5" name="Buildings2" width="80" height="40">
  <properties>
   <property name="Draw" value="Buildings"/>
  </properties>
  <data encoding="csv">
0,0,0,0,0,0,0,947,947,947,947,947,947,947,947,947,947,947,947,947,947,947,947,947,947,947,947,947,947,947,947,947,947,947,947,947,947,947,947,947,947,947,947,947,947,947,947,947,947,947,947,947,947,947,947,947,947,947,947,947,947,947,947,947,947,947,947,947,947,947,947,947,947,947,947,947,947,947,947,947,
0,0,0,0,0,0,0,947,947,947,947,947,947,947,947,947,947,947,947,947,947,947,947,947,947,947,947,947,947,947,947,947,947,947,947,947,947,947,947,947,947,947,947,0,0,0,0,0,0,0,0,0,0,947,947,947,947,947,947,947,947,947,947,947,947,947,947,947,947,947,947,947,947,947,947,947,947,947,947,947,
0,0,0,0,0,0,0,947,947,947,947,947,947,947,947,947,0,0,0,0,947,947,947,947,947,947,947,947,947,947,947,947,947,947,947,947,947,0,0,0,0,0,0,0,0,0,0,0,0,0,0,0,0,0,0,0,947,947,947,947,947,947,947,947,947,947,947,947,947,947,947,947,947,947,947,947,947,947,947,947,
0,0,0,0,0,0,0,947,947,947,947,947,947,947,0,0,0,0,0,0,0,0,0,0,0,0,947,947,947,947,947,947,947,947,0,0,0,0,0,0,0,0,0,0,0,0,0,0,0,0,0,0,0,0,0,0,0,0,947,947,947,947,947,947,947,947,947,947,947,947,947,947,947,947,947,947,947,947,947,947,
0,0,0,0,0,0,0,947,947,947,947,947,947,0,0,0,0,0,0,0,0,0,0,0,0,0,0,0,0,0,0,0,0,0,0,0,0,0,0,0,0,0,0,0,0,0,0,0,0,0,0,0,0,0,0,0,0,0,0,0,947,947,947,947,947,947,947,947,947,947,0,3924,3927,0,0,0,0,0,947,947,
0,0,0,0,0,0,0,947,947,947,947,0,0,0,0,0,0,0,0,0,0,0,0,0,0,0,0,0,0,0,0,0,0,0,0,0,0,0,0,0,0,0,0,0,0,0,0,0,0,0,0,0,0,0,0,0,0,0,0,0,0,0,947,947,947,947,947,947,0,0,0,3960,3963,0,0,0,0,0,0,947,
0,0,0,0,0,0,0,947,947,947,0,0,0,0,0,0,0,0,0,0,0,0,0,0,0,0,0,0,0,0,0,0,0,0,0,0,0,0,0,0,0,0,0,0,0,0,0,0,0,0,0,0,0,0,0,0,0,0,0,0,0,0,0,0,0,0,0,0,0,0,0,412,3999,0,0,0,4609,0,0,0,
0,0,0,0,0,0,0,947,0,0,0,0,0,0,0,0,0,0,0,0,0,0,0,0,0,0,0,0,0,0,0,0,0,0,0,0,0,0,0,0,0,0,0,0,0,0,0,0,0,0,0,0,0,0,0,0,0,0,0,0,0,0,0,0,0,0,0,0,0,0,0,0,0,542,0,0,0,0,0,0,
0,0,0,0,0,0,0,0,0,0,0,0,0,0,0,0,0,0,0,0,0,0,0,0,0,0,0,0,0,0,0,0,0,0,0,0,0,0,0,0,0,0,0,0,0,0,0,0,0,0,0,0,0,0,0,0,0,359,360,0,0,0,0,0,0,0,0,0,0,0,0,0,0,0,0,0,0,0,0,0,
0,0,0,0,0,0,0,0,0,0,0,0,0,0,0,0,0,0,0,0,0,0,0,0,0,0,0,0,0,0,0,0,0,0,0,0,0,0,0,0,0,0,0,0,0,0,0,0,0,0,0,0,0,0,0,0,0,0,0,124,0,124,0,0,0,0,0,0,0,0,0,0,0,0,0,0,0,0,0,0,
0,0,0,0,0,0,0,0,0,0,0,0,0,0,0,0,0,0,0,0,0,0,0,0,0,0,0,0,0,0,0,0,0,0,0,0,0,0,0,0,0,0,0,0,0,0,0,0,0,0,0,0,0,0,0,0,0,0,0,0,0,0,0,0,0,0,0,0,0,0,0,0,0,0,542,0,0,0,0,0,
0,0,0,0,0,0,0,0,0,0,0,0,0,0,0,0,0,0,0,0,0,0,0,0,0,0,0,0,0,0,0,0,0,0,0,0,0,0,0,0,0,0,0,0,0,0,0,0,0,0,0,0,0,0,0,0,0,0,0,0,0,0,0,0,0,0,0,0,0,0,0,0,0,0,0,0,0,0,0,0,
0,0,0,0,0,0,0,0,0,0,0,0,0,0,0,0,0,0,0,0,0,0,0,0,0,0,0,0,0,0,0,0,0,0,0,0,0,0,0,0,0,0,0,0,0,0,0,0,0,0,0,0,0,0,0,0,0,0,0,0,0,0,0,0,0,0,0,0,0,0,0,0,0,0,0,0,0,0,0,0,
0,0,0,0,0,0,0,0,0,0,0,0,0,0,0,0,0,0,0,0,0,0,0,0,0,0,0,0,0,0,0,0,0,0,0,0,0,0,0,0,0,0,0,0,0,0,0,0,0,0,0,0,0,0,0,0,0,0,0,0,0,0,0,0,0,0,1637,0,0,0,0,0,0,0,0,0,0,0,0,0,
0,0,0,0,0,0,0,0,0,0,0,0,0,0,0,0,0,0,0,0,0,0,0,0,0,0,0,0,0,0,0,0,0,0,0,0,0,0,0,0,0,0,0,0,0,0,0,0,0,0,0,0,0,0,0,0,0,0,0,0,0,0,0,0,0,0,1687,0,0,1691,0,0,0,0,0,0,0,0,0,0,
0,0,0,0,0,0,0,0,0,0,0,0,0,0,0,0,0,0,0,0,0,0,0,0,0,0,0,0,0,0,0,0,0,0,0,0,0,0,0,0,0,0,0,0,0,0,0,0,0,0,0,0,0,0,0,0,0,0,0,0,0,0,0,0,0,0,2147485364,0,0,1716,0,0,0,0,0,0,0,0,0,0,
0,0,0,0,0,0,0,0,0,0,0,0,0,0,0,0,0,0,0,0,0,0,0,0,0,0,0,0,0,0,0,0,0,0,0,0,0,0,0,0,0,0,0,0,0,0,0,0,0,0,0,0,0,0,0,0,0,0,0,0,0,0,0,0,0,0,0,0,0,0,0,0,0,0,0,0,0,0,0,0,
0,0,0,0,0,0,0,0,0,0,0,0,0,0,0,0,0,0,0,0,0,0,0,0,0,0,0,0,0,0,0,0,0,0,0,0,0,0,0,0,0,0,0,0,0,0,0,0,0,0,0,0,0,0,0,0,0,0,0,0,0,0,0,0,0,0,0,0,0,0,0,0,0,0,0,0,0,2147488263,0,0,
0,0,0,0,0,0,0,0,0,0,0,0,0,0,0,0,0,0,0,0,0,0,0,0,0,0,0,0,0,0,0,0,0,0,0,0,0,0,0,0,0,0,0,0,0,0,0,0,0,0,0,0,0,0,0,0,0,0,0,0,0,0,0,0,0,0,0,0,0,0,0,0,0,0,0,0,0,0,0,0,
0,0,0,0,0,0,0,0,0,0,0,0,0,0,0,0,0,0,0,0,0,0,0,0,0,0,0,0,0,0,0,0,0,0,0,0,0,0,0,0,0,0,0,0,0,0,0,0,0,0,0,0,0,0,0,0,0,0,0,0,0,0,0,0,0,0,0,0,0,0,0,0,0,0,0,0,0,0,0,0,
0,0,0,0,0,0,0,0,0,0,0,0,0,0,0,0,0,0,0,0,0,0,0,0,0,0,0,0,0,0,0,0,0,0,0,0,0,0,0,0,0,0,0,0,0,0,0,0,0,0,0,0,0,0,0,0,0,0,0,0,0,0,0,0,0,0,0,0,0,0,0,0,0,0,0,0,0,0,0,0,
0,0,0,0,0,0,0,0,0,0,0,0,0,0,0,0,0,0,0,0,0,0,0,0,0,0,0,0,0,0,0,0,0,0,0,0,0,0,0,0,0,0,0,0,0,0,0,0,0,0,0,0,0,0,0,0,0,0,0,0,0,0,0,0,0,0,0,0,0,0,0,0,0,0,0,0,0,0,0,0,
0,0,0,0,0,0,0,0,0,0,0,0,0,0,0,0,0,0,0,0,0,0,0,0,0,0,0,0,0,0,0,0,0,0,0,0,0,0,0,0,0,0,0,0,0,0,0,0,0,0,0,0,0,0,0,0,0,0,0,0,0,0,0,0,0,0,0,0,0,0,0,0,0,0,0,0,0,0,0,0,
0,0,0,0,0,0,0,0,0,0,0,0,0,0,0,0,0,0,0,0,0,0,0,0,0,0,0,0,0,0,0,0,0,0,0,0,0,0,0,0,0,0,0,0,0,0,0,0,0,0,0,0,0,0,0,0,0,0,0,0,0,0,0,0,0,0,2147488253,0,0,0,0,0,0,0,0,0,0,0,0,0,
0,0,0,0,0,0,0,0,0,0,0,0,0,0,0,0,0,0,0,0,0,0,0,0,0,0,0,0,0,0,0,0,0,0,0,0,0,0,0,0,0,0,0,0,0,0,0,0,0,0,0,0,0,0,0,0,0,0,0,0,0,4619,0,2147488282,0,0,0,0,0,0,0,0,0,0,0,0,0,0,0,0,
0,0,0,0,0,0,0,0,0,0,0,0,0,0,0,0,0,0,0,0,0,0,0,0,0,0,0,0,0,0,0,0,0,0,0,0,0,0,0,0,0,0,0,0,0,0,0,0,0,0,0,0,0,0,0,0,0,0,0,0,0,0,0,0,0,2147488257,0,4603,0,0,0,4629,0,0,0,0,0,0,0,0,
0,0,0,0,0,0,0,0,0,0,0,0,0,0,0,0,0,0,0,0,0,0,0,0,0,0,0,0,0,0,0,0,0,0,0,0,0,0,0,0,0,0,0,0,0,0,0,0,0,0,0,0,0,0,0,0,0,0,0,0,0,0,0,0,0,0,0,0,0,0,0,0,0,0,0,0,0,0,0,0,
0,0,0,0,0,0,0,0,0,0,0,0,0,0,0,0,0,0,0,0,0,0,0,0,0,0,0,0,0,0,0,0,0,0,0,0,0,0,0,0,0,0,0,0,0,0,0,0,0,0,0,0,0,0,0,0,0,0,0,0,0,0,0,0,0,0,0,0,0,0,0,0,0,0,0,0,0,0,0,0,
0,0,0,0,0,0,0,0,0,4634,0,0,0,0,0,0,0,0,0,0,0,0,0,0,0,0,0,0,0,0,0,0,0,0,0,0,0,0,0,0,0,0,0,0,0,0,0,0,0,0,0,0,0,0,0,0,0,0,0,0,0,0,0,0,0,0,0,0,0,0,0,0,0,0,0,0,0,0,0,0,
0,0,0,0,0,0,0,0,0,0,0,0,0,0,0,0,0,0,0,0,0,0,0,0,0,0,0,0,0,0,0,0,0,0,0,0,0,0,0,0,0,0,0,0,0,0,0,0,0,0,0,0,0,0,0,0,0,0,0,0,0,0,0,0,0,0,0,0,0,0,0,0,0,0,0,0,0,0,0,0,
0,0,0,0,0,0,0,0,0,0,0,0,0,0,0,0,0,0,0,0,0,0,0,0,0,0,0,0,0,0,0,0,0,0,0,0,0,0,0,0,0,0,0,0,0,0,0,0,0,0,0,0,0,0,0,0,0,0,0,0,0,0,0,0,0,0,0,0,0,0,0,0,0,0,0,0,0,0,0,0,
0,0,0,0,0,0,0,0,0,0,0,0,0,0,0,0,0,0,0,0,0,0,0,0,0,0,0,0,0,0,0,0,0,0,0,0,0,0,0,0,0,0,0,0,0,0,0,0,0,0,0,0,0,0,0,0,0,0,0,0,0,0,0,0,0,0,0,0,0,0,0,0,0,0,0,0,0,0,0,0,
0,0,0,0,0,0,0,0,0,0,0,0,0,0,0,0,0,0,0,0,0,0,0,0,0,0,0,0,0,0,0,0,0,0,0,0,0,0,0,0,0,0,0,0,0,0,0,0,0,0,0,0,0,0,0,0,0,0,0,0,0,0,0,0,0,0,0,0,0,0,0,0,0,0,0,0,0,0,0,0,
0,0,0,0,0,0,0,0,0,0,0,0,0,0,0,0,0,0,0,0,0,0,0,0,0,0,0,0,0,0,0,0,0,0,0,0,0,0,0,0,0,0,0,0,0,0,0,0,0,0,0,0,0,0,0,0,0,0,0,0,0,0,0,0,0,0,0,0,0,0,0,0,0,0,0,0,0,0,0,0,
0,0,0,0,0,0,0,0,0,0,0,0,0,0,0,0,0,0,0,0,0,0,0,0,0,0,0,0,0,0,0,0,0,0,0,0,0,0,0,0,0,0,0,0,0,0,0,0,0,0,0,0,0,0,0,0,0,0,0,0,0,0,0,0,0,0,0,0,0,0,0,0,0,0,0,0,0,0,0,0,
0,0,0,0,0,0,0,0,0,0,0,0,0,0,0,0,0,0,0,0,0,0,0,0,0,0,0,0,0,0,0,0,0,0,0,0,0,0,0,0,0,0,0,0,0,0,0,0,0,0,0,0,0,0,0,0,0,0,0,0,0,0,0,0,0,0,0,0,0,0,0,0,0,0,0,0,0,0,0,0,
0,0,0,0,0,0,0,0,0,0,0,0,0,0,0,0,0,0,0,0,0,0,0,0,0,0,0,0,0,0,0,0,0,0,0,0,0,0,0,0,0,0,0,0,0,0,0,0,0,0,0,0,0,0,0,0,0,0,0,0,0,0,0,0,0,0,0,0,0,0,947,947,947,0,0,0,0,0,0,947,
0,0,0,0,0,0,0,0,0,0,0,0,0,0,0,0,0,0,0,0,0,0,0,0,0,0,0,0,0,0,0,0,0,947,947,947,947,947,0,0,0,0,0,0,0,0,0,0,0,0,0,0,0,0,0,0,0,0,0,0,0,0,0,0,0,0,0,0,947,947,947,947,947,947,947,947,947,0,947,947,
0,0,0,0,0,0,0,947,0,0,0,0,0,0,0,0,947,947,947,947,947,0,0,0,0,0,0,0,0,947,947,947,947,947,947,947,947,947,947,947,947,947,947,0,0,0,0,0,0,0,0,0,947,947,947,947,947,947,947,0,0,0,0,947,947,947,947,947,947,947,947,947,947,947,947,947,947,947,947,947,
0,0,0,0,0,0,0,947,947,947,947,947,947,947,947,947,947,947,947,947,947,947,947,947,947,947,947,947,947,947,947,947,947,947,947,947,947,947,947,947,947,947,947,947,947,947,947,947,947,947,947,947,947,947,947,947,947,947,947,947,947,947,947,947,947,947,947,947,947,947,947,947,947,947,947,947,947,947,947,947
</data>
 </layer>
 <layer id="6" name="Paths" width="80" height="40">
  <data encoding="csv">
0,0,0,0,0,0,0,0,0,0,0,0,0,0,0,0,0,0,0,0,0,0,0,0,0,0,0,0,0,0,0,0,0,0,0,0,0,0,0,0,0,0,0,0,0,0,0,0,0,0,0,0,0,0,0,0,0,0,0,0,0,0,0,0,0,0,0,0,0,0,0,0,0,0,0,0,0,0,0,0,
0,0,0,0,0,0,0,0,0,0,0,0,0,0,0,0,0,0,0,0,0,0,0,0,0,0,0,0,0,0,0,0,0,0,0,0,0,0,0,0,0,0,0,0,0,0,0,0,0,0,0,0,0,0,0,0,0,0,0,0,0,0,0,0,0,0,0,0,0,0,0,0,0,0,0,0,0,0,0,0,
0,0,0,0,0,0,0,0,0,0,0,0,0,0,0,0,0,0,0,0,0,0,0,0,0,0,0,0,0,0,0,0,0,0,0,0,0,0,0,0,0,0,0,0,0,0,0,0,0,0,0,0,0,0,0,0,0,0,0,0,0,0,0,0,0,0,0,0,0,0,0,0,0,0,0,0,0,0,0,0,
0,0,0,0,0,0,0,0,0,0,0,0,0,0,0,0,0,0,0,0,0,0,0,0,0,0,0,0,0,0,0,0,0,0,0,0,0,0,0,0,0,0,0,0,0,0,0,0,0,0,0,0,0,0,0,0,0,0,0,0,0,0,0,0,0,0,0,0,0,0,0,0,0,0,0,0,0,0,0,0,
0,0,0,0,0,0,0,0,0,0,0,0,0,0,0,0,0,0,0,1986,0,0,0,0,0,0,0,0,0,0,0,0,0,0,0,0,0,0,0,0,0,0,0,0,0,0,0,0,0,0,0,0,0,0,0,0,0,0,0,0,0,0,0,0,0,0,0,0,0,0,0,0,0,0,0,0,0,0,0,0,
0,0,0,0,0,0,0,0,0,0,0,0,0,0,0,0,0,0,0,0,0,0,0,0,0,0,0,0,0,0,0,0,0,0,0,0,2003,0,0,0,0,0,0,1986,0,0,0,0,0,0,0,0,0,0,0,0,0,0,0,0,0,0,0,0,0,0,0,0,0,0,0,0,0,0,0,0,0,0,0,0,
0,0,0,0,0,0,0,0,0,0,0,0,0,1986,0,0,0,0,0,0,0,0,0,0,0,0,0,1985,0,0,0,0,0,0,0,0,0,0,0,0,1984,0,0,0,0,0,0,0,0,0,0,0,0,0,0,0,0,0,0,0,0,0,0,0,0,0,0,0,0,0,0,0,2003,0,0,0,0,0,0,0,
0,0,0,0,0,0,0,0,0,0,0,0,0,0,0,0,0,0,0,0,0,0,0,0,0,0,0,0,0,0,0,0,0,0,0,0,0,0,0,0,0,0,0,1984,0,0,0,0,0,0,0,0,0,0,0,0,0,0,0,0,0,0,0,0,0,0,0,0,0,0,0,0,0,0,0,0,0,0,0,0,
0,0,0,0,0,0,0,0,0,0,0,0,0,0,0,0,1987,0,0,0,0,0,1987,0,0,0,0,0,0,0,0,0,0,0,0,0,0,0,0,0,0,0,0,0,0,0,0,0,0,0,0,0,0,0,0,0,0,0,0,0,0,0,0,0,0,0,0,0,1998,0,0,0,0,0,0,0,0,0,0,0,
0,0,0,0,0,0,0,0,0,0,0,0,0,0,0,0,0,0,0,0,0,0,0,0,0,0,0,0,0,0,0,0,0,0,0,0,0,0,0,0,0,0,0,0,0,0,0,0,0,0,0,0,0,0,0,0,1985,0,0,0,0,0,0,0,0,0,0,0,0,0,0,0,0,0,0,0,0,0,0,0,
0,0,0,0,0,0,0,0,0,0,0,0,0,0,0,0,0,0,0,0,0,0,0,0,0,0,0,0,0,0,0,0,0,2003,0,0,0,0,0,0,0,0,1984,0,0,0,0,0,0,0,0,0,0,0,0,0,0,1998,0,0,0,0,0,0,0,0,0,0,0,0,0,0,0,0,0,0,0,0,0,0,
0,0,0,0,0,0,0,0,0,0,0,0,0,0,1985,0,0,0,0,0,0,0,0,0,0,0,0,0,0,0,0,0,0,0,0,0,0,0,0,0,0,0,0,0,0,0,0,0,0,0,0,1987,0,0,0,0,0,0,0,0,0,0,0,0,0,0,0,0,0,0,1998,0,0,2003,0,0,0,0,0,0,
0,0,0,0,0,0,0,0,0,0,0,0,0,0,0,0,0,0,0,0,0,0,0,0,0,0,0,0,0,0,0,0,0,0,0,0,0,0,0,0,0,0,0,0,0,0,0,0,0,0,0,0,0,0,0,0,0,0,0,0,0,0,0,1998,0,0,0,0,0,0,0,0,0,0,0,0,0,0,0,0,
0,0,0,0,0,0,0,0,0,0,0,0,0,0,0,0,0,1987,0,0,0,0,0,0,0,0,0,0,0,0,0,0,0,0,0,0,0,0,0,0,0,0,0,0,0,0,0,0,0,0,0,0,0,0,0,0,0,0,0,0,0,1998,0,0,0,0,0,0,0,0,0,0,0,0,0,0,0,0,0,0,
0,0,0,0,0,0,0,0,0,0,0,0,0,0,0,0,0,0,0,0,0,0,0,0,0,0,0,0,0,0,0,0,0,0,0,0,0,0,1986,0,0,0,0,0,0,0,0,0,0,0,0,0,0,0,0,0,0,0,0,0,0,0,0,0,0,0,0,0,0,0,0,0,0,0,0,0,0,0,0,0,
0,0,0,0,0,0,0,0,0,0,0,0,0,0,0,0,0,0,0,0,0,0,0,0,0,0,0,0,2003,0,0,0,0,0,0,0,0,0,0,0,0,0,0,1985,0,0,0,0,0,0,0,0,0,0,0,0,0,0,0,0,0,0,0,0,0,0,0,0,0,0,0,0,0,0,0,0,0,0,0,0,
0,0,0,0,0,0,0,0,0,0,0,0,0,0,0,0,0,0,0,0,0,0,0,0,0,0,0,0,0,0,0,0,0,0,0,0,0,0,0,0,0,0,0,0,0,0,0,0,0,0,0,0,0,0,0,0,0,0,1986,0,0,0,0,0,0,0,0,2003,0,0,0,0,0,0,0,0,0,0,0,0,
0,0,0,0,0,0,0,0,0,0,0,0,0,0,0,0,0,0,0,0,0,0,0,0,0,0,0,0,0,0,0,0,0,0,0,0,0,0,0,0,0,0,0,0,0,0,0,0,0,0,0,0,0,0,0,0,0,0,0,0,0,0,0,0,0,0,0,0,0,0,0,0,0,0,0,0,0,0,0,0,
0,0,0,0,0,0,0,0,0,0,0,0,0,0,0,0,0,0,0,0,0,0,2003,0,0,0,0,0,0,0,0,0,0,0,0,0,0,0,0,0,0,0,0,0,0,0,0,0,0,0,1987,0,0,0,0,0,0,0,0,0,0,0,0,0,0,0,0,0,0,0,0,0,0,0,1998,0,0,0,0,0,
0,0,0,0,0,0,0,0,0,0,0,0,0,0,0,0,0,0,0,0,0,0,0,0,0,0,0,0,0,0,0,0,0,0,1985,0,0,0,0,0,0,0,0,0,0,0,0,0,0,0,0,0,0,0,0,0,0,0,0,0,0,0,0,0,0,0,0,0,0,0,0,0,1998,0,0,0,0,0,0,0,
0,0,0,0,0,0,0,0,0,0,0,0,0,0,0,0,0,0,0,0,0,0,0,0,0,0,0,0,0,0,0,0,0,0,0,0,0,0,0,0,0,0,0,0,0,0,0,0,0,0,0,0,0,0,0,0,0,0,0,0,0,0,0,0,0,0,0,0,0,0,1998,0,0,0,0,0,0,0,0,0,
0,0,0,0,0,0,0,0,0,0,0,0,0,0,0,0,0,0,0,0,0,0,0,0,0,0,0,0,0,0,0,0,0,0,0,0,0,0,0,1987,0,0,0,0,0,0,0,0,0,0,0,0,0,0,0,0,0,0,0,0,0,0,0,0,0,0,0,0,0,0,0,0,0,0,0,0,0,0,0,0,
0,0,0,0,0,0,0,0,0,0,0,0,0,0,0,0,0,0,0,0,0,0,0,0,0,0,0,0,0,0,0,0,0,0,0,0,0,0,0,0,0,0,0,0,0,1985,0,0,0,0,0,0,0,0,0,0,0,0,0,0,0,0,0,0,0,0,0,0,0,0,0,0,0,0,0,0,0,0,0,0,
0,0,0,0,0,0,0,0,0,0,0,0,0,0,0,0,0,0,0,0,0,0,0,0,0,0,0,0,1986,0,0,0,0,0,0,0,0,0,0,0,0,0,0,0,0,0,0,0,0,0,0,0,0,0,0,0,0,0,0,0,0,0,0,0,0,0,0,2001,0,0,0,0,0,0,0,0,0,0,0,0,
0,0,0,0,0,0,0,0,0,0,0,0,0,0,0,0,0,0,0,0,0,0,0,0,0,0,0,0,0,0,0,0,0,0,0,0,0,0,0,0,0,0,0,0,0,0,0,0,0,0,0,0,0,0,0,0,0,0,0,0,0,0,1985,0,0,0,0,0,0,0,0,0,0,0,0,0,0,0,0,0,
0,0,0,0,0,0,0,0,0,0,0,0,0,0,0,0,0,0,0,0,1986,0,0,0,0,0,0,0,0,0,0,0,0,0,0,0,0,0,0,0,0,0,0,0,0,0,0,0,0,0,0,0,0,0,0,0,0,0,0,0,0,0,0,0,0,0,0,0,0,0,1987,0,0,0,0,0,0,0,0,0,
0,0,0,0,0,0,0,0,0,0,0,0,0,0,0,0,0,0,0,0,0,0,0,0,0,0,0,0,0,0,0,0,0,0,0,0,0,0,0,0,0,0,0,0,0,0,0,0,0,0,0,0,0,0,0,0,0,0,0,0,0,0,0,0,0,0,0,0,0,0,0,0,0,0,0,0,0,0,0,0,
0,0,0,0,0,0,0,0,0,0,0,0,0,0,0,0,0,0,0,0,0,0,0,0,0,0,0,0,0,0,0,0,0,0,0,0,0,0,0,0,0,0,0,0,1987,0,0,0,1986,0,0,0,0,0,0,0,0,0,0,0,0,0,0,0,0,0,0,0,0,0,0,0,0,0,0,0,0,0,0,0,
0,0,0,0,0,0,0,0,0,0,0,0,0,0,0,0,0,0,0,0,0,0,0,0,0,0,0,0,0,0,0,0,0,0,0,0,0,1985,0,0,0,0,0,0,0,0,0,0,0,0,0,0,0,0,0,0,0,0,0,0,0,0,0,0,0,0,0,0,0,0,0,0,0,0,0,0,0,0,0,0,
0,0,0,0,0,0,0,0,0,0,0,0,0,0,0,0,0,0,0,0,0,1987,0,0,0,0,0,0,0,0,0,0,0,0,0,0,0,0,0,0,0,0,0,0,0,0,0,0,0,0,0,0,0,0,1985,0,0,0,0,0,0,0,0,0,0,0,0,0,0,0,0,0,0,0,0,0,0,0,0,0,
0,0,0,0,0,0,0,0,0,0,0,0,0,0,0,0,0,0,0,0,0,0,0,0,0,0,0,0,0,0,0,0,0,0,0,0,0,0,0,0,0,0,0,0,0,0,0,0,0,0,0,0,0,0,0,0,0,0,0,0,0,0,0,0,0,0,0,0,0,0,0,0,0,0,0,0,0,0,0,0,
0,0,0,0,0,0,0,0,0,0,0,0,0,0,0,0,0,0,0,0,0,0,0,0,0,0,0,0,0,0,0,0,0,0,0,0,0,0,0,0,0,0,0,0,0,0,0,0,0,1987,0,0,0,0,0,0,0,0,0,0,0,0,0,0,0,0,0,0,0,0,0,0,0,0,0,0,0,0,0,0,
0,0,0,0,0,0,0,0,0,0,0,0,0,0,0,0,0,0,0,0,0,0,0,0,0,0,0,0,0,0,0,0,0,0,0,0,0,0,0,0,0,0,0,0,0,0,0,0,0,0,0,0,0,0,0,0,0,0,0,0,0,0,0,0,0,0,0,0,0,0,0,0,0,0,0,0,0,0,0,0,
0,0,0,0,0,0,0,0,0,0,0,0,0,0,0,0,0,0,0,0,0,0,0,0,0,0,0,0,0,0,0,0,0,0,0,0,0,0,0,0,0,0,0,0,0,0,0,0,0,0,0,0,0,0,0,0,0,0,0,0,0,0,0,0,0,0,0,0,0,0,0,0,0,0,0,0,0,0,0,0,
0,0,0,0,0,0,0,0,0,0,0,0,0,0,0,0,0,0,0,0,0,0,0,0,0,0,0,0,0,0,0,0,0,0,0,0,0,0,0,0,0,0,0,0,0,0,0,0,0,0,0,0,0,0,0,0,0,0,0,0,0,0,0,0,0,0,0,0,0,0,0,0,0,0,0,0,0,0,0,0,
0,0,0,0,0,0,0,0,0,0,0,0,0,0,0,0,0,0,0,0,0,0,0,0,0,0,0,0,0,0,0,0,0,0,0,0,0,0,0,0,0,0,0,0,0,0,0,0,0,0,0,0,0,0,0,0,0,0,0,0,0,0,0,0,0,0,0,0,0,0,0,0,0,0,0,0,0,0,0,0,
0,0,0,0,0,0,0,0,0,0,0,0,0,0,0,0,0,0,0,0,0,0,0,0,0,0,0,0,0,0,0,0,0,0,0,0,0,0,0,0,0,0,0,0,0,0,0,0,0,0,0,0,0,0,1987,0,0,0,0,0,0,0,0,0,0,0,0,0,0,0,0,0,0,0,0,0,0,0,0,0,
0,0,0,0,0,0,0,0,0,0,0,0,0,0,0,1986,0,0,0,0,0,0,0,1987,0,0,0,1985,0,0,0,0,0,0,0,0,0,0,0,0,0,0,0,0,0,1986,0,0,0,0,0,0,0,0,0,0,0,0,0,0,0,1985,0,0,0,0,0,0,0,0,0,0,0,0,0,0,0,0,0,0,
0,0,0,0,0,0,0,0,0,0,0,0,0,0,0,0,0,0,0,0,0,0,0,0,0,0,0,0,0,0,0,0,0,0,0,0,0,0,0,0,0,0,0,0,0,0,0,0,0,0,0,0,0,0,0,0,0,0,0,0,0,0,0,0,0,0,0,0,0,0,0,0,0,0,0,0,0,0,0,0,
0,0,0,0,0,0,0,0,0,0,0,0,0,0,0,0,0,0,0,0,0,0,0,0,0,0,0,0,0,0,0,0,0,0,0,0,0,0,0,0,0,0,0,0,0,0,0,0,0,0,0,0,0,0,0,0,0,0,0,0,0,0,0,0,0,0,0,0,0,0,0,0,0,0,0,0,0,0,0,0
</data>
 </layer>
 <layer id="7" name="Front" width="80" height="40">
  <data encoding="csv">
0,0,0,0,0,0,0,0,0,0,0,0,0,0,0,0,0,0,0,0,0,0,0,0,0,0,0,0,0,0,0,0,0,0,0,0,0,0,0,0,0,0,0,0,0,0,0,0,0,17,18,19,20,21,22,0,0,0,0,0,0,0,0,0,0,0,0,0,0,0,0,0,0,0,0,0,0,0,0,0,
0,0,0,0,0,0,0,0,0,0,0,0,0,0,0,0,0,0,0,0,0,0,0,0,0,0,0,0,0,0,0,0,0,0,0,0,0,0,0,0,0,0,0,0,0,0,0,0,0,42,43,44,45,46,47,0,0,0,0,0,0,0,0,0,0,0,0,0,0,0,0,0,0,0,0,0,0,0,0,0,
0,0,0,0,0,0,0,0,0,0,0,0,0,0,0,0,0,0,0,0,0,0,0,0,0,0,0,0,0,0,0,0,0,0,0,0,0,0,0,0,0,0,0,0,0,0,0,0,0,67,68,69,70,71,72,0,0,0,0,0,0,0,0,0,0,0,0,0,0,0,0,0,0,0,0,0,11,12,13,0,
0,0,0,0,0,0,0,0,0,0,0,0,0,0,0,0,0,0,0,0,0,0,0,0,0,0,0,0,0,0,0,0,0,0,0,0,0,0,0,0,0,0,0,17,18,19,20,21,22,92,93,94,95,96,97,0,0,0,0,0,0,0,0,0,17,18,19,20,21,22,0,0,0,0,0,0,36,37,38,21,
0,0,0,0,0,0,0,0,0,0,0,0,0,0,0,0,0,0,0,0,0,0,0,0,0,0,0,0,0,0,0,0,0,0,0,0,0,0,0,0,0,0,0,42,43,44,45,46,47,0,0,119,120,0,0,0,0,0,0,0,0,0,0,0,42,43,44,45,46,47,0,0,0,0,0,0,61,62,63,0,
0,0,0,0,0,0,0,0,0,0,0,0,0,0,0,0,0,0,0,0,0,0,0,0,0,0,0,0,0,0,0,0,0,0,0,0,0,0,0,0,0,0,0,67,68,69,70,71,72,0,0,144,145,0,0,0,1498,0,4545,0,0,0,0,0,67,68,69,70,71,72,0,362,0,0,0,0,86,87,88,0,
0,0,0,0,0,0,0,0,0,0,0,0,0,0,0,0,0,0,0,0,0,0,0,0,0,0,0,0,0,0,0,0,0,0,0,0,0,0,0,0,0,0,0,92,93,94,95,96,97,0,0,0,359,360,361,0,0,0,4555,0,0,0,0,0,92,93,94,95,96,97,0,0,0,0,0,0,0,112,0,0,
0,0,0,1,2,3,11,12,13,0,0,0,0,0,0,0,0,0,0,0,0,0,0,0,0,0,0,0,0,0,0,0,0,0,0,0,0,0,0,0,0,0,0,0,0,119,120,0,0,0,0,0,0,0,0,0,0,0,4565,0,0,0,0,0,0,0,119,120,0,0,0,0,0,0,0,0,7,8,9,10,
0,0,0,26,27,28,36,37,38,0,0,0,0,0,0,0,0,0,0,0,0,0,0,0,0,0,0,0,0,0,0,0,0,0,0,0,0,0,0,0,0,0,0,0,0,144,145,0,0,0,0,0,0,0,0,0,0,0,4575,0,0,0,0,0,0,0,0,0,0,0,0,0,0,0,0,0,32,33,34,35,
0,0,0,51,52,53,61,62,63,0,0,0,0,0,0,0,0,0,0,0,0,0,0,0,0,0,0,0,0,0,0,0,0,0,0,0,0,0,0,0,0,0,0,0,0,0,0,0,0,0,0,0,0,0,0,0,0,0,4585,0,0,0,0,0,0,0,0,0,0,0,0,0,0,0,0,0,57,58,59,60,
0,0,0,76,77,78,86,87,88,0,0,0,0,0,0,0,0,0,0,0,0,0,0,0,0,0,0,0,0,0,0,0,0,0,0,0,0,0,0,0,0,0,0,0,0,0,0,0,0,0,0,0,0,0,0,0,0,0,0,0,0,0,0,359,360,360,360,360,361,0,0,0,0,0,0,0,82,83,84,85,
0,0,11,12,102,0,0,112,0,0,0,0,0,0,0,0,0,0,0,0,0,0,0,0,0,0,0,0,0,0,0,0,0,0,0,0,0,0,0,0,0,0,0,0,0,0,0,0,0,0,0,0,0,0,0,0,0,0,0,0,0,0,0,0,0,0,0,0,0,0,0,0,0,0,0,0,0,108,109,0,
0,0,36,37,38,0,4,5,6,7,8,9,10,0,0,0,0,0,0,0,0,0,0,0,0,0,0,0,0,0,0,0,0,0,0,0,0,0,0,0,0,0,0,0,0,0,0,0,0,0,0,0,0,0,0,0,0,0,0,0,0,0,0,0,0,0,0,0,0,0,7,8,9,10,0,0,0,133,134,0,
0,0,61,62,63,0,29,30,31,32,33,34,35,0,0,0,0,0,0,0,0,0,0,0,0,0,0,0,0,0,0,0,0,0,0,0,0,0,0,0,0,0,0,0,0,0,0,0,0,0,0,0,0,0,0,0,0,0,0,0,0,0,0,0,0,0,0,0,0,0,32,33,34,35,0,0,0,11,12,160,
0,0,86,87,88,0,54,55,56,57,58,59,60,0,0,0,0,0,0,0,0,0,0,0,0,0,0,0,0,0,0,0,0,0,0,0,0,0,0,0,0,0,0,0,0,0,0,0,0,0,0,0,0,0,0,0,0,0,0,0,0,0,0,0,0,0,0,0,0,0,57,58,59,60,0,0,0,36,37,38,
1,2,3,112,0,0,79,80,81,82,83,84,85,0,0,0,0,0,0,0,0,0,0,0,0,0,0,0,0,0,0,0,0,0,0,0,0,0,0,0,0,0,0,0,0,0,0,0,0,0,0,0,0,0,0,0,0,0,0,0,0,0,0,0,0,0,0,0,0,0,82,83,84,85,0,0,0,61,62,63,
26,27,28,0,7,8,9,10,0,0,108,109,4,5,6,0,0,0,0,0,0,0,0,0,0,0,0,0,0,0,0,0,0,0,0,0,0,0,0,0,0,0,0,0,0,0,0,0,0,0,0,0,0,0,0,0,0,0,0,0,0,0,0,0,0,0,0,0,0,0,0,108,109,0,0,0,0,86,87,88,
51,52,53,0,32,33,34,35,0,0,133,134,29,30,31,0,0,0,0,0,0,0,0,0,0,0,0,0,0,0,0,0,0,0,0,0,0,0,0,0,0,0,0,0,0,0,0,0,0,0,0,17,18,19,20,21,22,0,0,0,0,0,0,0,0,0,0,0,0,0,0,133,134,0,0,440,0,0,112,0,
76,77,78,0,57,58,59,60,0,0,0,0,54,55,56,0,0,0,0,0,0,0,0,0,0,0,0,0,0,0,0,0,0,0,0,0,0,0,0,0,0,0,0,0,0,0,0,0,0,0,0,42,43,44,45,46,47,0,0,0,0,0,0,0,0,0,0,0,0,0,0,0,0,160,0,417,176,0,0,1,
0,102,0,0,82,83,84,85,1,2,3,0,79,80,81,1,2,3,0,0,0,0,0,0,0,0,0,0,0,0,0,0,0,0,0,0,0,0,0,0,0,0,0,0,0,0,0,0,0,0,0,67,68,69,70,71,72,0,0,0,0,0,0,0,0,0,0,0,0,0,0,0,0,0,440,416,176,0,0,26,
0,0,4,5,6,108,109,160,26,27,28,0,104,105,106,26,27,28,0,0,0,0,0,0,0,0,0,0,0,0,0,0,0,0,0,0,0,0,0,0,0,0,0,0,0,0,0,0,0,0,0,92,93,94,95,96,97,0,0,0,0,0,0,0,0,0,0,0,0,0,0,0,0,0,392,176,0,0,0,51,
0,0,29,30,31,133,134,0,51,52,53,0,11,12,13,51,52,53,0,0,0,0,0,0,0,0,0,0,17,18,19,20,21,22,0,0,0,0,0,0,0,0,0,0,0,0,0,0,0,0,0,0,0,119,120,0,0,0,0,0,0,359,360,410,360,360,360,360,410,360,410,361,0,0,417,176,0,0,0,76,
0,0,54,55,56,0,0,160,76,77,78,0,36,37,38,76,77,78,0,0,0,0,0,0,7,8,9,10,42,43,44,45,46,47,0,0,0,0,0,0,0,0,0,0,0,0,0,0,0,0,0,0,0,144,145,0,0,0,0,0,0,0,0,0,0,0,0,0,0,0,194,195,440,415,0,0,0,7,8,9,
11,12,79,80,81,0,0,0,0,102,12,13,61,62,63,0,102,0,0,0,0,0,0,0,32,33,34,35,67,68,69,70,71,72,0,0,0,0,0,0,0,0,0,0,0,0,0,0,0,0,0,0,0,0,0,0,0,0,0,0,0,0,0,0,899,900,0,0,0,0,0,0,392,176,0,0,0,32,33,34,
36,37,38,0,0,7,8,9,10,36,37,38,86,87,88,0,0,0,0,0,0,0,0,0,57,58,59,60,92,93,94,95,96,97,0,0,0,0,0,0,0,0,0,0,0,0,0,0,0,0,0,0,0,0,0,0,0,0,0,0,0,0,0,0,924,925,0,0,849,850,0,0,417,176,0,0,0,57,58,59,
61,62,63,0,0,32,33,34,35,61,62,63,0,112,0,0,0,0,0,0,0,0,0,0,82,83,84,85,0,0,119,120,0,0,0,0,0,0,0,0,0,0,0,0,0,0,0,0,0,0,0,0,0,0,0,0,0,0,0,0,0,0,0,0,0,0,0,0,874,875,0,0,0,0,0,0,0,82,83,84,
86,87,88,0,0,57,58,59,60,86,87,88,0,0,0,0,0,0,0,0,0,0,0,0,0,108,109,0,0,0,144,145,0,0,0,0,0,0,0,0,0,0,0,0,0,0,0,0,0,0,0,0,0,0,0,0,0,0,0,0,0,0,0,0,0,0,0,0,0,0,0,0,0,0,0,0,0,0,108,109,
0,112,1,2,3,82,83,84,85,0,112,0,0,0,0,0,0,0,0,0,0,0,0,0,0,133,134,0,0,0,0,0,0,0,0,0,0,0,0,0,0,0,0,0,0,0,0,0,0,0,0,0,0,0,0,0,0,0,0,0,0,0,0,0,0,0,0,0,0,0,0,0,0,0,0,0,0,0,133,134,
0,0,26,27,28,0,108,109,0,0,0,0,0,0,0,0,0,0,0,0,0,0,0,0,0,0,0,160,0,0,0,0,0,0,0,0,0,0,0,0,0,0,0,0,0,0,0,0,0,0,0,0,0,0,0,0,0,0,0,0,0,0,0,0,0,0,0,0,0,0,0,0,0,0,0,0,0,0,11,12,
0,0,51,52,53,0,133,134,0,0,0,0,0,0,0,0,0,0,0,0,0,0,0,0,0,0,0,0,0,0,0,0,0,0,0,0,0,0,0,0,0,0,0,0,0,0,0,0,0,0,0,0,0,0,0,0,0,0,0,0,0,0,0,0,0,0,0,0,0,0,0,0,0,0,0,0,0,0,36,37,
0,0,76,77,78,0,0,4,5,6,0,0,0,0,0,0,0,0,0,0,0,0,0,0,0,0,0,0,0,0,0,0,0,0,0,0,0,0,0,0,0,0,0,0,0,0,0,0,0,0,0,0,0,0,0,0,0,0,0,0,0,0,0,0,0,0,0,0,0,0,0,0,0,0,0,0,0,0,61,62,
0,0,0,102,11,12,13,29,30,31,0,0,0,0,0,0,0,0,0,0,0,0,0,0,0,0,0,0,0,0,0,0,0,0,0,0,0,0,0,0,0,0,0,0,0,0,0,0,7,8,9,10,0,0,0,0,0,0,0,0,0,0,0,0,0,0,0,0,0,0,0,0,0,0,0,0,0,0,86,87,
0,0,0,0,36,37,38,54,55,56,0,0,0,0,0,0,0,0,0,0,0,0,0,0,0,0,0,0,0,0,0,0,0,0,0,0,0,0,0,0,0,0,0,0,0,0,0,0,32,33,34,35,0,0,0,0,0,0,0,0,0,0,0,0,0,0,0,0,0,0,0,0,0,0,0,0,0,0,0,112,
0,0,0,0,61,62,63,79,80,81,0,0,0,0,0,0,0,0,0,0,0,0,0,0,0,0,0,0,0,0,0,0,0,0,0,0,0,0,0,0,0,0,0,0,0,0,0,0,57,58,59,60,0,0,0,0,0,0,0,0,0,0,0,0,0,0,0,0,0,0,0,0,0,0,0,0,0,0,0,0,
0,0,0,0,86,87,88,104,105,106,0,0,0,0,0,0,0,0,0,0,0,0,0,0,0,0,0,0,0,0,0,0,0,0,0,0,0,0,0,0,0,0,0,0,0,0,0,0,82,83,84,85,0,0,0,0,0,0,0,0,0,0,0,0,0,0,0,0,0,0,0,0,0,0,0,0,0,0,1,2,
0,0,0,0,0,112,0,0,0,0,0,0,0,0,0,0,0,0,0,0,0,0,0,0,0,0,0,0,0,0,0,0,0,0,0,0,0,0,0,0,0,0,0,0,0,0,0,0,0,108,109,0,0,0,0,0,0,0,0,0,0,0,0,0,0,0,0,0,0,0,0,0,0,0,0,0,0,0,26,27,
0,0,0,0,0,0,0,0,0,0,0,0,0,0,0,0,0,0,0,0,0,0,0,0,0,0,0,0,0,0,0,0,0,0,0,0,0,0,0,0,0,0,0,0,0,0,0,0,0,133,134,0,0,0,0,0,0,0,0,0,0,0,0,0,0,0,0,0,0,0,0,0,0,0,0,0,0,0,51,52,
0,0,0,0,0,0,0,0,0,0,0,0,0,0,0,0,0,0,0,0,0,0,0,0,0,0,0,0,0,0,0,0,0,0,0,0,0,0,0,0,0,0,0,0,0,0,0,0,0,0,0,160,0,0,0,0,0,0,0,0,0,0,0,0,0,0,0,0,0,0,0,0,0,0,0,0,0,0,76,77,
0,0,0,0,0,0,0,0,0,0,0,0,0,0,0,0,0,0,0,0,0,0,0,0,0,0,0,0,0,0,0,0,0,0,0,0,0,0,0,0,0,0,0,0,0,0,0,0,0,0,0,0,0,0,0,0,0,0,0,0,0,0,0,0,0,0,0,0,0,0,0,0,0,0,0,0,0,0,0,102,
0,0,0,0,0,0,0,0,0,0,0,0,0,0,0,0,0,0,0,0,0,0,0,0,0,0,0,0,0,0,0,0,0,0,0,0,0,0,0,0,0,0,0,0,0,0,0,0,0,0,0,0,0,0,0,0,0,0,0,0,0,0,0,0,0,0,0,0,0,0,0,0,0,0,0,0,0,0,0,0
</data>
 </layer>
 <layer id="8" name="AlwaysFront" width="80" height="40">
  <data encoding="csv">
947,947,947,947,947,947,947,947,947,947,947,972,947,947,947,947,941,947,946,947,947,947,947,947,947,972,947,947,997,947,947,947,947,947,947,947,947,997,947,947,947,941,945,971,944,941,946,941,945,971,944,946,944,946,947,947,947,947,947,947,947,947,947,947,947,947,947,947,947,947,947,947,947,947,947,947,947,947,947,947,
997,947,947,947,947,947,947,947,947,947,947,947,947,947,947,972,944,942,971,944,947,947,946,947,947,947,947,947,947,947,947,947,947,947,972,947,947,945,946,944,941,945,942,967,2147484617,2147484617,2147484616,2147484616,2147484617,968,969,969,970,971,944,941,997,947,947,947,947,947,947,947,947,947,947,947,947,947,947,947,972,947,947,947,947,997,947,947,
947,947,947,947,972,947,947,947,947,947,947,947,947,941,945,942,967,969,968,970,971,944,945,946,945,944,946,947,947,947,941,947,947,947,941,945,942,967,2147484616,2147484617,968,969,969,993,0,0,0,0,0,67,68,69,994,969,2147484616,970,971,944,946,972,947,947,947,947,997,947,947,947,972,947,947,947,946,947,946,947,944,947,947,972,
947,947,947,947,947,947,947,947,947,947,997,997,941,942,967,2147484616,993,0,0,994,2147484617,2147484617,2147484616,969,968,970,971,944,972,945,942,944,945,942,967,968,2147484617,993,0,0,0,0,0,17,18,19,20,21,22,92,93,94,95,96,97,994,968,970,971,944,946,947,947,947,947,947,947,947,947,947,941,945,942,944,941,945,942,971,944,941,
947,947,947,947,947,947,997,947,947,947,941,945,942,967,993,0,0,0,0,0,0,0,0,0,0,994,2147484616,2147484617,968,2147484617,2147484617,2147484616,969,968,993,0,0,0,0,0,0,0,0,42,43,44,45,46,47,0,0,119,120,0,0,0,0,994,968,970,971,944,947,947,972,947,947,941,945,942,967,2147484617,2147484617,2147484616,969,968,969,970,971,944,
947,947,947,947,947,947,947,947,947,972,942,967,2147484616,993,0,0,0,0,0,0,0,0,0,0,0,0,0,0,0,0,0,0,0,0,0,0,0,0,0,0,0,0,0,67,68,69,70,71,72,0,0,144,145,0,0,0,0,0,0,994,968,970,971,944,946,941,945,942,967,2147484617,993,0,0,0,0,0,0,994,970,971,
947,947,997,947,946,947,947,941,945,942,967,993,0,0,0,0,0,0,0,0,0,0,0,0,0,0,0,0,0,0,0,0,0,0,0,0,0,0,0,0,0,0,0,92,93,94,95,96,97,0,0,0,0,0,0,0,0,0,0,0,0,994,2147484617,2147484617,2147484616,969,968,2147484617,993,0,0,0,0,0,0,0,0,0,994,970,
947,972,941,945,942,944,945,942,967,2147484616,993,0,0,0,0,0,0,0,0,0,0,0,0,0,0,0,0,0,0,0,0,0,0,0,0,0,0,0,0,0,0,0,0,0,0,119,120,0,0,0,0,0,0,0,0,0,0,0,0,0,0,0,0,0,0,0,0,0,0,0,0,0,0,0,0,0,0,0,0,994,
941,945,942,967,2147484617,2147484616,969,968,993,0,0,0,0,0,0,0,0,0,0,0,0,0,0,0,0,0,0,0,0,0,0,0,0,0,0,0,0,0,0,0,0,0,0,0,0,144,145,0,0,0,0,0,0,0,0,0,0,0,0,0,0,0,0,0,0,0,0,0,0,0,0,0,0,0,0,0,0,0,0,0,
945,942,967,993,0,0,0,0,0,0,0,0,0,0,0,0,0,0,0,0,0,0,0,0,0,0,0,0,0,0,0,0,0,0,0,0,0,0,0,0,0,0,0,0,0,0,0,0,0,0,0,0,0,0,0,0,0,0,0,0,0,0,0,0,0,0,0,0,0,0,0,0,0,0,0,0,0,0,0,0,
942,967,993,0,0,0,0,0,0,0,0,0,0,0,0,0,0,0,0,0,0,0,0,0,0,0,0,0,0,0,0,0,0,0,0,0,0,0,0,0,0,0,0,0,0,0,0,0,0,0,0,0,0,0,0,0,0,0,0,0,0,0,0,0,0,0,0,0,0,0,0,0,0,0,0,0,0,0,0,0,
967,993,0,0,0,0,0,0,0,0,0,0,0,0,0,0,0,0,0,0,0,0,0,0,0,0,0,0,0,0,0,0,0,0,0,0,0,0,0,0,0,0,0,0,0,0,0,0,0,0,0,0,0,0,0,0,0,0,0,0,0,0,0,0,0,0,0,0,0,0,0,0,0,0,0,0,0,0,0,0,
0,0,0,0,0,0,0,0,0,0,0,0,0,0,0,0,0,0,0,0,0,0,0,0,0,0,0,0,0,0,0,0,0,0,0,0,0,0,0,0,0,0,0,0,0,0,0,0,0,0,0,0,0,0,0,0,0,0,0,0,0,0,0,0,0,0,0,0,0,0,7,8,9,10,0,0,0,0,0,0,
0,0,0,0,0,0,0,0,0,0,0,0,0,0,0,0,0,0,0,0,0,0,0,0,0,0,0,0,0,0,0,0,0,0,0,0,0,0,0,0,0,0,0,0,0,0,0,0,0,0,0,0,0,0,0,0,0,0,0,0,0,0,0,0,0,0,0,0,0,0,32,33,34,35,0,0,0,0,0,0,
0,0,0,0,0,0,0,0,0,0,0,0,0,0,0,0,0,0,0,0,0,0,0,0,0,0,0,0,0,0,0,0,0,0,0,0,0,0,0,0,0,0,0,0,0,0,0,0,0,0,0,0,0,0,0,0,0,0,0,0,0,0,0,0,0,0,0,0,0,0,57,58,59,60,0,0,0,0,0,0,
0,0,0,0,0,0,0,0,0,0,0,0,0,0,0,0,0,0,0,0,0,0,0,0,0,0,0,0,0,0,0,0,0,0,0,0,0,0,0,0,0,0,0,0,0,0,0,0,0,0,0,0,0,0,0,0,0,0,0,0,0,0,0,0,0,0,0,0,0,0,82,83,84,85,0,0,0,0,0,0,
0,0,0,0,0,0,0,0,0,0,0,0,0,0,0,0,0,0,0,0,0,0,0,0,0,0,0,0,0,0,0,0,0,0,0,0,0,0,0,0,0,0,0,0,0,0,0,0,0,0,0,0,0,0,0,0,0,0,0,0,0,0,0,0,0,0,0,0,0,0,0,108,109,0,0,0,0,0,0,0,
0,0,0,0,0,0,0,0,0,0,0,0,0,0,0,0,0,0,0,0,0,0,0,0,0,0,0,0,0,0,0,0,0,0,0,0,0,0,0,0,0,0,0,0,0,0,0,0,0,0,0,17,18,19,20,21,22,0,0,0,0,0,0,0,0,0,0,0,0,0,0,133,134,0,0,0,0,0,0,0,
0,0,0,0,0,0,0,0,0,0,0,0,0,0,0,0,0,0,0,0,0,0,0,0,0,0,0,0,0,0,0,0,0,0,0,0,0,0,0,0,0,0,0,0,0,0,0,0,0,0,0,42,43,44,45,46,47,0,0,0,0,0,0,0,0,0,0,0,0,0,0,0,0,160,18,19,20,21,22,0,
0,0,0,0,0,0,0,0,0,0,0,0,0,0,0,0,0,0,0,0,0,0,0,0,0,0,0,0,0,0,0,0,0,0,0,0,0,0,0,0,0,0,0,0,0,0,0,0,0,0,0,67,68,69,70,71,72,0,0,0,0,0,0,0,0,0,0,0,0,0,0,0,0,42,43,44,45,46,47,0,
0,0,0,0,0,0,0,0,0,0,0,0,0,0,0,0,0,0,0,0,0,0,0,0,0,0,0,0,0,0,0,0,0,0,0,0,0,0,0,0,0,0,0,0,0,0,0,0,0,0,0,92,93,94,95,96,97,0,0,0,0,0,0,0,0,0,0,0,0,0,0,0,0,67,68,69,70,71,72,0,
0,0,0,0,0,0,0,0,0,0,0,0,0,0,0,0,0,0,0,0,0,0,0,0,0,0,0,0,17,18,19,20,21,22,0,0,0,0,0,0,0,0,0,0,0,0,0,0,0,0,0,0,0,119,120,0,0,0,0,0,0,0,0,0,0,0,0,0,0,0,0,0,0,92,93,94,95,96,97,0,
0,0,0,0,0,0,0,0,0,0,0,0,0,0,0,0,0,0,0,0,0,0,0,0,7,8,9,10,42,43,44,45,46,47,0,0,0,0,0,0,0,0,0,0,0,0,0,0,0,0,0,0,0,144,145,0,0,0,0,0,0,0,0,0,0,0,0,0,0,0,0,0,0,0,0,119,120,0,0,0,
0,0,0,0,0,0,0,0,0,0,0,0,0,0,0,0,0,0,0,0,0,0,0,0,32,33,34,35,67,68,69,70,71,72,0,0,0,0,0,0,0,0,0,0,0,0,0,0,0,0,0,0,0,0,0,0,0,0,0,0,0,0,0,0,0,0,0,0,0,0,0,0,0,0,0,144,145,0,0,0,
0,0,0,0,0,0,0,0,0,0,0,0,0,0,0,0,0,0,0,0,0,0,0,0,57,58,59,60,92,93,94,95,96,97,0,0,0,0,0,0,0,0,0,0,0,0,0,0,0,0,0,0,0,0,0,0,0,0,0,0,0,0,0,0,0,0,0,0,0,0,0,0,0,0,0,169,170,0,0,0,
0,0,0,0,0,0,0,0,0,0,0,0,0,0,0,0,0,0,0,0,0,0,0,0,82,83,84,85,0,0,119,120,0,0,0,0,0,0,0,0,0,0,0,0,0,0,0,0,0,0,0,0,0,0,0,0,0,0,0,0,0,0,0,0,0,0,0,0,0,0,0,0,0,0,0,0,0,0,0,0,
0,0,0,0,0,0,0,0,0,0,0,0,0,0,0,0,0,0,0,0,0,0,0,0,0,108,109,0,0,0,144,145,0,0,0,0,0,0,0,0,0,0,0,0,0,0,0,0,0,0,0,0,0,0,0,0,0,0,0,0,0,0,0,0,0,0,0,0,0,0,0,0,0,0,0,0,0,0,0,0,
0,0,0,0,0,0,0,0,0,0,0,0,0,0,0,0,0,0,0,0,0,0,0,0,0,133,134,0,0,0,0,0,0,0,0,0,0,0,0,0,0,0,0,0,0,0,0,0,0,0,0,0,0,0,0,0,0,0,0,0,0,0,0,0,0,0,0,0,0,0,0,0,0,0,0,0,0,0,0,0,
0,0,0,0,0,0,0,0,0,0,0,0,0,0,0,0,0,0,0,0,0,0,0,0,0,0,0,160,0,0,0,0,0,0,0,0,0,0,0,0,0,0,0,0,0,0,0,0,0,0,0,0,0,0,0,0,0,0,0,0,0,0,0,0,0,0,0,0,0,0,0,0,0,0,0,0,0,0,0,0,
0,0,0,0,0,0,0,0,0,0,0,0,0,0,0,0,0,0,0,0,0,0,0,0,0,0,0,0,0,0,0,0,0,0,0,0,0,0,0,0,0,0,0,0,0,0,0,0,0,0,0,0,0,0,0,0,0,0,0,0,0,0,0,0,0,0,0,0,0,0,0,0,0,0,0,0,0,0,0,0,
1043,1018,0,0,0,0,0,0,0,0,0,0,0,0,0,0,0,0,0,0,0,0,0,0,0,0,0,0,0,0,0,0,0,0,0,0,0,0,0,0,0,0,0,0,0,0,0,0,0,0,0,0,0,0,0,0,0,0,0,0,0,0,0,0,0,0,0,0,0,0,0,0,0,0,0,0,0,0,0,0,
1041,992,0,0,0,0,0,0,0,0,0,0,0,0,0,0,0,0,0,0,0,0,0,0,0,0,0,0,0,0,0,0,0,0,0,0,0,0,0,0,0,0,0,0,0,0,0,0,7,8,9,10,0,0,0,0,0,0,0,0,0,0,0,0,0,0,0,0,0,0,0,0,0,0,0,0,0,0,0,0,
966,1017,0,0,0,0,0,0,0,0,0,0,0,0,0,0,0,0,0,0,0,0,0,0,0,0,0,0,0,0,0,0,0,0,0,0,0,0,0,0,0,0,0,0,0,0,0,0,32,33,34,35,0,0,0,0,0,0,0,0,0,0,0,0,0,0,0,0,0,0,0,0,0,0,0,0,0,0,0,0,
972,1017,0,0,0,0,0,0,0,0,0,0,0,0,0,0,0,0,0,0,0,0,0,0,0,0,0,0,0,0,0,0,0,0,0,0,0,0,0,0,0,0,0,0,0,0,0,0,57,58,59,60,0,0,0,0,0,0,0,0,0,0,0,0,0,0,0,0,0,0,0,0,0,0,0,0,0,0,0,0,
966,1042,1018,0,0,0,0,0,0,0,0,0,0,0,0,0,0,0,0,0,0,0,0,0,0,0,0,0,0,0,0,0,0,0,0,0,0,0,0,0,0,0,0,0,0,0,0,0,82,83,84,85,0,0,0,0,0,0,0,0,0,0,0,0,0,0,0,0,0,0,0,0,0,0,0,0,0,0,0,0,
1071,1041,1017,0,0,0,0,0,0,0,0,0,0,0,0,0,0,0,0,0,0,0,0,0,0,0,0,0,0,0,0,0,0,0,0,0,0,0,0,0,0,0,0,0,0,0,0,0,0,108,109,0,0,0,0,0,0,0,0,0,0,0,0,0,0,0,0,0,0,1019,1043,1044,2147484691,1018,0,0,0,0,1019,1044,
997,1068,1042,1044,1018,0,0,0,0,0,0,0,0,0,0,0,0,0,0,0,0,0,0,0,0,0,0,0,0,0,0,0,1019,2147484692,2147484691,2147484691,1043,1044,1018,0,0,0,0,0,0,0,0,0,0,133,134,0,0,0,0,0,0,0,0,0,0,0,0,0,0,0,0,1019,1044,1045,1070,1068,1041,1042,2147484692,2147484691,1043,1044,1045,1070,
947,1071,1068,1069,1042,1044,1043,1044,1018,0,0,0,0,0,0,1019,1043,1044,2147484692,2147484691,1044,1018,0,0,0,0,0,0,1019,2147484692,2147484691,1044,1045,1070,1067,1066,1068,1041,1042,1043,1044,2147484692,2147484691,1018,0,0,0,0,0,0,0,160,2147484692,2147484691,1043,1044,2147484692,2147484691,2147484691,1018,0,0,1019,1043,1044,2147484692,2147484691,1045,1070,1067,947,947,947,1068,1041,947,2147484715,1070,1067,947,
947,997,947,972,1067,1071,1068,1069,1042,1043,1044,2147484692,2147484691,2147484691,1044,1045,1070,1067,1066,1068,1041,1042,1043,1044,1043,1044,1043,1044,1045,1070,1067,1071,1067,1071,947,972,947,947,1066,1041,1067,1066,1041,1042,2147484692,2147484691,2147484691,1043,1044,1044,2147484691,1045,1070,1067,1068,1041,1067,1066,1041,1042,2147484692,2147484691,1045,1070,1071,1066,2147484715,1067,947,947,947,947,947,947,997,947,947,947,947,972,
947,947,947,947,947,947,947,947,947,1067,1071,1068,1069,1067,1066,1071,947,997,947,972,947,947,1066,1068,1041,1067,1071,1067,1071,947,947,947,947,997,947,947,947,947,947,947,997,947,947,1066,1068,1067,1071,1066,947,1067,1071,1067,947,947,947,947,997,947,947,1071,1066,1068,1067,947,947,972,947,947,947,947,947,947,947,947,947,947,947,947,997,947
</data>
 </layer>
 <layer id="9" name="AlwaysFront2" width="80" height="40">
  <properties>
   <property name="Draw" value="AlwaysFront"/>
  </properties>
  <data encoding="csv">
0,0,0,0,0,0,0,0,0,0,0,0,0,0,0,0,0,0,0,0,0,0,0,0,0,0,0,0,0,0,0,0,0,0,0,0,0,0,0,0,0,0,0,0,0,0,0,0,0,0,0,0,0,0,0,0,0,0,0,0,0,0,0,0,0,0,0,0,0,0,0,0,0,0,0,0,0,0,0,0,
0,0,0,0,0,0,0,0,0,0,0,0,0,0,0,0,0,0,0,0,0,0,0,0,0,0,0,0,0,0,0,0,0,0,0,0,0,0,0,0,0,0,0,0,0,0,0,0,0,0,0,0,0,0,0,0,0,0,0,0,0,0,0,0,0,0,0,0,0,0,0,0,0,0,0,0,0,0,0,0,
0,0,0,0,0,0,0,0,0,0,0,0,0,0,0,0,0,0,0,0,0,0,0,0,0,0,0,0,0,0,0,0,0,0,0,0,0,0,0,0,0,0,0,0,0,0,0,0,0,0,0,0,0,0,0,0,0,0,0,0,0,0,0,0,0,0,0,0,0,0,0,0,0,0,0,0,0,0,0,0,
0,0,0,0,0,0,0,0,0,0,0,0,0,0,0,0,0,0,0,0,0,0,0,0,0,0,0,0,0,0,0,0,0,0,0,0,0,0,0,0,0,0,0,0,0,0,0,0,0,0,0,0,0,0,0,0,0,0,0,0,0,0,0,0,0,0,0,0,0,0,0,0,0,0,0,0,0,0,0,0,
0,0,0,0,0,0,0,0,0,0,0,0,0,0,0,0,0,0,0,0,0,0,0,0,0,0,0,0,0,0,0,0,0,0,0,0,0,0,0,0,0,0,0,0,0,0,0,0,0,0,0,0,0,0,0,0,0,0,0,0,0,0,0,0,0,0,0,0,0,0,0,0,0,0,0,0,0,0,0,0,
0,0,0,0,0,0,0,0,0,0,0,0,0,0,0,0,0,0,0,0,0,0,0,0,0,0,0,0,0,0,0,0,0,0,0,0,0,0,0,0,0,0,0,0,0,0,0,0,0,0,0,0,0,0,0,0,0,0,0,0,0,0,0,0,0,0,0,0,0,0,0,0,0,0,0,0,0,0,0,0,
0,0,0,0,0,0,0,0,0,0,0,0,0,0,0,0,0,0,0,0,0,0,0,0,0,0,0,0,0,0,0,0,0,0,0,0,0,0,0,0,0,0,0,0,0,0,0,0,0,0,0,0,0,0,0,0,0,0,0,0,0,0,0,0,0,0,0,0,0,0,0,0,0,0,0,0,0,0,0,0,
0,0,0,0,0,0,0,0,0,0,0,0,0,0,0,0,0,0,0,0,0,0,0,0,0,0,0,0,0,0,0,0,0,0,0,0,0,0,0,0,0,0,0,0,0,0,0,0,0,0,0,0,0,0,0,0,0,0,0,0,0,0,0,0,0,0,0,0,0,0,0,0,0,0,0,0,0,0,0,0,
0,0,0,0,0,0,0,0,0,0,0,0,0,0,0,0,0,0,0,0,0,0,0,0,0,0,0,0,0,0,0,0,0,0,0,0,0,0,0,0,0,0,0,0,0,0,0,0,0,0,0,0,0,0,0,0,0,0,0,0,0,0,0,0,0,0,0,0,0,0,0,0,0,0,0,0,0,0,0,0,
0,0,0,0,0,0,0,0,0,0,0,0,0,0,0,0,0,0,0,0,0,0,0,0,0,0,0,0,0,0,0,0,0,0,0,0,0,0,0,0,0,0,0,0,0,0,0,0,0,0,0,0,0,0,0,0,0,0,0,0,0,0,0,0,0,0,0,0,0,0,0,0,0,0,0,0,0,0,0,0,
0,0,0,0,0,0,0,0,0,0,0,0,0,0,0,0,0,0,0,0,0,0,0,0,0,0,0,0,0,0,0,0,0,0,0,0,0,0,0,0,0,0,0,0,0,0,0,0,0,0,0,0,0,0,0,0,0,0,0,0,0,0,0,0,0,0,0,0,0,0,0,0,0,0,0,0,0,0,0,0,
0,0,0,0,0,0,0,0,0,0,0,0,0,0,0,0,0,0,0,0,0,0,0,0,0,0,0,0,0,0,0,0,0,0,0,0,0,0,0,0,0,0,0,0,0,0,0,0,0,0,0,0,0,0,0,0,0,0,0,0,0,0,0,0,0,0,0,0,0,0,0,0,0,0,0,0,0,0,0,0,
0,0,0,0,0,0,0,0,0,0,0,0,0,0,0,0,0,0,0,0,0,0,0,0,0,0,0,0,0,0,0,0,0,0,0,0,0,0,0,0,0,0,0,0,0,0,0,0,0,0,0,0,0,0,0,0,0,0,0,0,0,0,0,0,0,0,0,0,0,0,0,0,0,0,0,0,0,0,0,0,
0,0,0,0,0,0,0,0,0,0,0,0,0,0,0,0,0,0,0,0,0,0,0,0,0,0,0,0,0,0,0,0,0,0,0,0,0,0,0,0,0,0,0,0,0,0,0,0,0,0,0,0,0,0,0,0,0,0,0,0,0,0,0,0,0,0,0,0,0,0,0,0,0,0,0,0,0,0,0,0,
0,0,0,0,0,0,0,0,0,0,0,0,0,0,0,0,0,0,0,0,0,0,0,0,0,0,0,0,0,0,0,0,0,0,0,0,0,0,0,0,0,0,0,0,0,0,0,0,0,0,0,0,0,0,0,0,0,0,0,0,0,0,0,0,0,0,0,0,0,0,0,0,0,0,0,0,0,0,0,0,
0,0,0,0,0,0,0,0,0,0,0,0,0,0,0,0,0,0,0,0,0,0,0,0,0,0,0,0,0,0,0,0,0,0,0,0,0,0,0,0,0,0,0,0,0,0,0,0,0,0,0,0,0,0,0,0,0,0,0,0,0,0,0,0,0,0,0,0,0,0,0,0,0,0,0,0,0,0,0,0,
0,0,0,0,0,0,0,0,0,0,0,0,0,0,0,0,0,0,0,0,0,0,0,0,0,0,0,0,0,0,0,0,0,0,0,0,0,0,0,0,0,0,0,0,0,0,0,0,0,0,0,0,0,0,0,0,0,0,0,0,0,0,0,0,0,0,0,0,0,0,0,0,0,0,0,0,0,0,0,0,
0,0,0,0,0,0,0,0,0,0,0,0,0,0,0,0,0,0,0,0,0,0,0,0,0,0,0,0,0,0,0,0,0,0,0,0,0,0,0,0,0,0,0,0,0,0,0,0,0,0,0,0,0,0,0,0,0,0,0,0,0,0,0,0,0,0,0,0,0,0,0,0,0,0,0,0,0,0,0,0,
0,0,0,0,0,0,0,0,0,0,0,0,0,0,0,0,0,0,0,0,0,0,0,0,0,0,0,0,0,0,0,0,0,0,0,0,0,0,0,0,0,0,0,0,0,0,0,0,0,0,0,0,0,0,0,0,0,0,0,0,0,0,0,0,0,0,0,0,0,0,0,0,0,0,0,0,0,0,0,0,
0,0,0,0,0,0,0,0,0,0,0,0,0,0,0,0,0,0,0,0,0,0,0,0,0,0,0,0,0,0,0,0,0,0,0,0,0,0,0,0,0,0,0,0,0,0,0,0,0,0,0,0,0,0,0,0,0,0,0,0,0,0,0,0,0,0,0,0,0,0,0,0,0,0,0,0,0,0,0,0,
0,0,0,0,0,0,0,0,0,0,0,0,0,0,0,0,0,0,0,0,0,0,0,0,0,0,0,0,0,0,0,0,0,0,0,0,0,0,0,0,0,0,0,0,0,0,0,0,0,0,0,0,0,0,0,0,0,0,0,0,0,0,0,0,0,0,0,0,0,0,0,0,0,0,0,0,0,0,0,0,
0,0,0,0,0,0,0,0,0,0,0,0,0,0,0,0,0,0,0,0,0,0,0,0,0,0,0,0,0,0,0,0,0,0,0,0,0,0,0,0,0,0,0,0,0,0,0,0,0,0,0,0,0,0,0,0,0,0,0,0,0,0,0,0,0,0,0,0,0,0,0,0,0,0,0,0,0,0,0,0,
0,0,0,0,0,0,0,0,0,0,0,0,0,0,0,0,0,0,0,0,0,0,0,0,0,0,0,0,0,0,0,0,0,0,0,0,0,0,0,0,0,0,0,0,0,0,0,0,0,0,0,0,0,0,0,0,0,0,0,0,0,0,0,0,0,0,0,0,0,0,0,0,0,0,0,0,0,0,0,0,
0,0,0,0,0,0,0,0,0,0,0,0,0,0,0,0,0,0,0,0,0,0,0,0,0,0,0,0,0,0,0,0,0,0,0,0,0,0,0,0,0,0,0,0,0,0,0,0,0,0,0,0,0,0,0,0,0,0,0,0,0,0,0,0,0,0,0,0,0,0,0,0,0,0,0,0,0,0,0,0,
0,0,0,0,0,0,0,0,0,0,0,0,0,0,0,0,0,0,0,0,0,0,0,0,0,0,0,0,0,0,0,0,0,0,0,0,0,0,0,0,0,0,0,0,0,0,0,0,0,0,0,0,0,0,0,0,0,0,0,0,0,0,0,0,0,0,0,0,0,0,0,0,0,0,0,0,0,0,0,0,
0,0,0,0,0,0,0,0,0,0,0,0,0,0,0,0,0,0,0,0,0,0,0,0,0,0,0,0,0,0,0,0,0,0,0,0,0,0,0,0,0,0,0,0,0,0,0,0,0,0,0,0,0,0,0,0,0,0,0,0,0,0,0,0,0,0,0,0,0,0,0,0,0,0,0,0,0,0,0,0,
0,0,0,0,0,0,0,0,0,0,0,0,0,0,0,0,0,0,0,0,0,0,0,0,0,0,0,0,0,0,0,0,0,0,0,0,0,0,0,0,0,0,0,0,0,0,0,0,0,0,0,0,0,0,0,0,0,0,0,0,0,0,0,0,0,0,0,0,0,0,0,0,0,0,0,0,0,0,0,0,
0,0,0,0,0,0,0,0,0,0,0,0,0,0,0,0,0,0,0,0,0,0,0,0,0,0,0,0,0,0,0,0,0,0,0,0,0,0,0,0,0,0,0,0,0,0,0,0,0,0,0,0,0,0,0,0,0,0,0,0,0,0,0,0,0,0,0,0,0,0,0,0,0,0,0,0,0,0,0,0,
0,0,0,0,0,0,0,0,0,0,0,0,0,0,0,0,0,0,0,0,0,0,0,0,0,0,0,0,0,0,0,0,0,0,0,0,0,0,0,0,0,0,0,0,0,0,0,0,0,0,0,0,0,0,0,0,0,0,0,0,0,0,0,0,0,0,0,0,0,0,0,0,0,0,0,0,0,0,0,0,
0,0,0,0,0,0,0,0,0,0,0,0,0,0,0,0,0,0,0,0,0,0,0,0,0,0,0,0,0,0,0,0,0,0,0,0,0,0,0,0,0,0,0,0,0,0,0,0,0,0,0,0,0,0,0,0,0,0,0,0,0,0,0,0,0,0,0,0,0,0,0,0,0,0,0,0,0,0,0,0,
0,0,0,0,0,0,0,0,0,0,0,0,0,0,0,0,0,0,0,0,0,0,0,0,0,0,0,0,0,0,0,0,0,0,0,0,0,0,0,0,0,0,0,0,0,0,0,0,0,0,0,0,0,0,0,0,0,0,0,0,0,0,0,0,0,0,0,0,0,0,0,0,0,0,0,0,0,0,0,0,
0,0,0,0,0,0,0,0,0,0,0,0,0,0,0,0,0,0,0,0,0,0,0,0,0,0,0,0,0,0,0,0,0,0,0,0,0,0,0,0,0,0,0,0,0,0,0,0,0,0,0,0,0,0,0,0,0,0,0,0,0,0,0,0,0,0,0,0,0,0,0,0,0,0,0,0,0,0,0,0,
0,0,0,0,0,0,0,0,0,0,0,0,0,0,0,0,0,0,0,0,0,0,0,0,0,0,0,0,0,0,0,0,0,0,0,0,0,0,0,0,0,0,0,0,0,0,0,0,0,0,0,0,0,0,0,0,0,0,0,0,0,0,0,0,0,0,0,0,0,0,0,0,0,0,0,0,0,0,0,0,
0,0,0,0,0,0,0,0,0,0,0,0,0,0,0,0,0,0,0,0,0,0,0,0,0,0,0,0,0,0,0,0,0,0,0,0,0,0,0,0,0,0,0,0,0,0,0,0,0,0,0,0,0,0,0,0,0,0,0,0,0,0,0,0,0,0,0,0,0,0,0,0,0,0,0,0,0,0,0,0,
0,0,0,0,0,0,0,0,0,0,0,0,0,0,0,0,0,0,0,0,0,0,0,0,0,0,0,0,0,0,0,0,0,0,0,0,0,0,0,0,0,0,0,0,0,0,0,0,0,0,0,0,0,0,0,0,0,0,0,0,0,0,0,0,0,0,0,0,0,0,0,0,0,0,0,0,0,0,0,0,
0,0,0,0,0,0,0,0,0,0,0,0,0,0,0,0,0,0,0,0,0,0,0,0,0,0,0,0,0,0,0,0,0,0,0,0,0,0,0,0,0,0,0,0,0,0,0,0,0,0,0,0,0,0,0,0,0,0,0,0,0,0,0,0,0,0,0,0,0,0,0,0,0,0,0,0,0,0,0,0,
0,0,0,0,0,0,0,0,0,0,0,0,0,0,0,0,0,0,0,0,0,0,0,0,0,0,0,0,0,0,0,0,0,0,0,0,0,0,0,0,0,0,0,0,0,0,0,0,0,0,0,0,0,0,0,0,0,0,0,0,0,0,0,0,0,0,0,0,0,0,0,0,0,0,0,0,0,0,0,0,
0,0,0,0,0,0,0,0,0,0,0,0,0,0,0,0,0,0,0,0,0,0,0,0,0,0,0,0,0,0,0,0,0,0,0,0,0,0,0,0,0,0,0,0,0,0,0,0,0,0,0,0,0,0,0,0,0,0,0,0,0,0,0,0,0,0,0,0,0,0,0,0,0,0,0,0,0,0,0,0,
0,0,0,0,0,0,0,0,0,0,0,0,0,0,0,0,0,0,0,0,0,0,0,0,0,0,0,0,0,0,0,0,0,0,0,0,0,0,0,0,0,0,0,0,0,0,0,0,0,0,0,0,0,0,0,0,0,0,0,0,0,0,0,0,0,0,0,0,0,0,0,0,0,0,0,0,0,0,0,0,
0,0,0,0,0,0,0,0,0,0,0,0,0,0,0,0,0,0,0,0,0,0,0,0,0,0,0,0,0,0,0,0,0,0,0,0,0,0,0,0,0,0,0,0,0,0,0,0,0,0,0,0,0,0,0,0,0,0,0,0,0,0,0,0,0,0,0,0,0,0,0,0,0,0,0,0,0,0,0,0
</data>
 </layer>
 <objectgroup id="10" name="Back"/>
 <objectgroup id="11" name="Back2"/>
 <objectgroup id="12" name="Back3"/>
 <objectgroup id="13" name="Buildings">
  <object id="47" name="TileData" x="960" y="144" width="16" height="16">
   <properties>
    <property name="Action" value="LockedDoorWarp 5 11 yuninocorn.CustomNPCAliyahAliyahHouse 600 2600"/>
   </properties>
  </object>
 </objectgroup>
 <objectgroup id="14" name="Buildings2"/>
 <objectgroup id="15" name="Paths"/>
 <objectgroup id="16" name="Front"/>
 <objectgroup id="17" name="AlwaysFront"/>
 <objectgroup id="18" name="AlwaysFront2"/>
</map>
