<?xml version="1.0" encoding="UTF-8"?>
<map version="1.10" tiledversion="1.11.2" orientation="orthogonal" renderorder="right-down" width="1" height="1" tilewidth="16" tileheight="16" infinite="0" nextlayerid="14" nextobjectid="1">
 <tileset firstgid="1" name="townInterior" tilewidth="16" tileheight="16" tilecount="2176" columns="32">
  <image source=".townInterior.png" width="512" height="1088"/>
 </tileset>
 <tileset firstgid="2177" name="townInterior_2" tilewidth="16" tileheight="16" tilecount="1312" columns="32">
  <image source=".townInterior_2.png" width="512" height="656"/>
 </tileset>
 <layer id="1" name="Back" width="1" height="1">
  <data encoding="csv">
238
</data>
 </layer>
 <objectgroup id="7" name="Back"/>
 <layer id="2" name="Back2" width="1" height="1">
  <data encoding="csv">
1610612998
</data>
 </layer>
 <objectgroup id="8" name="Back2"/>
 <layer id="3" name="Buildings" width="1" height="1">
  <data encoding="csv">
3404
</data>
 </layer>
 <objectgroup id="9" name="Buildings"/>
 <layer id="4" name="Front" width="1" height="1">
  <data encoding="csv">
0
</data>
 </layer>
 <objectgroup id="10" name="Front"/>
 <layer id="5" name="Paths" width="1" height="1">
  <data encoding="csv">
0
</data>
 </layer>
 <objectgroup id="12" name="Paths"/>
 <layer id="6" name="AlwaysFront" width="1" height="1">
  <data encoding="csv">
166
</data>
 </layer>
 <objectgroup id="13" name="AlwaysFront"/>
</map>
