<?xml version="1.0" encoding="UTF-8"?>
<map version="1.10" tiledversion="1.10.2" orientation="orthogonal" renderorder="right-down" compressionlevel="0" width="7" height="8" tilewidth="16" tileheight="16" infinite="0" nextlayerid="11" nextobjectid="3">
 <properties>
  <property name="AmbientLight" value="100 100 100"/>
  <property name="DayTiles" value="Buildings 3 0 3 Back 3 2 17"/>
  <property name="NightTiles" value="Buildings 3 0 6 Back 3 2 30"/>
  <property name="Warp" value="3 8 Farm 64 15"/>
 </properties>
 <tileset firstgid="1" name="p" tilewidth="16" tileheight="16" tilecount="64" columns="4">
  <image source="paths" width="64" height="256"/>
 </tileset>
 <tileset firstgid="65" name="untitled tile sheet" tilewidth="16" tileheight="16" tilecount="2240" columns="32">
  <image source="townInterior" width="512" height="1120"/>
 </tileset>
 <tileset firstgid="2305" name="z_CampingTentWithTarp_InDoor" tilewidth="16" tileheight="16" tilecount="49" columns="7">
  <image source="z_CampingTentWithTarp_InDoor.png" width="112" height="112"/>
 </tileset>
 <layer id="1" name="Back" width="7" height="8">
  <data encoding="csv">
0,0,0,0,0,0,0,
0,0,0,0,0,0,0,
0,0,2321,2322,2323,0,0,
0,2327,2328,2329,2343,2331,0,
0,2352,2343,2328,2329,2353,0,
0,2352,2329,2343,2343,2338,0,
0,2341,2342,2343,2344,2345,0,
0,0,0,2350,0,0,0
</data>
 </layer>
 <layer id="2" name="Buildings" width="7" height="8">
  <data encoding="csv">
2305,2306,2307,2308,2309,2310,2305,
2312,2313,2314,2315,2316,2317,2318,
2319,2320,0,0,0,2324,2325,
2326,0,0,0,0,0,2332,
2333,0,0,0,0,0,2339,
2326,0,0,0,0,0,2332,
2340,0,0,0,0,0,2346,
2305,2305,2349,0,2351,2305,2305
</data>
 </layer>
 <layer id="4" name="Paths" width="7" height="8">
  <data encoding="csv">
0,0,0,0,0,0,0,
0,0,0,0,0,0,0,
0,0,0,0,0,0,0,
0,0,0,0,0,0,0,
0,0,0,0,0,0,0,
0,0,0,0,0,0,0,
0,0,0,0,0,0,0,
0,0,0,0,0,0,0
</data>
 </layer>
 <layer id="3" name="Front" width="7" height="8">
  <data encoding="csv">
0,0,0,0,0,0,0,
0,0,0,0,0,0,0,
0,0,0,0,0,0,0,
0,0,0,0,0,0,0,
0,0,0,0,0,0,0,
0,0,0,0,0,0,0,
0,0,0,0,0,0,0,
0,0,0,0,0,0,0
</data>
 </layer>
 <layer id="9" name="AlwaysFront" width="7" height="8">
  <data encoding="csv">
0,0,0,0,0,0,0,
0,0,0,0,0,0,0,
0,0,0,0,0,0,0,
0,0,0,0,0,0,0,
0,0,0,0,0,0,0,
0,0,0,0,0,2330,0,
0,2347,2348,0,2336,2337,0,
0,2305,2349,0,2351,2305,2305
</data>
 </layer>
 <objectgroup id="5" name="Back">
  <object id="1" name="TileData" x="80" y="96" width="16" height="16">
   <properties>
    <property name="Bed" value="T"/>
    <property name="TouchAction" value="Sleep"/>
   </properties>
  </object>
  <object id="2" name="TileData" x="80" y="80" width="16" height="16">
   <properties>
    <property name="Bed" value="T"/>
    <property name="TouchAction" value="Sleep"/>
   </properties>
  </object>
 </objectgroup>
 <objectgroup id="6" name="Buildings"/>
 <objectgroup id="8" name="Paths"/>
 <objectgroup id="7" name="Front"/>
 <objectgroup id="10" name="AlwaysFront"/>
</map>
