<?xml version="1.0" encoding="UTF-8"?>
<map version="1.10" tiledversion="1.10.2" orientation="orthogonal" renderorder="right-down" compressionlevel="0" width="19" height="9" tilewidth="16" tileheight="16" infinite="0" nextlayerid="34" nextobjectid="194">
 <editorsettings>
  <export target="Ts_BeachExtension(Katrielle)_MBAfix.tmx" format="tmx"/>
 </editorsettings>
 <properties>
  <property name="Fall_Objects" value="T"/>
  <property name="Outdoors" value="T"/>
  <property name="Spring_Objects" value="T"/>
  <property name="Summer_Objects" value="T"/>
  <property name="Winter_Objects" value="T"/>
 </properties>
 <tileset firstgid="1" name="v16_Shadows" tilewidth="16" tileheight="16" tilecount="475" columns="19">
  <image source="spring_Shadows" width="304" height="400"/>
 </tileset>
 <tileset firstgid="476" name="z_aimon_bextras" tilewidth="16" tileheight="16" tilecount="144" columns="12">
  <image source="z_aimon_bextras.png" width="207" height="192"/>
 </tileset>
 <layer id="2" name="Back5" width="19" height="9">
  <properties>
   <property name="Draw" value="Back"/>
  </properties>
  <data encoding="csv">
0,0,0,0,0,2684355037,3221225948,3221225948,488,488,488,536871389,0,0,0,0,0,0,0,
0,0,0,0,0,3758096860,488,488,488,488,488,488,3221225972,3221225948,536871389,0,0,0,0,
0,0,0,2684355037,1073742324,2147484136,488,488,488,488,488,488,488,488,488,536871389,0,0,0,
3221225948,3221225948,3221225948,488,488,488,488,488,488,488,488,488,488,488,488,488,3221225972,3221225948,3221225972,
488,488,488,488,488,488,488,488,488,488,488,488,488,488,488,488,488,488,488,
488,488,488,488,488,488,488,488,488,488,488,488,488,488,488,488,488,488,488,
488,488,488,488,488,488,488,488,488,488,488,488,488,488,488,488,488,488,488,
488,488,488,488,488,488,488,488,488,488,488,488,488,488,488,488,488,488,488,
488,488,488,488,488,488,488,488,488,488,488,488,488,488,488,488,488,488,488
</data>
 </layer>
</map>
